; HEADER_BLOCK_START
; generated by OrcaSlicer 2.2.0 on 2024-12-06 at 14:27:29
; total layer number: 255
; filament_density: 1.27
; filament_diameter: 1.75
; max_z_height: 51.00
; HEADER_BLOCK_END

; external perimeters extrusion width = 0.42mm
; perimeters extrusion width = 0.44mm
; infill extrusion width = 0.48mm
; solid infill extrusion width = 0.48mm
; top infill extrusion width = 0.42mm
; support material extrusion width = 0.40mm
; first layer extrusion width = 0.48mm

; EXECUTABLE_BLOCK_START
EXCLUDE_OBJECT_DEFINE NAME=Retraction_tower.stl_id_0_copy_0 CENTER=117.5,117.5 POLYGON=[[97.25,115.25],[97.2628,114.973],[97.3011,114.699],[97.3645,114.429],[97.4526,114.166],[97.5645,113.913],[97.6993,113.671],[97.8559,113.442],[98.033,113.229],[98.2289,113.033],[98.4421,112.856],[98.6707,112.699],[98.9128,112.565],[99.1663,112.453],[99.429,112.365],[99.6988,112.301],[99.9732,112.263],[100.25,112.25],[134.75,112.25],[135.027,112.263],[135.301,112.301],[135.571,112.365],[135.834,112.453],[136.087,112.565],[136.329,112.699],[136.558,112.856],[136.771,113.033],[136.967,113.229],[137.144,113.442],[137.301,113.671],[137.435,113.913],[137.547,114.166],[137.635,114.429],[137.699,114.699],[137.737,114.973],[137.75,115.25],[137.75,119.75],[137.737,120.027],[137.699,120.301],[137.635,120.571],[137.547,120.834],[137.435,121.087],[137.301,121.329],[137.144,121.558],[136.967,121.771],[136.771,121.967],[136.558,122.144],[136.329,122.301],[136.087,122.435],[135.834,122.547],[135.571,122.635],[135.301,122.699],[135.027,122.737],[134.75,122.75],[100.25,122.75],[99.9732,122.737],[99.6988,122.699],[99.429,122.635],[99.1663,122.547],[98.9128,122.435],[98.6707,122.301],[98.4421,122.144],[98.2289,121.967],[98.033,121.771],[97.8559,121.558],[97.6993,121.329],[97.5645,121.087],[97.4526,120.834],[97.3645,120.571],[97.3011,120.301],[97.2628,120.027],[97.25,119.75],[97.25,115.25]]
M73 P0 R32
;TYPE:Custom
SET_GCODE_VARIABLE MACRO=START_PRINT VARIABLE=filament_type VALUE='"PETG"'
START_PRINT BED=75 EXTRUDE=240 MELT=150 RETRACT=0.8 MARGIN=12 FILAMENT=PETG

TUNING_TOWER COMMAND=SET_RETRACTION PARAMETER=RETRACT_LENGTH START=0 STEP_DELTA=0.1 STEP_HEIGHT=5 SKIP=1
G90
G21
M83 ; use relative distances for extrusion
; filament start gcode
SET_PRESSURE_ADVANCE ADVANCE=0.075; Override pressure advance value
M106 S0
;LAYER_CHANGE
;Z:0.2
;HEIGHT:0.2
;BEFORE_LAYER_CHANGE
;LAYER_COMPLETE:1
;0.2
G92 E0

G10 ; retract
;_SET_FAN_SPEED_CHANGING_LAYER
G1 X94.356 Y100.303 F12000
G1 Z.2
G11 ; unretract
;TYPE:Skirt
;WIDTH:0.48
G1 F1200
G1 X95.242 Y99.959 E.03177
G1 X96.594 Y99.582 E.04695
G1 X97.89 Y99.334 E.0441
G1 X99.368 Y99.184 E.04969
G1 X135.355 Y99.171 E1.20323
G1 X136.699 Y99.28 E.0451
G1 X138.299 Y99.556 E.05428
G1 X139.995 Y100.039 E.05895
G1 X141.376 Y100.587 E.04969
G1 X142.7 Y101.261 E.04969
G1 X143.957 Y102.054 E.04969
G1 X144.922 Y102.783 E.04044
G1 X146.225 Y103.971 E.05895
G1 X147.217 Y105.078 E.04969
G1 X148.102 Y106.271 E.04969
G1 X148.874 Y107.542 E.04969
G1 X149.525 Y108.878 E.04969
G1 X150.049 Y110.268 E.04969
G1 X150.444 Y111.701 E.04969
G1 X150.704 Y113.165 E.0497
G1 X150.829 Y114.645 E.04969
G1 X150.829 Y120.355 E.1909
G1 X150.704 Y121.835 E.04969
G1 X150.444 Y123.299 E.0497
G1 X149.961 Y124.994 E.05894
G1 X149.424 Y126.35 E.04876
G1 X148.792 Y127.604 E.04695
G1 X148.102 Y128.729 E.04411
G1 X147.217 Y129.922 E.04969
G1 X146.225 Y131.029 E.04969
G1 X145.135 Y132.04 E.04969
G1 X143.957 Y132.945 E.04969
G1 X142.7 Y133.739 E.04969
G1 X141.122 Y134.525 E.05895
G1 X139.732 Y135.049 E.04969
G1 X138.569 Y135.38 E.04044
G1 X136.836 Y135.704 E.05894
G1 X135.355 Y135.829 E.04969
G1 X100.25 Y135.843 E1.17375
G1 X98.164 Y135.704 E.06989
G1 X96.431 Y135.38 E.05895
G1 X95.005 Y134.961 E.04969
G1 X93.624 Y134.413 E.04969
G1 X92.542 Y133.874 E.04044
G1 X91.272 Y133.102 E.04969
G1 X89.95 Y132.11 E.05528
G1 X88.775 Y131.029 E.05336
G1 X87.96 Y130.135 E.04044
G1 X87.055 Y128.957 E.04969
G1 X86.261 Y127.7 E.0497
G1 X85.475 Y126.122 E.05894
G1 X84.951 Y124.732 E.04969
G1 X84.556 Y123.299 E.0497
G1 X84.296 Y121.836 E.04969
G1 X84.157 Y119.75 E.06989
G1 X84.171 Y114.645 E.17068
G1 X84.296 Y113.164 E.04969
G1 X84.595 Y111.539 E.05528
G1 X85.039 Y110.005 E.05336
G1 X85.576 Y108.65 E.04876
G1 X86.208 Y107.396 E.04695
G1 X87.055 Y106.043 E.05336
G1 X87.783 Y105.078 E.04043
G1 X88.775 Y103.971 E.04969
G1 X89.865 Y102.96 E.04969
G1 X91.043 Y102.054 E.04969
G1 X92.3 Y101.261 E.04969
G1 X93.624 Y100.587 E.04969
G1 X94.319 Y100.318 E.02491
G10 ; retract
G1 X94.477 Y100.725 F12000
G11 ; unretract
G1 F1200
G1 X95.381 Y100.374 E.03242
G1 X96.698 Y100.006 E.04572
G1 X97.95 Y99.767 E.04263
G1 X99.389 Y99.621 E.04834
G1 X135.334 Y99.608 E1.20188
G1 X136.642 Y99.713 E.04387
G1 X138.199 Y99.982 E.05281
G1 X139.856 Y100.453 E.0576
G1 X141.199 Y100.987 E.04834
G1 X142.488 Y101.643 E.04834
G1 X143.481 Y102.258 E.03909
G1 X144.643 Y103.12 E.04834
G1 X145.916 Y104.28 E.0576
G1 X146.88 Y105.357 E.04834
G1 X147.741 Y106.519 E.04834
G1 X148.492 Y107.755 E.04834
G1 X149.125 Y109.054 E.04834
G1 X149.635 Y110.407 E.04834
G1 X150.018 Y111.801 E.04834
G1 X150.271 Y113.225 E.04835
G1 X150.392 Y114.665 E.04834
G1 X150.392 Y120.335 E.18955
G1 X150.271 Y121.775 E.04834
G1 X150.018 Y123.199 E.04835
G1 X149.547 Y124.856 E.05759
G1 X149.024 Y126.174 E.04741
G1 X148.408 Y127.395 E.04572
G1 X147.741 Y128.482 E.04263
G1 X146.88 Y129.643 E.04834
G1 X145.916 Y130.72 E.04834
G1 X144.856 Y131.703 E.04834
G1 X143.71 Y132.585 E.04834
G1 X142.488 Y133.357 E.04834
G1 X140.946 Y134.125 E.0576
G1 X139.593 Y134.635 E.04834
G1 X138.469 Y134.955 E.03909
G1 X136.775 Y135.271 E.0576
G1 X135.334 Y135.392 E.04834
G1 X100.25 Y135.406 E1.17308
G1 X98.225 Y135.271 E.06786
G1 X96.532 Y134.955 E.0576
G1 X95.144 Y134.547 E.04834
G1 X93.801 Y134.013 E.04834
G1 X92.754 Y133.492 E.03909
G1 X91.519 Y132.742 E.04834
G1 X90.226 Y131.771 E.05405
G1 X89.084 Y130.72 E.05189
G1 X88.297 Y129.856 E.03909
G1 X87.415 Y128.71 E.04834
G1 X86.643 Y127.488 E.04835
G1 X85.875 Y125.946 E.05759
G1 X85.365 Y124.593 E.04834
G1 X84.982 Y123.199 E.04835
G1 X84.729 Y121.775 E.04834
G1 X84.594 Y119.75 E.06786
G1 X84.608 Y114.665 E.17001
G1 X84.729 Y113.225 E.04834
G1 X85.021 Y111.635 E.05405
G1 X85.453 Y110.144 E.05189
G1 X85.976 Y108.826 E.04741
M73 P1 R32
G1 X86.592 Y107.605 E.04572
G1 X87.415 Y106.29 E.05189
G1 X88.12 Y105.357 E.03908
G1 X89.084 Y104.28 E.04834
G1 X90.144 Y103.297 E.04834
M73 P1 R32
G1 X91.29 Y102.415 E.04834
G1 X92.512 Y101.643 E.04834
G1 X93.801 Y100.987 E.04834
G1 X94.44 Y100.739 E.02291
G10 ; retract
G1 X94.598 Y101.146 F12000
G11 ; unretract
G1 F1200
G1 X95.52 Y100.788 E.03307
G1 X96.802 Y100.431 E.0445
G1 X98.011 Y100.2 E.04116
G1 X99.409 Y100.057 E.04699
G1 X135.314 Y100.044 E1.20053
G1 X136.586 Y100.146 E.04264
G1 X138.099 Y100.407 E.05134
G1 X139.717 Y100.867 E.05625
G1 X141.023 Y101.387 E.04699
G1 X142.275 Y102.025 E.04699
G1 X143.234 Y102.619 E.03774
G1 X144.364 Y103.456 E.04699
G1 X145.607 Y104.589 E.05625
G1 X146.544 Y105.636 E.04699
G1 X147.381 Y106.766 E.04699
G1 X148.11 Y107.967 E.04699
G1 X148.725 Y109.231 E.04699
G1 X149.221 Y110.546 E.04699
G1 X149.593 Y111.901 E.04699
G1 X149.839 Y113.285 E.047
G1 X149.956 Y114.686 E.04699
G1 X149.956 Y120.314 E.1882
G1 X149.839 Y121.715 E.04699
G1 X149.593 Y123.099 E.047
G1 X149.133 Y124.717 E.05624
G1 X148.624 Y125.997 E.04606
G1 X148.025 Y127.185 E.04449
G1 X147.381 Y128.234 E.04116
G1 X146.544 Y129.364 E.04699
G1 X145.607 Y130.411 E.04699
G1 X144.577 Y131.367 E.04699
G1 X143.463 Y132.224 E.04699
G1 X142.275 Y132.975 E.04699
G1 X140.769 Y133.725 E.05625
G1 X139.454 Y134.221 E.04699
G1 X138.368 Y134.529 E.03774
G1 X136.715 Y134.839 E.05625
G1 X135.314 Y134.956 E.04699
G1 X100.25 Y134.969 E1.1724
G1 X98.285 Y134.839 E.06584
G1 X96.632 Y134.529 E.05625
G1 X95.283 Y134.133 E.04699
G1 X93.977 Y133.613 E.04699
G1 X92.967 Y133.11 E.03774
G1 X91.766 Y132.381 E.04699
G1 X90.502 Y131.432 E.05282
G1 X89.393 Y130.411 E.05042
G1 X88.633 Y129.577 E.03774
G1 X87.776 Y128.463 E.04699
G1 X87.025 Y127.275 E.047
G1 X86.275 Y125.769 E.05624
G1 X85.779 Y124.454 E.04699
G1 X85.407 Y123.099 E.047
G1 X85.161 Y121.715 E.04699
G1 X85.031 Y119.75 E.06584
G1 X85.031 Y115.25 E.15046
G1 X85.161 Y113.285 E.06584
G1 X85.38 Y112.029 E.04264
G1 X85.779 Y110.546 E.05134
G1 X86.275 Y109.231 E.04699
G1 X86.975 Y107.815 E.05282
G1 X87.776 Y106.537 E.05042
G1 X88.456 Y105.636 E.03773
G1 X89.393 Y104.589 E.04699
G1 X90.423 Y103.633 E.04699
G1 X91.537 Y102.776 E.04699
G1 X92.725 Y102.025 E.04699
G1 X93.977 Y101.387 E.04699
G1 X94.56 Y101.161 E.02091
; printing object Retraction_tower.stl id:0 copy 0
G10 ; retract
EXCLUDE_OBJECT_START NAME=Retraction_tower.stl_id_0_copy_0
G1 X100.392 Y121.099 F12000
G11 ; unretract
;TYPE:Inner wall
;WIDTH:0.479999
G1 F1440
G1 X99.911 Y121.043 E.0162
G1 X99.431 Y120.808 E.01788
G1 X99.109 Y120.457 E.01592
G1 X98.966 Y120.121 E.01218
G1 X98.901 Y119.677 E.01502
G1 X98.901 Y115.359 E.14437
G1 X98.973 Y114.847 E.01728
G1 X99.182 Y114.437 E.01539
G1 X99.422 Y114.2 E.01128
G1 X99.9 Y113.959 E.01789
G1 X100.288 Y113.901 E.01312
G1 X134.62 Y113.912 E1.14792
M73 P1 R31
G1 X135.122 Y113.961 E.01687
G1 X135.559 Y114.179 E.01632
G1 X135.891 Y114.544 E.01649
G1 X136.035 Y114.884 E.01237
G1 X136.099 Y115.392 E.0171
G1 X136.099 Y119.752 E.14578
G1 X135.997 Y120.189 E.01503
G1 X135.818 Y120.563 E.01385
G1 X135.456 Y120.891 E.01632
M73 P1 R31
G1 X135.119 Y121.034 E.01225
G1 X134.677 Y121.099 E.01495
G1 X100.452 Y121.099 E1.14432
G10 ; retract
G1 X100.303 Y121.536 F12000
G11 ; unretract
G1 F1440
G1 X99.791 Y121.463 E.01729
G1 X99.416 Y121.299 E.01368
G1 X99.043 Y121.047 E.01507
G1 X98.736 Y120.688 E.01581
G1 X98.543 Y120.232 E.01653
G1 X98.464 Y119.697 E.01809
G1 X98.464 Y115.468 E.14141
G1 X98.525 Y114.892 E.01935
G1 X98.647 Y114.476 E.01449
G1 X98.936 Y114.059 E.01698
G1 X99.293 Y113.75 E.01578
G1 X99.767 Y113.539 E.01735
G1 X100.278 Y113.464 E.01725
G1 X134.731 Y113.475 E1.15197
G1 X135.241 Y113.538 E.01717
G1 X135.68 Y113.74 E.01614
G1 X136.066 Y114.05 E.01658
G1 X136.337 Y114.459 E.01641
G1 X136.501 Y114.923 E.01643
G1 X136.536 Y115.392 E.01572
G1 X136.536 Y119.608 E.14098
G1 X136.503 Y120.054 E.01495
G1 X136.34 Y120.546 E.01735
G1 X136.068 Y120.937 E.01591
G1 X135.688 Y121.264 E.01678
G1 X135.233 Y121.456 E.01649
G1 X134.697 Y121.536 E.01813
G1 X100.363 Y121.536 E1.14797
G10 ; retract
G1 X100.263 Y121.973 F12000
G11 ; unretract
G1 F1440
G1 X100.128 Y121.973 E.00452
G1 X99.462 Y121.824 E.02282
G1 X98.92 Y121.525 E.02069
G1 X98.751 Y121.372 E.00762
G1 X98.493 Y121.091 E.01276
G1 X98.269 Y120.73 E.01419
G1 X98.068 Y120.158 E.02028
G1 X98.027 Y119.717 E.01481
G1 X98.027 Y115.298 E.14774
G1 X98.121 Y114.627 E.02266
G1 X98.338 Y114.143 E.01774
G1 X98.635 Y113.74 E.01674
G1 X99.07 Y113.371 E.01907
G1 X99.635 Y113.119 E.02069
G1 X100.268 Y113.027 E.02137
G1 X134.62 Y113.038 E1.1486
M73 P2 R31
G1 X135.126 Y113.074 E.01695
G1 X135.553 Y113.19 E.0148
G1 X136.088 Y113.478 E.02031
G1 X136.391 Y113.754 E.0137
G1 X136.637 Y114.081 E.0137
G1 X136.82 Y114.448 E.0137
G1 X136.932 Y114.842 E.01369
G1 X136.973 Y115.392 E.01843
G1 X136.973 Y119.608 E.14098
G1 X136.933 Y120.144 E.01797
G1 X136.739 Y120.731 E.02069
G1 X136.52 Y121.089 E.01404
G1 X136.091 Y121.508 E.02005
M73 P2 R31
G1 X135.732 Y121.73 E.01411
G1 X135.158 Y121.932 E.02034
G1 X134.717 Y121.973 E.01481
G1 X100.323 Y121.973 E1.14999
G10 ; retract
G1 X100.263 Y122.41 F12000
G11 ; unretract
;TYPE:Outer wall
G1 F1440
G1 X99.761 Y122.364 E.01684
G1 X99.294 Y122.231 E.01625
G1 X98.665 Y121.883 E.02403
G1 X98.285 Y121.541 E.01711
G1 X97.989 Y121.15 E.01638
G1 X97.771 Y120.711 E.01641
G1 X97.636 Y120.239 E.01641
G1 X97.59 Y119.737 E.01684
G1 X97.59 Y115.268 E.14943
G1 X97.695 Y114.517 E.02536
G1 X97.859 Y114.088 E.01535
G1 X98.129 Y113.647 E.01728
G1 X98.459 Y113.285 E.01638
G1 X98.846 Y112.992 E.01625
G1 X99.503 Y112.7 E.02403
G1 X100.258 Y112.59 E.0255
G1 X134.969 Y112.601 E1.16061
G1 X135.478 Y112.693 E.01729
G1 X135.935 Y112.87 E.01638
G1 X136.352 Y113.128 E.01641
G1 X136.715 Y113.459 E.01641
G1 X137.011 Y113.85 E.01641
G1 X137.229 Y114.289 E.01641
G1 X137.364 Y114.761 E.01641
G1 X137.41 Y115.392 E.02113
G1 X137.41 Y119.608 E.14098
G1 X137.364 Y120.234 E.02099
G1 X137.138 Y120.916 E.02403
G1 X136.871 Y121.353 E.01711
G1 X136.541 Y121.715 E.01638
G1 X136.15 Y122.011 E.01641
G1 X135.711 Y122.229 E.01641
G1 X135.239 Y122.364 E.0164
G1 X134.737 Y122.41 E.01684
G1 X100.323 Y122.41 E1.15067
G10 ; retract
G1 X100.006 Y120.934 F12000
G11 ; unretract
;TYPE:Bottom surface
;WIDTH:0.484661
G1 F2880
G1 X99.491 Y120.418 E.02462
G1 X99.389 Y120.283 E.00573
G1 X99.306 Y120.116 E.00632
G1 X99.254 Y119.936 E.00631
G1 X99.229 Y119.532 E.0137
G1 X100.468 Y120.771 E.05922
G1 X101.093 Y120.771 E.02111
G1 X99.229 Y118.907 E.08907
G1 X99.229 Y118.282 E.02111
G1 X101.718 Y120.771 E.11893
G1 X102.342 Y120.771 E.02111
G1 X99.229 Y117.658 E.14878
G1 X99.229 Y117.033 E.02111
G1 X102.967 Y120.771 E.17864
G1 X103.592 Y120.771 E.02111
G1 X99.229 Y116.408 E.20849
G1 X99.229 Y115.784 E.02111
G1 X104.216 Y120.771 E.23835
G1 X104.841 Y120.771 E.02111
G1 X99.256 Y115.186 E.2669
G1 X99.292 Y114.93 E.00875
G1 X99.402 Y114.707 E.00839
G1 X105.466 Y120.771 E.28979
G1 X106.091 Y120.771 E.02111
G1 X99.718 Y114.398 E.30455
G1 X99.999 Y114.273 E.01039
G1 X100.182 Y114.238 E.00631
G1 X106.715 Y120.771 E.31222
G1 X107.34 Y120.771 E.02111
G1 X100.798 Y114.229 E.31263
G1 X101.423 Y114.229 E.02112
G1 X107.965 Y120.771 E.31262
G1 X108.59 Y120.771 E.02111
G1 X102.048 Y114.23 E.31261
G1 X102.673 Y114.23 E.02112
G1 X109.214 Y120.771 E.3126
G1 X109.839 Y120.771 E.02111
G1 X103.298 Y114.23 E.31259
G1 X103.923 Y114.23 E.02112
G1 X110.464 Y120.771 E.31258
G1 X111.088 Y120.771 E.02111
G1 X104.548 Y114.23 E.31257
G1 X105.173 Y114.231 E.02112
G1 X111.713 Y120.771 E.31256
G1 X112.338 Y120.771 E.02111
G1 X105.798 Y114.231 E.31255
G1 X106.423 Y114.231 E.02112
G1 X112.963 Y120.771 E.31254
G1 X113.587 Y120.771 E.02111
G1 X107.048 Y114.231 E.31253
G1 X107.672 Y114.231 E.02112
G1 X114.212 Y120.771 E.31252
G1 X114.837 Y120.771 E.02111
G1 X108.297 Y114.232 E.31251
G1 X108.922 Y114.232 E.02112
G1 X115.461 Y120.771 E.3125
G1 X116.086 Y120.771 E.02111
G1 X109.547 Y114.232 E.31249
G1 X110.172 Y114.232 E.02112
G1 X116.711 Y120.771 E.31248
G1 X117.336 Y120.771 E.02111
G1 X110.797 Y114.232 E.31247
G1 X111.422 Y114.233 E.02112
G1 X117.96 Y120.771 E.31246
G1 X118.585 Y120.771 E.02111
G1 X112.047 Y114.233 E.31245
G1 X112.672 Y114.233 E.02112
G1 X119.21 Y120.771 E.31244
G1 X119.834 Y120.771 E.02111
G1 X113.297 Y114.233 E.31243
G1 X113.922 Y114.233 E.02112
G1 X120.459 Y120.771 E.31243
G1 X121.084 Y120.771 E.02111
G1 X114.547 Y114.234 E.31242
G1 X115.171 Y114.234 E.02112
G1 X121.709 Y120.771 E.31241
G1 X122.333 Y120.771 E.02111
G1 X115.796 Y114.234 E.3124
G1 X116.421 Y114.234 E.02112
G1 X122.958 Y120.771 E.31239
G1 X123.583 Y120.771 E.02111
G1 X117.046 Y114.234 E.31238
G1 X117.671 Y114.235 E.02112
G1 X124.207 Y120.771 E.31237
G1 X124.832 Y120.771 E.02111
G1 X118.296 Y114.235 E.31236
G1 X118.921 Y114.235 E.02112
G1 X125.457 Y120.771 E.31235
G1 X126.082 Y120.771 E.02111
G1 X119.546 Y114.235 E.31234
G1 X120.171 Y114.235 E.02112
G1 X126.706 Y120.771 E.31233
G1 X127.331 Y120.771 E.02111
G1 X120.796 Y114.236 E.31232
G1 X121.421 Y114.236 E.02112
G1 X127.956 Y120.771 E.31231
G1 X128.58 Y120.771 E.02111
G1 X122.046 Y114.236 E.3123
G1 X122.67 Y114.236 E.02112
G1 X129.205 Y120.771 E.31229
G1 X129.83 Y120.771 E.02111
G1 X123.295 Y114.236 E.31228
M73 P3 R31
G1 X123.92 Y114.237 E.02112
G1 X130.455 Y120.771 E.31227
G1 X131.079 Y120.771 E.02111
G1 X124.545 Y114.237 E.31226
G1 X125.17 Y114.237 E.02112
G1 X131.704 Y120.771 E.31225
G1 X132.329 Y120.771 E.02111
G1 X125.795 Y114.237 E.31224
G1 X126.42 Y114.237 E.02112
G1 X132.953 Y120.771 E.31223
G1 X133.578 Y120.771 E.02111
G1 X127.045 Y114.238 E.31222
G1 X127.67 Y114.238 E.02112
G1 X134.203 Y120.771 E.31221
G1 X134.814 Y120.757 E.02064
G1 X128.295 Y114.238 E.31153
G1 X128.92 Y114.238 E.02112
M73 P3 R31
G1 X135.289 Y120.607 E.30437
G1 X135.432 Y120.499 E.00609
G1 X135.598 Y120.292 E.00895
