; HEADER_BLOCK_START
; generated by OrcaSlicer 2.2.0 on 2024-12-21 at 06:58:47
; total layer number: 134
; filament_density: 1.27
; filament_diameter: 1.75
; max_z_height: 25.40
; HEADER_BLOCK_END

; external perimeters extrusion width = 0.42mm
; perimeters extrusion width = 0.44mm
; infill extrusion width = 0.48mm
; solid infill extrusion width = 0.48mm
; top infill extrusion width = 0.42mm
; support material extrusion width = 0.40mm
; first layer extrusion width = 0.48mm

; EXECUTABLE_BLOCK_START
EXCLUDE_OBJECT_DEFINE NAME=Lidler4b.stl_id_0_copy_0 CENTER=117.5,117.5 POLYGON=[[101.5,106.45],[133.5,106.45],[133.5,124.95],[133.474,125.384],[133.395,125.812],[133.266,126.227],[133.088,126.623],[132.863,126.995],[132.595,127.337],[132.287,127.645],[131.945,127.913],[131.573,128.138],[131.177,128.316],[130.762,128.445],[130.334,128.524],[129.9,128.55],[108.5,128.55],[107.925,128.526],[107.89,128.523],[107.353,128.455],[107.284,128.444],[106.789,128.338],[106.688,128.311],[106.237,128.174],[106.106,128.128],[105.704,127.967],[105.7,127.966],[105.542,127.894],[105.14,127.691],[105,127.612],[104.606,127.367],[104.485,127.284],[104.104,126.997],[104,126.912],[103.636,126.584],[103.55,126.5],[103.207,126.131],[103.138,126.049],[102.82,125.641],[102.766,125.565],[102.478,125.119],[102.438,125.05],[102.184,124.569],[102.156,124.508],[101.941,123.994],[101.922,123.944],[101.749,123.4],[101.738,123.362],[101.611,122.792],[101.606,122.766],[101.528,122.173],[101.527,122.16],[101.5,121.55],[101.5,106.45]]
M73 P0 R85
;TYPE:Custom
SET_GCODE_VARIABLE MACRO=START_PRINT VARIABLE=filament_type VALUE='"PETG"'
START_PRINT BED=75 EXTRUDE=240 MELT=150 RETRACT=0.5 MARGIN=12 FILAMENT=PETG
G90
G21
M83 ; use relative distances for extrusion
; filament start gcode
SET_PRESSURE_ADVANCE ADVANCE=0.075; Override pressure advance value
M106 S0
;LAYER_CHANGE
;Z:0.2
;HEIGHT:0.2
;BEFORE_LAYER_CHANGE
;LAYER_COMPLETE:1
;0.2
G92 E0

G10 ; retract
;_SET_FAN_SPEED_CHANGING_LAYER
G1 X94.309 Y95.509 F12000
G1 Z.2
G11 ; unretract
;TYPE:Skirt
;WIDTH:0.48
G1 F1200
G1 X97.207 Y94.081 E.108
G1 X101.5 Y93.357 E.14556
G1 X133.5 Y93.357 E1.06995
G1 X136.706 Y93.756 E.108
G1 X139.716 Y94.927 E.108
G1 X142.348 Y96.8 E.108
G1 X144.441 Y99.259 E.108
G1 X145.869 Y102.157 E.108
G1 X146.593 Y106.45 E.14556
G1 X146.593 Y124.95 E.61856
G1 X146.543 Y126.174 E.04097
G1 X146.352 Y127.744 E.05286
G1 X145.766 Y130.122 E.08188
G1 X145.017 Y132.018 E.06816
G1 X144.067 Y133.769 E.0666
G1 X143.169 Y135.069 E.05284
G1 X141.546 Y136.902 E.08186
G1 X140.019 Y138.22 E.06743
G1 X138.347 Y139.342 E.06734
G1 X136.946 Y140.077 E.05289
G1 X134.657 Y140.945 E.08187
G1 X132.694 Y141.402 E.06737
G1 X131.124 Y141.593 E.05288
G1 X129.9 Y141.643 E.04097
G1 X107.911 Y141.629 E.73523
G1 X105.577 Y141.425 E.07833
G1 X103.859 Y141.095 E.05849
G1 X102.15 Y140.608 E.0594
G1 X100.529 Y139.989 E.05803
G1 X98.954 Y139.226 E.05851
G1 X97.439 Y138.319 E.05906
G1 X95.155 Y136.566 E.09625
G1 X93.897 Y135.345 E.05862
G1 X92.75 Y134.02 E.05859
G1 X91.719 Y132.592 E.05888
G1 X90.822 Y131.091 E.05847
G1 X90.06 Y129.519 E.05842
G1 X89.435 Y127.881 E.05861
G1 X88.956 Y126.195 E.05861
G1 X88.626 Y124.475 E.05858
G1 X88.446 Y122.731 E.0586
G1 X88.407 Y106.45 E.54437
G1 X88.806 Y103.244 E.108
G1 X89.977 Y100.234 E.108
G1 X91.849 Y97.602 E.108
G1 X94.279 Y95.534 E.10667
G10 ; retract
G1 X94.571 Y95.888 F12000
G11 ; unretract
G1 F1200
G1 X94.73 Y95.757 E.00688
G1 X97.605 Y94.409 E.10618
G1 X101.5 Y93.794 E.13185
G1 X133.5 Y93.794 E1.06995
G1 X136.65 Y94.193 E.10618
G1 X139.603 Y95.363 E.10618
G1 X142.171 Y97.231 E.10618
G1 X144.193 Y99.68 E.10618
G1 X145.541 Y102.555 E.10618
G1 X146.156 Y106.45 E.13185
G1 X146.156 Y124.95 E.61856
G1 X146.106 Y126.148 E.04009
G1 X145.922 Y127.665 E.0511
G1 X145.349 Y129.992 E.08012
G1 X144.618 Y131.838 E.06638
G1 X143.693 Y133.543 E.06486
G1 X142.825 Y134.8 E.05108
G1 X141.237 Y136.593 E.0801
G1 X139.749 Y137.876 E.06567
G1 X138.121 Y138.968 E.06557
G1 X136.767 Y139.678 E.05112
G1 X134.527 Y140.528 E.0801
G1 X132.615 Y140.972 E.06561
G1 X131.098 Y141.156 E.05111
G1 X129.9 Y141.206 E.04009
G1 X107.93 Y141.193 E.73458
G1 X105.634 Y140.991 E.07708
G1 X103.953 Y140.668 E.05722
G1 X102.282 Y140.191 E.05811
G1 X100.696 Y139.585 E.05677
G1 X99.156 Y138.838 E.05724
G1 X97.674 Y137.95 E.05777
G1 X95.451 Y136.243 E.09371
G1 X94.219 Y135.05 E.05734
G1 X93.097 Y133.754 E.05732
G1 X92.088 Y132.358 E.05759
G1 X91.21 Y130.889 E.05721
G1 X90.464 Y129.352 E.05714
G1 X89.852 Y127.75 E.05733
G1 X89.383 Y126.101 E.05733
G1 X89.059 Y124.418 E.05731
G1 X88.883 Y122.712 E.05733
G1 X88.844 Y106.45 E.54374
G1 X89.243 Y103.299 E.10618
G1 X90.413 Y100.347 E.10618
G1 X92.281 Y97.779 E.10618
G1 X94.54 Y95.914 E.09796
G10 ; retract
G1 X94.826 Y96.27 F12000
G11 ; unretract
G1 F1200
G1 X95.149 Y96.012 E.01385
G1 X98 Y94.744 E.10432
G1 X101.5 Y94.231 E.11827
G1 X133.5 Y94.231 E1.06995
G1 X136.595 Y94.63 E.10432
G1 X139.487 Y95.799 E.10432
G1 X141.99 Y97.663 E.10432
G1 X143.938 Y100.099 E.10432
G1 X145.206 Y102.95 E.10432
G1 X145.719 Y106.45 E.11827
G1 X145.719 Y124.95 E.61856
G1 X145.67 Y126.122 E.03921
G1 X145.492 Y127.586 E.04933
G1 X144.931 Y129.862 E.07835
G1 X144.22 Y131.658 E.06459
G1 X143.319 Y133.316 E.06311
G1 X142.481 Y134.53 E.04931
G1 X140.928 Y136.284 E.07834
G1 X139.48 Y137.531 E.0639
G1 X137.894 Y138.594 E.06381
G1 X136.587 Y139.28 E.04936
G1 X134.397 Y140.111 E.07834
G1 X132.537 Y140.542 E.06384
G1 X131.072 Y140.72 E.04934
G1 X129.9 Y140.769 E.03921
G1 X107.95 Y140.756 E.73392
G1 X105.691 Y140.558 E.07582
G1 X104.048 Y140.241 E.05594
G1 X102.414 Y139.775 E.05682
G1 X100.864 Y139.182 E.0555
G1 X99.358 Y138.45 E.05597
G1 X97.909 Y137.582 E.05649
G1 X95.746 Y135.921 E.09117
G1 X94.542 Y134.754 E.05607
G1 X93.444 Y133.487 E.05604
G1 X92.457 Y132.123 E.05631
G1 X91.598 Y130.687 E.05594
G1 X90.867 Y129.184 E.05587
G1 X90.269 Y127.618 E.05606
G1 X89.81 Y126.006 E.05606
G1 X89.492 Y124.361 E.05603
G1 X89.32 Y122.693 E.05605
G1 X89.281 Y106.45 E.5431
G1 X89.68 Y103.355 E.10432
G1 X90.849 Y100.463 E.10432
G1 X92.713 Y97.96 E.10432
G1 X94.794 Y96.295 E.08913
; printing object Lidler4b.stl id:0 copy 0
G10 ; retract
EXCLUDE_OBJECT_START NAME=Lidler4b.stl_id_0_copy_0
G1 X117.053 Y115.466 F12000
G11 ; unretract
;TYPE:Support
G1 F1440
G1 X117.499 Y115.54 E.0151
G1 X117.934 Y115.664 E.01514
G1 X118.354 Y115.834 E.01514
G1 X118.752 Y116.049 E.01514
G1 X119.124 Y116.307 E.01514
G1 X119.465 Y116.605 E.01514
G1 X119.772 Y116.938 E.01514
G1 X120.04 Y117.302 E.01514
G1 X120.266 Y117.695 E.01514
G1 X120.441 Y118.092 E.01451
G1 X120.584 Y118.542 E.0158
G1 X120.67 Y118.986 E.0151
G1 X120.708 Y119.437 E.01514
G1 X120.695 Y119.889 E.01514
G1 X120.633 Y120.338 E.01514
G1 X120.522 Y120.777 E.01514
G1 X120.363 Y121.201 E.01514
G1 X120.159 Y121.605 E.01514
G1 X119.911 Y121.984 E.01514
G1 X119.623 Y122.333 E.01514
G1 X119.299 Y122.649 E.01514
G1 X118.941 Y122.927 E.01514
G1 X118.556 Y123.164 E.01514
G1 X118.146 Y123.357 E.01514
G1 X117.718 Y123.504 E.01514
G1 X117.276 Y123.603 E.01514
G1 X116.826 Y123.653 E.01514
G1 X116.374 Y123.653 E.01514
G1 X115.924 Y123.603 E.01514
G1 X115.482 Y123.504 E.01514
G1 X115.054 Y123.357 E.01514
G1 X114.644 Y123.164 E.01514
G1 X114.259 Y122.927 E.01514
G1 X113.901 Y122.649 E.01514
G1 X113.577 Y122.333 E.01514
G1 X113.289 Y121.984 E.01514
G1 X113.041 Y121.605 E.01514
G1 X112.845 Y121.217 E.01451
G1 X112.678 Y120.775 E.0158
G1 X112.567 Y120.338 E.0151
G1 X112.505 Y119.889 E.01514
G1 X112.492 Y119.437 E.01514
G1 X112.53 Y118.986 E.01514
G1 X112.617 Y118.541 E.01514
G1 X112.752 Y118.109 E.01514
G1 X112.934 Y117.695 E.01514
G1 X113.16 Y117.302 E.01514
G1 X113.428 Y116.938 E.01514
G1 X113.735 Y116.605 E.01514
G1 X114.076 Y116.307 E.01514
G1 X114.448 Y116.049 E.01514
G1 X114.846 Y115.834 E.01514
G1 X115.266 Y115.664 E.01514
G1 X115.701 Y115.54 E.01514
G1 X116.148 Y115.466 E.01514
G1 X116.581 Y115.442 E.01451
G1 X116.988 Y115.463 E.01361
G1 X118.186 Y116.19 F12000
G1 F1440
G1 X118.545 Y116.385 E.01368
G1 X118.882 Y116.618 E.01369
G1 X119.191 Y116.887 E.01369
G1 X119.468 Y117.188 E.01369
G1 X119.71 Y117.518 E.01369
G1 X119.915 Y117.872 E.01369
G1 X120.072 Y118.231 E.01309
G1 X120.202 Y118.64 E.01435
G1 X120.28 Y119.04 E.01362
G1 X120.314 Y119.448 E.01369
G1 X120.302 Y119.857 E.01369
G1 X120.246 Y120.262 E.01369
G1 X120.146 Y120.659 E.01368
G1 X120.002 Y121.042 E.01369
G1 X119.817 Y121.408 E.01368
G1 X119.593 Y121.75 E.01369
G1 X119.333 Y122.066 E.01369
G1 X119.04 Y122.352 E.01369
G1 X118.717 Y122.603 E.01368
G1 X118.368 Y122.817 E.01369
G1 X117.998 Y122.992 E.01368
G1 X117.611 Y123.125 E.01369
G1 X117.211 Y123.214 E.01369
G1 X116.805 Y123.259 E.01368
G1 X116.395 Y123.259 E.01369
G1 X115.989 Y123.214 E.01368
G1 X115.589 Y123.125 E.01369
G1 X115.202 Y122.992 E.01369
G1 X114.832 Y122.817 E.01368
G1 X114.483 Y122.603 E.01369
G1 X114.16 Y122.352 E.01369
G1 X113.867 Y122.066 E.01369
G1 X113.606 Y121.75 E.01368
G1 X113.383 Y121.408 E.01369
G1 X113.206 Y121.058 E.01309
G1 X113.054 Y120.657 E.01435
G1 X112.954 Y120.262 E.01362
G1 X112.898 Y119.857 E.01369
G1 X112.886 Y119.448 E.01369
G1 X112.92 Y119.04 E.01369
G1 X112.999 Y118.638 E.01369
G1 X113.121 Y118.247 E.01369
G1 X113.285 Y117.872 E.01368
G1 X113.49 Y117.518 E.01369
G1 X113.732 Y117.188 E.01369
G1 X114.009 Y116.887 E.01369
G1 X114.318 Y116.618 E.01369
G1 X114.654 Y116.385 E.01369
G1 X115.014 Y116.19 E.01369
G1 X115.394 Y116.036 E.01369
G1 X115.788 Y115.925 E.01369
G1 X116.191 Y115.857 E.01369
G1 X116.582 Y115.836 E.01309
G1 X117.011 Y115.858 E.01435
G1 X117.412 Y115.925 E.01362
G1 X117.806 Y116.036 E.01369
G1 X118.186 Y116.19 E.01369
G1 X117.978 Y116.63 F12000
G1 F1440
G1 X118.291 Y116.799 E.01189
G1 X118.583 Y117.002 E.01189
G1 X118.851 Y117.236 E.01189
G1 X119.092 Y117.497 E.01189
G1 X119.303 Y117.784 E.01189
G1 X119.481 Y118.092 E.0119
G1 X119.617 Y118.402 E.01133
G1 X119.731 Y118.76 E.01256
G1 X119.798 Y119.107 E.01179
G1 X119.828 Y119.461 E.01189
G1 X119.818 Y119.817 E.01189
G1 X119.769 Y120.169 E.01189
G1 X119.682 Y120.514 E.01189
G1 X119.557 Y120.847 E.0119
G1 X119.396 Y121.164 E.01189
G1 X119.202 Y121.462 E.0119
G1 X118.975 Y121.737 E.01189
G1 X118.72 Y121.985 E.0119
G1 X118.44 Y122.203 E.01189
G1 X118.137 Y122.39 E.0119
G1 X117.815 Y122.541 E.01189
G1 X117.479 Y122.657 E.0119
G1 X117.131 Y122.735 E.0119
G1 X116.778 Y122.774 E.01189
G1 X116.422 Y122.774 E.0119
G1 X116.069 Y122.735 E.01189
G1 X115.721 Y122.657 E.0119
G1 X115.385 Y122.541 E.01189
G1 X115.063 Y122.39 E.01189
G1 X114.76 Y122.203 E.01189
G1 X114.479 Y121.985 E.01189
G1 X114.225 Y121.737 E.01189
G1 X113.998 Y121.462 E.01189
G1 X113.804 Y121.164 E.0119
G1 X113.651 Y120.862 E.01133
G1 X113.518 Y120.511 E.01256
G1 X113.431 Y120.169 E.01179
G1 X113.382 Y119.817 E.0119
G1 X113.372 Y119.461 E.01189
G1 X113.402 Y119.107 E.01189
G1 X113.47 Y118.757 E.01189
G1 X113.576 Y118.418 E.01189
G1 X113.719 Y118.092 E.01189
G1 X113.897 Y117.784 E.0119
G1 X114.108 Y117.497 E.01189
G1 X114.349 Y117.236 E.01189
G1 X114.617 Y117.002 E.01189
G1 X114.909 Y116.799 E.01189
G1 X115.222 Y116.63 E.01189
G1 X115.552 Y116.496 E.01189
G1 X115.894 Y116.399 E.01189
G1 X116.245 Y116.341 E.01189
G1 X116.583 Y116.322 E.01133
G1 X116.958 Y116.341 E.01256
G1 X117.306 Y116.399 E.01179
G1 X117.648 Y116.496 E.0119
G1 X117.978 Y116.63 E.01189
G1 X117.77 Y117.07 F12000
G1 F1440
G1 X118.036 Y117.214 E.0101
G1 X118.284 Y117.386 E.0101
G1 X118.512 Y117.584 E.0101
G1 X118.717 Y117.807 E.0101
G1 X118.896 Y118.05 E.0101
G1 X119.047 Y118.312 E.0101
G1 X119.162 Y118.574 E.00957
G1 X119.259 Y118.881 E.01077
G1 X119.316 Y119.173 E.00997
G1 X119.341 Y119.474 E.0101
G1 X119.333 Y119.776 E.0101
G1 X119.291 Y120.076 E.0101
G1 X119.217 Y120.369 E.0101
G1 X119.111 Y120.652 E.0101
G1 X118.975 Y120.921 E.0101
G1 X118.81 Y121.174 E.0101
G1 X118.618 Y121.407 E.0101
G1 X118.401 Y121.618 E.0101
G1 X118.163 Y121.804 E.0101
G1 X117.905 Y121.962 E.0101
G1 X117.632 Y122.091 E.0101
G1 X117.346 Y122.189 E.0101
G1 X117.051 Y122.255 E.0101
G1 X116.751 Y122.288 E.0101
G1 X116.449 Y122.288 E.0101
G1 X116.149 Y122.255 E.0101
G1 X115.854 Y122.189 E.0101
G1 X115.568 Y122.091 E.0101
G1 X115.295 Y121.962 E.0101
G1 X115.037 Y121.804 E.0101
G1 X114.799 Y121.618 E.0101
G1 X114.582 Y121.407 E.0101
G1 X114.39 Y121.174 E.0101
G1 X114.225 Y120.921 E.01011
G1 X114.096 Y120.666 E.00957
G1 X113.982 Y120.365 E.01076
G1 X113.908 Y120.076 E.00997
G1 X113.867 Y119.776 E.0101
G1 X113.859 Y119.474 E.0101
G1 X113.884 Y119.173 E.0101
G1 X113.942 Y118.877 E.0101
G1 X114.032 Y118.588 E.0101
G1 X114.153 Y118.312 E.0101
G1 X114.304 Y118.05 E.0101
G1 X114.483 Y117.807 E.0101
G1 X114.688 Y117.584 E.0101
G1 X114.916 Y117.386 E.0101
G1 X115.164 Y117.214 E.0101
G1 X115.43 Y117.07 E.0101
G1 X115.71 Y116.956 E.0101
G1 X116 Y116.874 E.0101
G1 X116.298 Y116.824 E.0101
G1 X116.584 Y116.808 E.00957
G1 X116.906 Y116.825 E.01076
G1 X117.2 Y116.874 E.00997
G1 X117.49 Y116.956 E.0101
G1 X117.77 Y117.07 E.0101
G1 X117.563 Y117.51 F12000
G1 F1440
G1 X117.781 Y117.628 E.00831
G1 X117.986 Y117.77 E.00831
G1 X118.173 Y117.933 E.00831
G1 X118.341 Y118.116 E.00831
G1 X118.489 Y118.316 E.00831
G1 X118.613 Y118.531 E.00831
G1 X118.707 Y118.745 E.00781
G1 X118.788 Y119.001 E.00897
G1 X118.835 Y119.24 E.00814
G1 X118.855 Y119.488 E.00831
G1 X118.848 Y119.736 E.00831
G1 X118.814 Y119.983 E.00831
G1 X118.753 Y120.223 E.00831
G1 X118.666 Y120.456 E.00831
G1 X118.554 Y120.678 E.00831
G1 X118.418 Y120.886 E.00831
G1 X118.26 Y121.078 E.00831
G1 X118.082 Y121.251 E.00831
G1 X117.885 Y121.404 E.00831
G1 X117.674 Y121.534 E.00831
G1 X117.449 Y121.64 E.00831
G1 X117.214 Y121.721 E.00831
G1 X116.971 Y121.775 E.00831
G1 X116.724 Y121.803 E.00831
G1 X116.476 Y121.803 E.00831
G1 X116.229 Y121.775 E.00831
G1 X115.986 Y121.721 E.00831
G1 X115.751 Y121.64 E.00831
G1 X115.526 Y121.534 E.00831
G1 X115.315 Y121.404 E.00831
G1 X115.118 Y121.251 E.00831
G1 X114.94 Y121.078 E.00831
G1 X114.782 Y120.886 E.00831
G1 X114.646 Y120.678 E.00831
G1 X114.541 Y120.47 E.00781
G1 X114.446 Y120.219 E.00897
G1 X114.386 Y119.983 E.00814
G1 X114.352 Y119.736 E.00831
G1 X114.345 Y119.488 E.00831
G1 X114.365 Y119.24 E.00831
G1 X114.413 Y118.996 E.00831
G1 X114.487 Y118.759 E.00831
G1 X114.587 Y118.531 E.00831
G1 X114.711 Y118.316 E.00831
G1 X114.859 Y118.116 E.00831
G1 X115.027 Y117.933 E.00831
G1 X115.214 Y117.77 E.00831
G1 X115.419 Y117.628 E.00831
G1 X115.637 Y117.51 E.00831
G1 X115.867 Y117.416 E.00831
G1 X116.107 Y117.349 E.00831
G1 X116.352 Y117.308 E.00831
G1 X116.585 Y117.295 E.00781
G1 X116.853 Y117.309 E.00897
G1 X117.093 Y117.349 E.00814
G1 X117.333 Y117.416 E.00831
G1 X117.563 Y117.51 E.00831
G1 X117.355 Y117.95 F12000
G1 F1440
G1 X117.527 Y118.042 E.00652
G1 X117.687 Y118.154 E.00652
G1 X117.834 Y118.282 E.00652
G1 X117.966 Y118.425 E.00652
G1 X118.081 Y118.582 E.00652
G1 X118.179 Y118.751 E.00652
G1 X118.252 Y118.917 E.00605
G1 X118.317 Y119.121 E.00718
G1 X118.353 Y119.307 E.00632
G1 X118.369 Y119.501 E.00652
G1 X118.364 Y119.696 E.00652
G1 X118.337 Y119.889 E.00652
G1 X118.289 Y120.078 E.00652
G1 X118.221 Y120.261 E.00652
G1 X118.133 Y120.435 E.00652
G1 X118.026 Y120.598 E.00652
G1 X117.902 Y120.749 E.00652
G1 X117.762 Y120.884 E.00652
G1 X117.608 Y121.004 E.00652
G1 X117.442 Y121.106 E.00652
G1 X117.266 Y121.189 E.00651
G1 X117.082 Y121.253 E.00652
G1 X116.891 Y121.295 E.00652
G1 X116.698 Y121.317 E.00651
G1 X116.502 Y121.317 E.00652
G1 X116.309 Y121.295 E.00651
G1 X116.118 Y121.253 E.00652
G1 X115.934 Y121.19 E.00652
G1 X115.758 Y121.106 E.00651
G1 X115.592 Y121.004 E.00652
G1 X115.438 Y120.884 E.00652
G1 X115.298 Y120.749 E.00652
G1 X115.174 Y120.598 E.00652
G1 X115.067 Y120.435 E.00652
G1 X114.986 Y120.273 E.00605
G1 X114.91 Y120.072 E.00718
G1 X114.863 Y119.889 E.00632
G1 X114.836 Y119.696 E.00652
G1 X114.831 Y119.501 E.00652
G1 X114.847 Y119.307 E.00652
G1 X114.885 Y119.116 E.00652
G1 X114.943 Y118.929 E.00652
G1 X115.021 Y118.751 E.00652
M73 P0 R84
G1 X115.119 Y118.582 E.00652
G1 X115.234 Y118.425 E.00652
G1 X115.366 Y118.282 E.00652
G1 X115.513 Y118.154 E.00652
G1 X115.673 Y118.042 E.00652
G1 X115.845 Y117.95 E.00652
