; HEADER_BLOCK_START
; generated by OrcaSlicer 2.2.0 on 2024-12-20 at 15:34:56
; total layer number: 58
; filament_density: 1.27
; filament_diameter: 1.75
; max_z_height: 11.60
; HEADER_BLOCK_END

; external perimeters extrusion width = 0.42mm
; perimeters extrusion width = 0.44mm
; infill extrusion width = 0.48mm
; solid infill extrusion width = 0.48mm
; top infill extrusion width = 0.42mm
; support material extrusion width = 0.40mm
; first layer extrusion width = 0.48mm

; EXECUTABLE_BLOCK_START
EXCLUDE_OBJECT_DEFINE NAME=lm8uu_clampV2.stl_id_0_copy_0 CENTER=117.5,117.5 POLYGON=[[99.5,103],[99.5096,102.804],[99.5304,102.653],[99.5384,102.61],[99.5861,102.419],[99.6206,102.316],[99.6522,102.235],[99.7362,102.057],[99.7679,102],[99.8371,101.889],[99.954,101.731],[99.9679,101.714],[100.086,101.586],[100.214,101.468],[100.231,101.454],[100.389,101.337],[100.5,101.268],[100.557,101.236],[100.735,101.152],[100.816,101.121],[100.919,101.086],[101.11,101.038],[101.153,101.03],[101.304,101.01],[101.5,101],[133.5,101],[133.696,101.01],[133.847,101.03],[133.89,101.038],[134.081,101.086],[134.184,101.121],[134.265,101.152],[134.443,101.236],[134.5,101.268],[134.611,101.337],[134.769,101.454],[134.786,101.468],[134.914,101.586],[135.032,101.714],[135.046,101.731],[135.163,101.889],[135.232,102],[135.264,102.057],[135.348,102.235],[135.379,102.316],[135.414,102.419],[135.462,102.61],[135.47,102.653],[135.49,102.804],[135.5,103],[135.5,132],[135.49,132.196],[135.47,132.347],[135.462,132.39],[135.414,132.581],[135.379,132.684],[135.348,132.765],[135.264,132.943],[135.232,133],[135.163,133.111],[135.046,133.269],[135.032,133.286],[134.914,133.414],[134.786,133.532],[134.769,133.546],[134.611,133.663],[134.5,133.732],[134.443,133.764],[134.265,133.848],[134.184,133.879],[134.081,133.914],[133.89,133.962],[133.847,133.97],[133.696,133.99],[133.5,134],[101.5,134],[101.304,133.99],[101.153,133.97],[101.11,133.962],[100.919,133.914],[100.816,133.879],[100.735,133.848],[100.557,133.764],[100.5,133.732],[100.389,133.663],[100.231,133.546],[100.214,133.532],[100.086,133.414],[99.9679,133.286],[99.954,133.269],[99.8371,133.111],[99.7679,133],[99.7362,132.943],[99.6522,132.765],[99.6206,132.684],[99.5861,132.581],[99.5384,132.39],[99.5304,132.347],[99.5096,132.196],[99.5,132],[99.5,103]]
M73 P0 R69
;TYPE:Custom
SET_GCODE_VARIABLE MACRO=START_PRINT VARIABLE=filament_type VALUE='"PETG"'
START_PRINT BED=75 EXTRUDE=240 MELT=150 RETRACT=0.5 MARGIN=12 FILAMENT=PETG
G90
G21
M83 ; use relative distances for extrusion
; filament start gcode
SET_PRESSURE_ADVANCE ADVANCE=0.075; Override pressure advance value
M106 S0
;LAYER_CHANGE
;Z:0.2
;HEIGHT:0.2
;BEFORE_LAYER_CHANGE
;LAYER_COMPLETE:1
;0.2
G92 E0

G10 ; retract
;_SET_FAN_SPEED_CHANGING_LAYER
G1 X91.243 Y91.969 F12000
G1 Z.2
G11 ; unretract
;TYPE:Skirt
;WIDTH:0.48
G1 F1200
G1 X92.705 Y90.743 E.0638
G1 X94.967 Y89.402 E.08791
G1 X97.427 Y88.474 E.08792
G1 X100.012 Y87.987 E.08796
G1 X101.5 Y87.907 E.04982
G1 X133.502 Y87.907 E1.07
G1 X134.99 Y87.988 E.04984
G1 X137.573 Y88.474 E.08788
G1 X140.033 Y89.402 E.08792
G1 X142.295 Y90.743 E.08791
G1 X144.29 Y92.457 E.08794
G1 X145.957 Y94.49 E.08793
G1 X147.245 Y96.783 E.08792
G1 X148.116 Y99.264 E.08792
G1 X148.512 Y101.512 E.07632
G1 X148.593 Y103 E.04984
G1 X148.593 Y132 E.96964
G1 X148.539 Y133.179 E.03947
G1 X148.115 Y135.742 E.08686
G1 X147.246 Y138.217 E.08771
G1 X145.757 Y140.796 E.09956
G1 X144.044 Y142.79 E.08791
G1 X142.295 Y144.257 E.07633
G1 X140.033 Y145.598 E.08791
G1 X137.236 Y146.616 E.09952
G1 X134.641 Y147.043 E.08793
G1 X100.358 Y147.043 E1.14628
G1 X97.427 Y146.526 E.09953
G1 X94.967 Y145.598 E.08792
G1 X92.705 Y144.257 E.08791
G1 X90.956 Y142.79 E.07632
G1 X89.243 Y140.796 E.0879
G1 X87.902 Y138.533 E.08795
G1 X86.884 Y135.736 E.09951
G1 X86.457 Y133.141 E.08793
G1 X86.457 Y101.859 E1.04595
G1 X86.987 Y98.885 E.10101
G1 X87.902 Y96.467 E.08645
G1 X89.243 Y94.205 E.08792
G1 X90.956 Y92.21 E.08792
G1 X91.213 Y91.995 E.01119
G10 ; retract
G1 X91.493 Y92.329 F12000
G11 ; unretract
G1 F1200
G1 X92.956 Y91.101 E.06386
G1 X95.151 Y89.798 E.08536
G1 X97.54 Y88.896 E.08537
G1 X100.05 Y88.423 E.08541
G1 X101.5 Y88.344 E.04854
G1 X133.502 Y88.344 E1.07
G1 X134.952 Y88.423 E.04856
G1 X137.46 Y88.896 E.08534
G1 X139.849 Y89.798 E.08537
G1 X142.044 Y91.101 E.08536
G1 X143.981 Y92.766 E.08539
G1 X145.599 Y94.741 E.08538
G1 X146.849 Y96.967 E.08537
G1 X147.694 Y99.377 E.08537
G1 X148.077 Y101.55 E.07377
G1 X148.156 Y103 E.04856
G1 X148.104 Y133.14 E1.00775
G1 X147.692 Y135.629 E.08435
G1 X146.849 Y138.032 E.08516
G1 X145.399 Y140.545 E.09701
G1 X143.735 Y142.481 E.08536
G1 X142.044 Y143.899 E.07378
G1 X139.849 Y145.202 E.08536
G1 X137.123 Y146.194 E.09698
G1 X134.603 Y146.607 E.08538
G1 X100.397 Y146.607 E1.14374
G1 X97.54 Y146.104 E.09698
G1 X95.151 Y145.202 E.08537
G1 X92.956 Y143.899 E.08536
G1 X91.265 Y142.481 E.07378
G1 X89.601 Y140.545 E.08536
G1 X88.298 Y138.348 E.08541
G1 X87.306 Y135.623 E.09697
G1 X86.893 Y133.103 E.08538
G1 X86.893 Y101.897 E1.0434
G1 X87.408 Y98.999 E.09842
G1 X88.298 Y96.651 E.08395
G1 X89.601 Y94.456 E.08537
G1 X91.265 Y92.519 E.08538
G1 X91.462 Y92.354 E.00858
G10 ; retract
G1 X91.742 Y92.688 F12000
G11 ; unretract
G1 F1200
G1 X93.206 Y91.459 E.06392
G1 X95.336 Y90.194 E.08282
G1 X97.653 Y89.318 E.08283
G1 X100.088 Y88.858 E.08286
G1 X101.5 Y88.781 E.04727
G1 X133.502 Y88.782 E1.07
G1 X134.914 Y88.858 E.04728
G1 X137.347 Y89.318 E.08279
G1 X139.664 Y90.194 E.08282
G1 X141.794 Y91.459 E.08282
G1 X143.672 Y93.075 E.08285
G1 X145.241 Y94.992 E.08283
G1 X146.453 Y97.152 E.08282
G1 X147.272 Y99.49 E.08283
G1 X147.642 Y101.588 E.07122
G1 X147.719 Y103 E.04729
G1 X147.669 Y133.1 E1.00644
G1 X147.27 Y135.516 E.08185
G1 X146.453 Y137.848 E.08261
G1 X145.041 Y140.294 E.09446
G1 X143.426 Y142.172 E.08281
G1 X141.794 Y143.541 E.07123
G1 X139.664 Y144.806 E.08282
G1 X137.01 Y145.772 E.09443
G1 X134.565 Y146.172 E.08283
G1 X100.435 Y146.172 E1.14119
G1 X97.653 Y145.681 E.09443
G1 X95.336 Y144.806 E.08282
G1 X93.206 Y143.541 E.08282
G1 X91.575 Y142.172 E.07123
G1 X89.959 Y140.294 E.08281
G1 X88.694 Y138.163 E.08286
G1 X87.728 Y135.51 E.09442
G1 X87.328 Y133.065 E.08284
G1 X87.328 Y101.935 E1.04085
G1 X87.83 Y99.114 E.09582
G1 X88.694 Y96.836 E.08144
G1 X89.959 Y94.706 E.08282
G1 X91.574 Y92.828 E.08283
G1 X91.711 Y92.714 E.00597
; printing object lm8uu_clampV2.stl id:0 copy 0
G10 ; retract
EXCLUDE_OBJECT_START NAME=lm8uu_clampV2.stl_id_0_copy_0
G1 X130.625 Y123.879 F12000
G11 ; unretract
;TYPE:Inner wall
;WIDTH:0.479999
G1 F1440
G1 X131.178 Y123.86 E.01851
G1 X132.1 Y123.691 E.03134
G1 X132.1 Y130.6 E.23101
G1 X102.9 Y130.6 E.97636
G1 X102.9 Y124.718 E.19667
G1 X102.924 Y123.699 E.03411
G1 X103.822 Y123.86 E.03051
G1 X104.734 Y123.892 E.03052
G1 X105.641 Y123.793 E.03051
G1 X106.525 Y123.567 E.03052
G1 X107.368 Y123.217 E.03051
G1 X108.157 Y122.747 E.03069
G1 X108.866 Y122.174 E.0305
G1 X109.483 Y121.509 E.03034
G1 X110.003 Y120.759 E.03052
G1 X110.411 Y119.942 E.03051
G1 X110.698 Y119.076 E.03051
G1 X110.86 Y118.178 E.03051
G1 X110.892 Y117.266 E.03051
G1 X110.793 Y116.359 E.03051
G1 X110.567 Y115.475 E.03051
G1 X110.217 Y114.632 E.03051
G1 X109.75 Y113.848 E.03052
G1 X109.339 Y113.312 E.02258
G1 X108.862 Y112.823 E.02284
G1 X108.152 Y112.249 E.03052
G1 X107.368 Y111.783 E.03051
G1 X106.525 Y111.433 E.03052
G1 X105.625 Y111.203 E.03106
G1 X104.723 Y111.108 E.03031
G1 X103.822 Y111.14 E.03015
G1 X102.9 Y111.309 E.03135
G1 X102.9 Y104.4 E.23101
G1 X132.1 Y104.4 E.97636
G1 X132.1 Y110.274 E.19643
G1 X132.076 Y111.302 E.03435
G1 X131.173 Y111.14 E.0307
G1 X130.261 Y111.109 E.03049
G1 X129.359 Y111.207 E.03035
G1 X128.475 Y111.433 E.0305
G1 X127.632 Y111.783 E.03052
G1 X126.848 Y112.25 E.03051
G1 X126.138 Y112.823 E.03051
G1 X125.517 Y113.491 E.03051
G1 X124.997 Y114.241 E.03052
G1 X124.589 Y115.058 E.03051
G1 X124.302 Y115.924 E.03051
G1 X124.14 Y116.822 E.03051
G1 X124.108 Y117.734 E.03051
G1 X124.207 Y118.641 E.03051
G1 X124.433 Y119.525 E.03051
G1 X124.783 Y120.368 E.03051
G1 X125.25 Y121.152 E.03052
G1 X125.661 Y121.688 E.02258
G1 X126.138 Y122.177 E.02284
G1 X126.848 Y122.75 E.03051
G1 X127.632 Y123.217 E.03051
G1 X128.475 Y123.567 E.03051
G1 X129.375 Y123.797 E.03107
G1 X130.266 Y123.892 E.02996
G1 X130.585 Y123.88 E.01067
G10 ; retract
G1 X130.617 Y123.444 F12000
G11 ; unretract
G1 F1440
G1 X131.147 Y123.424 E.01775
G1 X131.983 Y123.271 E.02842
G1 X132.538 Y123.096 E.01944
G1 X132.538 Y131.038 E.26555
G1 X102.462 Y131.038 E1.00558
M73 P1 R69
G1 X102.462 Y123.096 E.26555
M73 P1 R68
G1 X103.017 Y123.271 E.01944
G1 X103.853 Y123.424 E.02842
G1 X104.703 Y123.456 E.02843
G1 X105.548 Y123.366 E.02842
G1 X106.372 Y123.157 E.02843
G1 X107.158 Y122.833 E.02843
G1 X107.894 Y122.398 E.02858
G1 X108.557 Y121.865 E.02844
G1 X109.134 Y121.247 E.02825
G1 X109.62 Y120.549 E.02843
M73 P1 R69
G1 X110.002 Y119.79 E.02843
M73 P1 R68
G1 X110.271 Y118.983 E.02843
G1 X110.424 Y118.147 E.02843
G1 X110.456 Y117.297 E.02843
G1 X110.366 Y116.452 E.02843
G1 X110.157 Y115.628 E.02843
G1 X109.833 Y114.842 E.02842
G1 X109.401 Y114.11 E.02843
G1 X109.009 Y113.598 E.02156
G1 X108.553 Y113.132 E.02178
G1 X107.89 Y112.599 E.02843
G1 X107.158 Y112.167 E.02842
G1 X106.372 Y111.843 E.02843
G1 X105.534 Y111.631 E.02891
G1 X104.693 Y111.544 E.02828
G1 X103.853 Y111.576 E.02809
G1 X103.016 Y111.729 E.02844
G1 X102.462 Y111.904 E.01943
G1 X102.462 Y103.962 E.26554
G1 X132.538 Y103.963 E1.00558
G1 X132.538 Y111.904 E.26554
G1 X131.984 Y111.729 E.01943
G1 X131.142 Y111.576 E.02859
G1 X130.292 Y111.545 E.02843
G1 X129.452 Y111.634 E.02826
G1 X128.628 Y111.843 E.02842
G1 X127.842 Y112.167 E.02843
G1 X127.11 Y112.599 E.02843
G1 X126.447 Y113.132 E.02843
G1 X125.866 Y113.753 E.02843
G1 X125.38 Y114.451 E.02843
G1 X124.998 Y115.21 E.02843
G1 X124.729 Y116.017 E.02843
G1 X124.576 Y116.853 E.02843
G1 X124.544 Y117.703 E.02843
G1 X124.634 Y118.548 E.02843
G1 X124.843 Y119.372 E.02843
G1 X125.167 Y120.158 E.02842
G1 X125.599 Y120.89 E.02843
G1 X125.991 Y121.402 E.02156
G1 X126.447 Y121.868 E.02178
G1 X127.11 Y122.401 E.02843
G1 X127.842 Y122.833 E.02843
G1 X128.628 Y123.157 E.02843
G1 X129.466 Y123.369 E.02891
G1 X130.297 Y123.456 E.02795
G1 X130.577 Y123.445 E.00935
G10 ; retract
G1 X130.423 Y123.01 F12000
G11 ; unretract
G1 F1440
G1 X130.672 Y123.02 E.00833
G1 X131.455 Y122.939 E.02634
G1 X132.22 Y122.748 E.02635
G1 X132.975 Y122.436 E.02731
G1 X132.975 Y131.475 E.30223
G1 X102.025 Y131.475 E1.03481
G1 X102.025 Y122.436 E.30223
G1 X102.363 Y122.592 E.01244
G1 X103.11 Y122.844 E.02635
G1 X103.884 Y122.988 E.02634
G1 X104.672 Y123.02 E.02635
G1 X105.455 Y122.939 E.02634
G1 X106.22 Y122.748 E.02635
G1 X106.949 Y122.45 E.02634
G1 X107.632 Y122.048 E.02648
G1 X108.248 Y121.555 E.02638
G1 X108.784 Y120.985 E.02617
G1 X109.236 Y120.34 E.02635
G1 X109.592 Y119.637 E.02634
G1 X109.844 Y118.89 E.02634
G1 X109.988 Y118.116 E.02634
G1 X110.02 Y117.329 E.02634
G1 X109.939 Y116.545 E.02635
G1 X109.748 Y115.78 E.02635
G1 X109.45 Y115.051 E.02634
G1 X109.051 Y114.372 E.02635
G1 X108.559 Y113.756 E.02634
G1 X107.985 Y113.216 E.02635
G1 X107.34 Y112.764 E.02634
G1 X106.637 Y112.408 E.02635
G1 X105.891 Y112.156 E.02634
G1 X105.112 Y112.012 E.02649
G1 X104.323 Y111.981 E.02637
G1 X103.545 Y112.061 E.02618
G1 X102.781 Y112.252 E.02634
G1 X102.025 Y112.564 E.02732
G1 X102.025 Y103.525 E.30223
G1 X132.975 Y103.525 E1.03481
G1 X132.975 Y112.564 E.30223
G1 X132.637 Y112.408 E.01245
G1 X131.891 Y112.156 E.02634
G1 X131.112 Y112.012 E.02649
G1 X130.323 Y111.981 E.02637
G1 X129.545 Y112.061 E.02618
G1 X128.78 Y112.252 E.02634
G1 X128.051 Y112.55 E.02635
G1 X127.372 Y112.949 E.02634
G1 X126.756 Y113.441 E.02635
G1 X126.216 Y114.015 E.02634
G1 X125.764 Y114.66 E.02635
G1 X125.408 Y115.363 E.02634
G1 X125.156 Y116.109 E.02634
G1 X125.012 Y116.884 E.02634
G1 X124.98 Y117.671 E.02634
G1 X125.061 Y118.455 E.02634
G1 X125.252 Y119.22 E.02634
G1 X125.55 Y119.949 E.02634
G1 X125.949 Y120.628 E.02635
G1 X126.441 Y121.244 E.02634
G1 X127.015 Y121.784 E.02635
G1 X127.66 Y122.236 E.02634
G1 X128.363 Y122.592 E.02634
G1 X129.11 Y122.844 E.02635
G1 X129.884 Y122.988 E.02634
G1 X130.383 Y123.008 E.01668
G10 ; retract
G1 X130.434 Y122.575 F12000
G11 ; unretract
G1 F1440
G1 X130.64 Y122.584 E.00692
G1 X131.362 Y122.512 E.02426
G1 X132.067 Y122.338 E.02426
G1 X132.739 Y122.066 E.02426
G1 X133.412 Y121.667 E.02614
G1 X133.412 Y131.912 E.34255
G1 X101.591 Y131.909 E1.06394
G1 X101.588 Y121.667 E.34244
G1 X101.87 Y121.852 E.01127
G1 X102.516 Y122.182 E.02426
G1 X103.202 Y122.417 E.02427
G1 X103.915 Y122.552 E.02426
G1 X104.64 Y122.584 E.02426
G1 X105.362 Y122.512 E.02426
G1 X106.067 Y122.338 E.02426
G1 X106.739 Y122.066 E.02426
G1 X107.369 Y121.699 E.02437
G1 X107.939 Y121.246 E.02432
G1 X108.434 Y120.723 E.02409
G1 X108.852 Y120.13 E.02426
G1 X109.183 Y119.484 E.02426
G1 X109.417 Y118.798 E.02426
G1 X109.552 Y118.085 E.02426
G1 X109.584 Y117.36 E.02426
G1 X109.512 Y116.638 E.02426
G1 X109.338 Y115.933 E.02426
G1 X109.066 Y115.261 E.02426
G1 X108.701 Y114.633 E.02426
G1 X108.25 Y114.065 E.02426
G1 X107.723 Y113.566 E.02426
G1 X107.13 Y113.148 E.02426
G1 X106.484 Y112.817 E.02426
G1 X105.798 Y112.583 E.02426
G1 X105.081 Y112.448 E.02438
G1 X104.355 Y112.417 E.02431
G1 X103.638 Y112.488 E.0241
G1 X102.933 Y112.662 E.02425
G1 X102.261 Y112.934 E.02426
G1 X101.588 Y113.333 E.02614
G1 X101.591 Y103.091 E.34244
G1 X133.409 Y103.091 E1.06384
G1 X133.412 Y113.333 E.34244
G1 X133.13 Y113.148 E.01127
G1 X132.484 Y112.817 E.02426
G1 X131.798 Y112.583 E.02426
G1 X131.081 Y112.448 E.02438
G1 X130.355 Y112.417 E.02431
G1 X129.638 Y112.488 E.0241
G1 X128.933 Y112.662 E.02425
G1 X128.261 Y112.934 E.02426
G1 X127.634 Y113.299 E.02426
G1 X127.065 Y113.75 E.02426
G1 X126.566 Y114.277 E.02426
G1 X126.148 Y114.87 E.02426
G1 X125.817 Y115.516 E.02426
G1 X125.583 Y116.202 E.02426
G1 X125.448 Y116.915 E.02426
G1 X125.416 Y117.64 E.02426
G1 X125.488 Y118.362 E.02426
G1 X125.662 Y119.067 E.02426
G1 X125.934 Y119.739 E.02426
G1 X126.299 Y120.366 E.02426
G1 X126.75 Y120.935 E.02426
G1 X127.277 Y121.434 E.02426
G1 X127.87 Y121.852 E.02426
G1 X128.516 Y122.182 E.02426
G1 X129.202 Y122.417 E.02427
G1 X129.915 Y122.552 E.02426
G1 X130.394 Y122.573 E.01601
G10 ; retract
G1 X130.583 Y122.138 F12000
G11 ; unretract
G1 F1440
G1 X131.053 Y122.116 E.01575
G1 X131.705 Y121.99 E.02217
G1 X132.331 Y121.773 E.02218
G1 X132.921 Y121.469 E.02218
G1 X133.467 Y121.079 E.02243
G1 X133.849 Y120.718 E.01756
G1 X133.849 Y131.905 E.37405
G1 X133.81 Y132.143 E.00804
G1 X133.671 Y132.297 E.00692
G1 X133.428 Y132.349 E.00832
G1 X101.591 Y132.349 E1.06448
G1 X101.356 Y132.309 E.00798
G1 X101.203 Y132.171 E.00687
G1 X101.151 Y131.928 E.00832
G1 X101.151 Y120.718 E.3748
G1 X101.539 Y121.084 E.01782
G1 X102.079 Y121.469 E.02218
G1 X102.669 Y121.773 E.02218
G1 X103.295 Y121.99 E.02218
G1 X103.947 Y122.116 E.02218
G1 X104.609 Y122.148 E.02218
G1 X105.269 Y122.085 E.02218
G1 X105.914 Y121.929 E.02218
G1 X106.53 Y121.682 E.02218
G1 X107.107 Y121.349 E.02226
G1 X107.63 Y120.937 E.02226
G1 X108.084 Y120.461 E.022
G1 X108.469 Y119.921 E.02218
G1 X108.773 Y119.331 E.02218
G1 X108.99 Y118.705 E.02218
G1 X109.116 Y118.053 E.02218
G1 X109.148 Y117.391 E.02218
G1 X109.085 Y116.731 E.02218
G1 X108.929 Y116.086 E.02218
G1 X108.682 Y115.47 E.02217
G1 X108.351 Y114.895 E.02218
G1 X108.017 Y114.455 E.01848
G1 X107.626 Y114.059 E.0186
G1 X107.104 Y113.649 E.02218
G1 X106.53 Y113.318 E.02218
G1 X105.914 Y113.071 E.02218
G1 X105.262 Y112.914 E.02244
G1 X104.601 Y112.853 E.02217
G1 X103.947 Y112.884 E.02192
G1 X103.295 Y113.01 E.02218
G1 X102.669 Y113.227 E.02217
G1 X102.079 Y113.531 E.02218
G1 X101.539 Y113.916 E.02218
G1 X101.151 Y114.282 E.01782
G1 X101.151 Y103.091 E.37416
G1 X101.191 Y102.854 E.00803
G1 X101.329 Y102.703 E.00682
G1 X101.572 Y102.651 E.00832
G1 X133.409 Y102.651 E1.06449
G1 X133.644 Y102.691 E.00798
G1 X133.797 Y102.829 E.00687
G1 X133.849 Y103.091 E.00895
G1 X133.849 Y114.282 E.37416
G1 X133.461 Y113.916 E.01782
G1 X132.921 Y113.531 E.02218
