; HEADER_BLOCK_START
; generated by OrcaSlicer 2.2.0 on 2024-12-21 at 07:00:12
; total layer number: 134
; filament_density: 1.27
; filament_diameter: 1.75
; max_z_height: 25.40
; HEADER_BLOCK_END

; external perimeters extrusion width = 0.42mm
; perimeters extrusion width = 0.44mm
; infill extrusion width = 0.48mm
; solid infill extrusion width = 0.48mm
; top infill extrusion width = 0.42mm
; support material extrusion width = 0.40mm
; first layer extrusion width = 0.48mm

; EXECUTABLE_BLOCK_START
EXCLUDE_OBJECT_DEFINE NAME=Ridler4b.stl_id_0_copy_0 CENTER=117.5,117.5 POLYGON=[[101.5,106.45],[133.5,106.45],[133.5,121.55],[133.473,122.16],[133.472,122.173],[133.394,122.766],[133.389,122.792],[133.262,123.362],[133.251,123.4],[133.078,123.944],[133.059,123.994],[132.844,124.508],[132.816,124.569],[132.562,125.05],[132.522,125.119],[132.234,125.565],[132.18,125.641],[131.862,126.049],[131.793,126.131],[131.45,126.5],[131.364,126.584],[131,126.912],[130.896,126.997],[130.515,127.284],[130.394,127.367],[130,127.612],[129.86,127.691],[129.458,127.894],[129.3,127.966],[129.296,127.967],[128.894,128.128],[128.763,128.174],[128.312,128.311],[128.211,128.338],[127.716,128.444],[127.647,128.455],[127.11,128.523],[127.075,128.526],[126.5,128.55],[105.1,128.55],[104.666,128.524],[104.238,128.445],[103.823,128.316],[103.427,128.138],[103.055,127.913],[102.713,127.645],[102.405,127.337],[102.137,126.995],[101.912,126.623],[101.734,126.227],[101.605,125.812],[101.526,125.384],[101.5,124.95],[101.5,106.45]]
M73 P0 R85
;TYPE:Custom
SET_GCODE_VARIABLE MACRO=START_PRINT VARIABLE=filament_type VALUE='"PETG"'
START_PRINT BED=75 EXTRUDE=240 MELT=150 RETRACT=0.5 MARGIN=12 FILAMENT=PETG
G90
G21
M83 ; use relative distances for extrusion
; filament start gcode
SET_PRESSURE_ADVANCE ADVANCE=0.075; Override pressure advance value
M106 S0
;LAYER_CHANGE
;Z:0.2
;HEIGHT:0.2
;BEFORE_LAYER_CHANGE
;LAYER_COMPLETE:1
;0.2
G92 E0

G10 ; retract
;_SET_FAN_SPEED_CHANGING_LAYER
G1 X94.309 Y95.509 F12000
G1 Z.2
G11 ; unretract
;TYPE:Skirt
;WIDTH:0.48
G1 F1200
G1 X97.207 Y94.081 E.108
G1 X101.5 Y93.357 E.14556
G1 X133.5 Y93.357 E1.06995
G1 X136.706 Y93.756 E.108
G1 X139.716 Y94.927 E.108
G1 X142.348 Y96.8 E.108
G1 X144.441 Y99.259 E.108
G1 X145.869 Y102.157 E.108
G1 X146.593 Y106.45 E.14556
G1 X146.593 Y121.55 E.50488
G1 X146.454 Y123.869 E.07768
G1 X146.176 Y125.599 E.05858
G1 X145.564 Y127.882 E.07902
G1 X144.94 Y129.519 E.05857
G1 X144.176 Y131.096 E.0586
G1 X143.276 Y132.6 E.05861
G1 X142.25 Y134.019 E.05856
G1 X140.295 Y136.153 E.09676
G1 X138.485 Y137.671 E.07898
G1 X137.035 Y138.654 E.05859
G1 X135.504 Y139.507 E.05859
G1 X133.899 Y140.226 E.05879
M73 P0 R84
G1 X132.242 Y140.8 E.05865
G1 X130.56 Y141.224 E.05799
G1 X128.835 Y141.502 E.05843
M73 P0 R84
G1 X126.5 Y141.643 E.0782
G1 X105.1 Y141.643 E.71553
G1 X103.876 Y141.593 E.04097
G1 X102.306 Y141.402 E.05287
G1 X99.928 Y140.816 E.08188
G1 X98.054 Y140.077 E.06737
G1 X96.653 Y139.342 E.0529
G1 X94.639 Y137.952 E.08182
G1 X93.147 Y136.595 E.06744
G1 X92.099 Y135.411 E.05286
G1 X90.933 Y133.768 E.06737
G1 X89.795 Y131.6 E.08186
G1 X89.105 Y129.707 E.06739
G1 X88.726 Y128.171 E.05289
G1 X88.431 Y125.741 E.08182
G1 X88.407 Y106.45 E.64503
G1 X88.806 Y103.244 E.108
G1 X89.977 Y100.234 E.108
G1 X91.849 Y97.602 E.108
G1 X94.279 Y95.534 E.10667
G10 ; retract
G1 X94.571 Y95.888 F12000
G11 ; unretract
G1 F1200
G1 X94.73 Y95.757 E.00688
G1 X97.605 Y94.409 E.10618
G1 X101.5 Y93.794 E.13185
G1 X133.5 Y93.794 E1.06995
G1 X136.651 Y94.193 E.10618
G1 X139.603 Y95.363 E.10618
G1 X142.171 Y97.231 E.10618
G1 X144.193 Y99.68 E.10618
G1 X145.541 Y102.555 E.10618
G1 X146.156 Y106.45 E.13185
G1 X146.156 Y121.55 E.50488
G1 X146.021 Y123.812 E.07577
G1 X145.749 Y125.504 E.0573
G1 X145.148 Y127.75 E.07774
G1 X144.536 Y129.351 E.0573
G1 X143.788 Y130.894 E.05732
G1 X142.907 Y132.365 E.05734
G1 X141.903 Y133.753 E.05729
G1 X140 Y135.831 E.09421
G1 X138.219 Y137.324 E.0777
G1 X136.8 Y138.286 E.05732
G1 X135.302 Y139.12 E.05732
G1 X133.732 Y139.822 E.05752
G1 X132.111 Y140.383 E.05737
G1 X130.465 Y140.797 E.05672
G1 X128.777 Y141.069 E.05717
G1 X126.5 Y141.206 E.07627
G1 X105.1 Y141.206 E.71553
G1 X103.902 Y141.156 E.04009
G1 X102.385 Y140.972 E.05111
G1 X100.058 Y140.399 E.08011
G1 X98.233 Y139.678 E.0656
G1 X96.879 Y138.968 E.05113
G1 X94.909 Y137.608 E.08006
G1 X93.456 Y136.286 E.06567
G1 X92.443 Y135.142 E.05109
G1 X91.307 Y133.542 E.0656
G1 X90.194 Y131.421 E.0801
G1 X89.522 Y129.577 E.06563
G1 X89.156 Y128.092 E.05113
G1 X88.868 Y125.715 E.08006
G1 X88.844 Y106.45 E.64414
G1 X89.243 Y103.299 E.10618
G1 X90.413 Y100.347 E.10618
G1 X92.281 Y97.779 E.10618
G1 X94.54 Y95.914 E.09796
G10 ; retract
G1 X94.826 Y96.27 F12000
G11 ; unretract
G1 F1200
G1 X95.149 Y96.012 E.01385
G1 X98 Y94.744 E.10432
G1 X101.5 Y94.231 E.11827
G1 X133.5 Y94.231 E1.06995
G1 X136.595 Y94.63 E.10432
G1 X139.487 Y95.799 E.10432
G1 X141.99 Y97.663 E.10432
G1 X143.938 Y100.099 E.10432
G1 X145.207 Y102.95 E.10432
G1 X145.719 Y106.45 E.11827
G1 X145.719 Y121.55 E.50488
G1 X145.587 Y123.755 E.07386
G1 X145.323 Y125.41 E.05603
G1 X144.731 Y127.619 E.07647
G1 X144.133 Y129.184 E.05602
G1 X143.4 Y130.692 E.05605
G1 X142.539 Y132.13 E.05606
G1 X141.556 Y133.487 E.05602
G1 X139.704 Y135.508 E.09166
G1 X137.953 Y136.978 E.07643
G1 X136.565 Y137.917 E.05604
G1 X135.1 Y138.732 E.05604
G1 X133.565 Y139.418 E.05624
G1 X131.979 Y139.966 E.05609
G1 X130.371 Y140.37 E.05546
G1 X128.719 Y140.635 E.05592
G1 X126.5 Y140.769 E.07434
G1 X105.1 Y140.769 E.71553
G1 X103.928 Y140.72 E.03921
G1 X102.463 Y140.542 E.04934
G1 X100.188 Y139.981 E.07835
G1 X98.413 Y139.28 E.06384
G1 X97.105 Y138.594 E.04936
G1 X95.178 Y137.264 E.07829
G1 X93.765 Y135.977 E.0639
G1 X92.787 Y134.872 E.04933
G1 X91.681 Y133.316 E.06384
G1 X90.592 Y131.242 E.07833
G1 X89.939 Y129.447 E.06386
G1 X89.586 Y128.013 E.04936
G1 X89.33 Y126.122 E.0638
G1 X89.281 Y124.95 E.03924
G1 X89.281 Y106.45 E.61856
G1 X89.68 Y103.355 E.10432
G1 X90.849 Y100.463 E.10432
G1 X92.713 Y97.96 E.10432
G1 X94.794 Y96.295 E.08913
; printing object Ridler4b.stl id:0 copy 0
G10 ; retract
EXCLUDE_OBJECT_START NAME=Ridler4b.stl_id_0_copy_0
G1 X118.853 Y115.466 F12000
G11 ; unretract
;TYPE:Support
G1 F1440
G1 X119.299 Y115.54 E.0151
G1 X119.734 Y115.664 E.01514
G1 X120.154 Y115.834 E.01514
G1 X120.552 Y116.049 E.01514
G1 X120.924 Y116.307 E.01514
G1 X121.265 Y116.605 E.01514
G1 X121.572 Y116.938 E.01514
G1 X121.84 Y117.303 E.01514
G1 X122.066 Y117.695 E.01514
G1 X122.248 Y118.109 E.01514
G1 X122.383 Y118.541 E.01514
G1 X122.467 Y118.967 E.01451
G1 X122.508 Y119.438 E.0158
G1 X122.495 Y119.889 E.0151
G1 X122.433 Y120.338 E.01514
G1 X122.322 Y120.777 E.01514
G1 X122.163 Y121.201 E.01514
G1 X121.959 Y121.605 E.01514
G1 X121.711 Y121.984 E.01514
G1 X121.423 Y122.333 E.01514
G1 X121.099 Y122.649 E.01514
G1 X120.741 Y122.927 E.01514
G1 X120.356 Y123.164 E.01514
G1 X119.946 Y123.357 E.01514
G1 X119.518 Y123.504 E.01514
G1 X119.076 Y123.603 E.01514
G1 X118.626 Y123.653 E.01514
G1 X118.174 Y123.653 E.01514
G1 X117.724 Y123.603 E.01514
G1 X117.282 Y123.504 E.01514
G1 X116.854 Y123.357 E.01514
G1 X116.444 Y123.164 E.01514
G1 X116.059 Y122.927 E.01514
G1 X115.701 Y122.649 E.01514
G1 X115.377 Y122.333 E.01514
G1 X115.089 Y121.984 E.01514
G1 X114.841 Y121.605 E.01514
G1 X114.645 Y121.217 E.01451
G1 X114.478 Y120.775 E.0158
G1 X114.367 Y120.338 E.0151
G1 X114.305 Y119.889 E.01514
G1 X114.292 Y119.437 E.01514
G1 X114.33 Y118.986 E.01514
G1 X114.417 Y118.541 E.01514
G1 X114.552 Y118.109 E.01514
G1 X114.734 Y117.695 E.01514
G1 X114.96 Y117.302 E.01514
G1 X115.228 Y116.938 E.01514
G1 X115.535 Y116.605 E.01514
G1 X115.876 Y116.307 E.01514
G1 X116.248 Y116.049 E.01514
G1 X116.646 Y115.834 E.01514
G1 X117.066 Y115.664 E.01514
G1 X117.501 Y115.54 E.01514
G1 X117.948 Y115.466 E.01514
G1 X118.381 Y115.442 E.01451
G1 X118.788 Y115.463 E.01361
G1 X116.814 Y116.19 F12000
G1 F1440
G1 X117.194 Y116.036 E.01369
G1 X117.588 Y115.925 E.01369
G1 X117.991 Y115.857 E.01369
G1 X118.382 Y115.836 E.01309
G1 X118.811 Y115.858 E.01435
G1 X119.212 Y115.925 E.01362
G1 X119.606 Y116.036 E.01369
G1 X119.986 Y116.19 E.01369
G1 X120.346 Y116.385 E.01368
G1 X120.682 Y116.618 E.01369
G1 X120.991 Y116.887 E.01369
G1 X121.268 Y117.188 E.01369
G1 X121.51 Y117.518 E.01369
G1 X121.715 Y117.872 E.01369
G1 X121.879 Y118.247 E.01369
G1 X122.001 Y118.638 E.01369
G1 X122.077 Y119.022 E.01309
G1 X122.114 Y119.45 E.01435
G1 X122.102 Y119.857 E.01362
G1 X122.046 Y120.262 E.01369
G1 X121.946 Y120.659 E.01368
G1 X121.802 Y121.042 E.01369
G1 X121.617 Y121.408 E.01368
G1 X121.394 Y121.75 E.01369
G1 X121.133 Y122.066 E.01369
G1 X120.84 Y122.352 E.01369
G1 X120.517 Y122.603 E.01368
G1 X120.168 Y122.817 E.01369
G1 X119.798 Y122.992 E.01368
G1 X119.411 Y123.125 E.01369
G1 X119.011 Y123.214 E.01369
G1 X118.605 Y123.259 E.01368
G1 X118.195 Y123.259 E.01369
G1 X117.789 Y123.214 E.01368
G1 X117.389 Y123.125 E.01369
G1 X117.002 Y122.992 E.01369
G1 X116.632 Y122.817 E.01368
G1 X116.283 Y122.603 E.01369
G1 X115.96 Y122.352 E.01369
G1 X115.667 Y122.066 E.01369
G1 X115.406 Y121.75 E.01369
G1 X115.183 Y121.408 E.01369
G1 X115.006 Y121.058 E.01309
G1 X114.854 Y120.657 E.01435
G1 X114.754 Y120.262 E.01362
G1 X114.698 Y119.857 E.01369
G1 X114.686 Y119.448 E.01369
G1 X114.72 Y119.04 E.01369
G1 X114.799 Y118.638 E.01369
G1 X114.921 Y118.247 E.01369
G1 X115.085 Y117.872 E.01369
G1 X115.29 Y117.518 E.01369
G1 X115.532 Y117.188 E.01369
G1 X115.809 Y116.887 E.01369
G1 X116.118 Y116.618 E.01369
G1 X116.454 Y116.385 E.01369
G1 X116.814 Y116.19 E.01369
G1 X117.022 Y116.63 F12000
G1 F1440
G1 X117.352 Y116.496 E.01189
G1 X117.694 Y116.399 E.01189
G1 X118.045 Y116.341 E.01189
G1 X118.383 Y116.322 E.01133
G1 X118.758 Y116.341 E.01255
G1 X119.106 Y116.399 E.01179
G1 X119.448 Y116.496 E.01189
G1 X119.778 Y116.63 E.0119
G1 X120.091 Y116.799 E.01189
G1 X120.383 Y117.002 E.01189
G1 X120.651 Y117.236 E.01189
G1 X120.892 Y117.497 E.01189
G1 X121.103 Y117.784 E.01189
G1 X121.281 Y118.092 E.0119
G1 X121.424 Y118.418 E.01189
G1 X121.53 Y118.757 E.0119
G1 X121.595 Y119.09 E.01133
G1 X121.627 Y119.464 E.01255
G1 X121.618 Y119.817 E.0118
G1 X121.569 Y120.169 E.0119
G1 X121.482 Y120.514 E.01189
G1 X121.357 Y120.847 E.01189
G1 X121.196 Y121.164 E.01189
G1 X121.002 Y121.462 E.0119
G1 X120.775 Y121.737 E.01189
G1 X120.52 Y121.985 E.01189
G1 X120.24 Y122.203 E.01189
G1 X119.937 Y122.39 E.0119
G1 X119.615 Y122.541 E.01189
G1 X119.279 Y122.657 E.0119
G1 X118.931 Y122.735 E.0119
G1 X118.578 Y122.774 E.01189
G1 X118.222 Y122.774 E.0119
G1 X117.869 Y122.735 E.01189
G1 X117.521 Y122.657 E.0119
G1 X117.185 Y122.541 E.0119
G1 X116.863 Y122.39 E.01189
G1 X116.56 Y122.203 E.01189
G1 X116.28 Y121.985 E.01189
G1 X116.025 Y121.737 E.01189
G1 X115.798 Y121.462 E.01189
G1 X115.604 Y121.164 E.01189
G1 X115.451 Y120.862 E.01133
G1 X115.318 Y120.511 E.01256
G1 X115.231 Y120.169 E.01179
G1 X115.182 Y119.817 E.01189
G1 X115.173 Y119.461 E.01189
G1 X115.202 Y119.106 E.0119
G1 X115.27 Y118.757 E.01189
G1 X115.376 Y118.418 E.01189
G1 X115.519 Y118.092 E.01189
G1 X115.697 Y117.784 E.0119
G1 X115.908 Y117.497 E.01189
G1 X116.149 Y117.236 E.01189
G1 X116.417 Y117.002 E.01189
G1 X116.709 Y116.799 E.01189
G1 X117.022 Y116.63 E.01189
G1 X117.23 Y117.07 F12000
G1 F1440
G1 X117.51 Y116.956 E.0101
G1 X117.8 Y116.874 E.0101
G1 X118.098 Y116.824 E.0101
G1 X118.384 Y116.808 E.00957
G1 X118.706 Y116.825 E.01076
G1 X119 Y116.874 E.00997
G1 X119.29 Y116.956 E.0101
G1 X119.57 Y117.07 E.0101
G1 X119.836 Y117.214 E.0101
G1 X120.084 Y117.386 E.0101
G1 X120.312 Y117.584 E.0101
G1 X120.517 Y117.807 E.0101
G1 X120.696 Y118.05 E.0101
G1 X120.847 Y118.312 E.0101
G1 X120.968 Y118.588 E.0101
G1 X121.058 Y118.877 E.0101
G1 X121.113 Y119.158 E.00957
G1 X121.141 Y119.478 E.01076
G1 X121.133 Y119.776 E.00997
G1 X121.092 Y120.076 E.0101
G1 X121.017 Y120.369 E.0101
G1 X120.911 Y120.652 E.0101
G1 X120.775 Y120.921 E.0101
G1 X120.61 Y121.174 E.0101
G1 X120.418 Y121.407 E.0101
G1 X120.201 Y121.618 E.0101
G1 X119.963 Y121.804 E.0101
G1 X119.705 Y121.962 E.0101
G1 X119.432 Y122.091 E.0101
G1 X119.146 Y122.189 E.0101
G1 X118.851 Y122.255 E.0101
G1 X118.551 Y122.288 E.0101
G1 X118.249 Y122.288 E.0101
G1 X117.949 Y122.255 E.0101
G1 X117.654 Y122.189 E.0101
G1 X117.368 Y122.091 E.0101
G1 X117.095 Y121.962 E.0101
G1 X116.837 Y121.804 E.0101
G1 X116.599 Y121.618 E.0101
G1 X116.382 Y121.407 E.0101
G1 X116.19 Y121.174 E.0101
G1 X116.025 Y120.921 E.0101
G1 X115.896 Y120.666 E.00957
G1 X115.782 Y120.365 E.01076
G1 X115.709 Y120.076 E.00997
G1 X115.667 Y119.776 E.0101
G1 X115.659 Y119.474 E.0101
G1 X115.684 Y119.173 E.0101
G1 X115.742 Y118.877 E.0101
G1 X115.832 Y118.588 E.0101
G1 X115.953 Y118.312 E.0101
G1 X116.104 Y118.05 E.0101
G1 X116.283 Y117.807 E.0101
G1 X116.488 Y117.584 E.0101
G1 X116.716 Y117.386 E.0101
G1 X116.964 Y117.214 E.0101
G1 X117.23 Y117.07 E.0101
G1 X117.437 Y117.51 F12000
G1 F1440
G1 X117.667 Y117.416 E.00831
G1 X117.907 Y117.349 E.00831
G1 X118.152 Y117.308 E.00831
G1 X118.385 Y117.295 E.00781
G1 X118.653 Y117.309 E.00897
G1 X118.893 Y117.349 E.00815
G1 X119.133 Y117.416 E.00831
G1 X119.363 Y117.51 E.00831
G1 X119.581 Y117.628 E.00831
G1 X119.786 Y117.77 E.00831
G1 X119.973 Y117.933 E.00831
G1 X120.141 Y118.116 E.00831
G1 X120.289 Y118.316 E.00831
G1 X120.413 Y118.531 E.00831
G1 X120.513 Y118.759 E.00831
G1 X120.587 Y118.996 E.00831
G1 X120.632 Y119.225 E.00781
G1 X120.655 Y119.493 E.00897
G1 X120.648 Y119.736 E.00815
G1 X120.614 Y119.983 E.00831
G1 X120.553 Y120.223 E.00831
G1 X120.466 Y120.456 E.00831
G1 X120.354 Y120.678 E.00831
G1 X120.218 Y120.886 E.00831
G1 X120.06 Y121.078 E.00831
G1 X119.882 Y121.251 E.00831
G1 X119.686 Y121.404 E.00831
G1 X119.474 Y121.534 E.00831
G1 X119.249 Y121.64 E.00831
G1 X119.014 Y121.721 E.00831
G1 X118.771 Y121.775 E.00831
G1 X118.524 Y121.803 E.00831
G1 X118.276 Y121.803 E.00831
G1 X118.029 Y121.775 E.00831
G1 X117.786 Y121.721 E.00831
G1 X117.551 Y121.64 E.00831
G1 X117.326 Y121.534 E.00831
G1 X117.115 Y121.404 E.00831
G1 X116.918 Y121.251 E.00831
G1 X116.74 Y121.078 E.00831
G1 X116.582 Y120.886 E.00831
G1 X116.446 Y120.678 E.00831
G1 X116.341 Y120.47 E.00781
G1 X116.246 Y120.219 E.00897
G1 X116.186 Y119.983 E.00814
G1 X116.152 Y119.736 E.00831
G1 X116.145 Y119.488 E.00831
G1 X116.165 Y119.24 E.00831
G1 X116.213 Y118.996 E.00831
G1 X116.287 Y118.759 E.00831
G1 X116.387 Y118.531 E.00831
G1 X116.511 Y118.316 E.00831
G1 X116.659 Y118.116 E.00831
G1 X116.827 Y117.933 E.00831
G1 X117.014 Y117.77 E.00831
G1 X117.219 Y117.628 E.00831
G1 X117.437 Y117.51 E.00831
G1 X117.645 Y117.95 F12000
G1 F1440
G1 X118.013 Y117.823 E.01302
G1 X118.386 Y117.781 E.01255
G1 X118.601 Y117.792 E.00718
G1 X118.975 Y117.876 E.01282
G1 X119.155 Y117.95 E.00652
G1 X119.487 Y118.154 E.01302
G1 X119.766 Y118.425 E.01302
G1 X119.979 Y118.751 E.01302
G1 X120.115 Y119.116 E.01302
G1 X120.169 Y119.507 E.01321
G1 X120.137 Y119.889 E.01282
G1 X120.089 Y120.078 E.00652
G1 X119.933 Y120.435 E.01301
G1 X119.702 Y120.749 E.01302
G1 X119.408 Y121.004 E.01302
G1 X119.242 Y121.106 E.00652
G1 X118.882 Y121.253 E.01302
G1 X118.498 Y121.317 E.01302
G1 X118.109 Y121.295 E.01302
G1 X117.918 Y121.253 E.00652
G1 X117.558 Y121.106 E.01301
G1 X117.238 Y120.884 E.01302
G1 X116.974 Y120.598 E.01302
G1 X116.786 Y120.273 E.01255
G1 X116.71 Y120.072 E.00718
G1 X116.636 Y119.696 E.01282
G1 X116.647 Y119.307 E.01302
G1 X116.743 Y118.929 E.01302
G1 X116.919 Y118.582 E.01302
G1 X117.166 Y118.282 E.01302
G1 X117.473 Y118.042 E.01302
G1 X117.645 Y117.95 E.00652
G1 X117.852 Y118.39 F12000
G1 F1440
G1 X118.119 Y118.298 E.00944
G1 X118.387 Y118.267 E.00901
G1 X118.548 Y118.276 E.00539
G1 X118.817 Y118.336 E.00921
G1 X118.948 Y118.39 E.00473
G1 X119.188 Y118.537 E.00944
G1 X119.391 Y118.734 E.00944
G1 X119.545 Y118.971 E.00944
G1 X119.644 Y119.235 E.00944
G1 X119.683 Y119.522 E.00966
G1 X119.659 Y119.796 E.00921
G1 X119.625 Y119.933 E.00473
G1 X119.511 Y120.192 E.00944
G1 X119.344 Y120.419 E.00945
G1 X119.131 Y120.605 E.00944
G1 X119.011 Y120.679 E.00473
G1 X118.749 Y120.785 E.00944
