; HEADER_BLOCK_START
; generated by OrcaSlicer 2.2.0 on 2024-12-20 at 15:44:12
; total layer number: 42
; filament_density: 1.27
; filament_diameter: 1.75
; max_z_height: 8.40
; HEADER_BLOCK_END

; external perimeters extrusion width = 0.42mm
; perimeters extrusion width = 0.44mm
; infill extrusion width = 0.48mm
; solid infill extrusion width = 0.48mm
; top infill extrusion width = 0.42mm
; support material extrusion width = 0.40mm
; first layer extrusion width = 0.48mm

; EXECUTABLE_BLOCK_START
EXCLUDE_OBJECT_DEFINE NAME=UltraFan_5015_-_top.stl_id_0_copy_0 CENTER=117.5,117.5 POLYGON=[[91.7195,118.433],[91.731,117.714],[92.2307,99.3492],[92.2388,99.0774],[92.2682,98.8071],[92.3188,98.5399],[92.3904,98.2776],[92.4823,98.0217],[92.5941,97.7738],[92.7251,97.5355],[92.8745,97.3083],[93.0413,97.0935],[93.2245,96.8926],[93.4229,96.7067],[93.6354,96.537],[93.8605,96.3845],[94.097,96.2503],[103.281,91.9154],[143.281,91.9154],[143.281,117.315],[143.254,118.046],[142.126,137.502],[142.1,137.771],[142.054,138.037],[141.988,138.298],[141.901,138.554],[141.794,138.802],[141.668,139.041],[141.524,139.269],[141.363,139.485],[141.185,139.688],[140.992,139.877],[140.784,140.05],[140.564,140.206],[140.332,140.344],[140.09,140.464],[139.84,140.565],[139.582,140.646],[139.319,140.706],[139.052,140.745],[119.465,142.94],[118.725,143.008],[117.983,143.055],[117.24,143.08],[116.496,143.085],[115.753,143.068],[115.01,143.03],[114.269,142.971],[113.53,142.891],[112.793,142.79],[112.06,142.668],[111.33,142.526],[110.605,142.362],[109.884,142.178],[109.17,141.974],[108.461,141.749],[107.759,141.505],[107.064,141.24],[106.423,140.971],[105.789,140.684],[105.165,140.379],[104.549,140.056],[103.943,139.715],[103.347,139.357],[102.762,138.982],[102.188,138.59],[101.625,138.181],[101.075,137.757],[100.537,137.317],[100.012,136.861],[99.4998,136.391],[98.9818,135.892],[98.4787,135.379],[97.9908,134.851],[97.5187,134.309],[97.0626,133.753],[96.623,133.184],[96.2002,132.602],[95.7947,132.009],[95.4067,131.404],[95.0367,130.787],[94.6848,130.16],[94.3515,129.523],[94.037,128.877],[93.7415,128.221],[93.4654,127.558],[93.2089,126.886],[92.9721,126.207],[92.7554,125.522],[92.5588,124.83],[92.3825,124.133],[92.2268,123.431],[92.0917,122.725],[91.9773,122.016],[91.8838,121.303],[91.8112,120.587],[91.7596,119.87],[91.729,119.152],[91.7195,118.433]]
M73 P0 R45
;TYPE:Custom
SET_GCODE_VARIABLE MACRO=START_PRINT VARIABLE=filament_type VALUE='"PETG"'
START_PRINT BED=75 EXTRUDE=240 MELT=150 RETRACT=0.5 MARGIN=12 FILAMENT=PETG
G90
G21
M83 ; use relative distances for extrusion
; filament start gcode
SET_PRESSURE_ADVANCE ADVANCE=0.075; Override pressure advance value
M106 S0
;LAYER_CHANGE
;Z:0.2
;HEIGHT:0.2
;BEFORE_LAYER_CHANGE
;LAYER_COMPLETE:1
;0.2
G92 E0

G10 ; retract
;_SET_FAN_SPEED_CHANGING_LAYER
G1 X85.252 Y86.477 F12000
G1 Z.2
G11 ; unretract
;TYPE:Skirt
;WIDTH:0.48
G1 F1200
G1 X86.521 Y85.543 E.05267
G1 X87.634 Y84.864 E.0436
G1 X97.692 Y80.075 E.37246
G1 X100.761 Y79.067 E.108
G1 X103.281 Y78.823 E.08465
G1 X143.281 Y78.823 E1.33743
G1 X146.486 Y79.221 E.108
G1 X149.496 Y80.392 E.108
G1 X152.129 Y82.265 E.108
G1 X154.222 Y84.725 E.108
G1 X155.649 Y87.623 E.108
G1 X156.373 Y91.915 E.14556
G1 X156.365 Y117.79 E.86513
G1 X155.161 Y138.72 E.70097
G1 X154.955 Y140.271 E.05231
G1 X154.674 Y141.534 E.04328
G1 X154.295 Y142.772 E.04328
G1 X153.821 Y143.976 E.04327
G1 X153.254 Y145.139 E.04327
G1 X152.597 Y146.255 E.0433
G1 X151.856 Y147.316 E.04327
G1 X151.033 Y148.315 E.04327
G1 X150.136 Y149.247 E.04327
G1 X149.167 Y150.107 E.04329
G1 X147.277 Y151.447 E.07748
G1 X146.145 Y152.076 E.04329
G1 X144.968 Y152.614 E.04327
G1 X143.753 Y153.059 E.04327
G1 X142.506 Y153.408 E.04329
G1 X140.51 Y153.757 E.06776
G1 X120.923 Y155.951 E.65899
G1 X117.657 Y156.166 E.10946
G1 X114.344 Y156.106 E.11078
G1 X111.015 Y155.761 E.1119
G1 X107.728 Y155.135 E.11189
G1 X104.506 Y154.23 E.11188
G1 X102.004 Y153.315 E.08909
G1 X99.079 Y151.971 E.10763
G1 X96.281 Y150.379 E.10763
G1 X93.632 Y148.551 E.10762
M73 P0 R44
G1 X91.151 Y146.5 E.10763
G1 X88.374 Y143.735 E.13102
G1 X86.033 Y140.883 E.12337
M73 P0 R44
G1 X84.182 Y138.143 E.11056
G1 X82.569 Y135.232 E.11129
G1 X81.235 Y132.23 E.10984
G1 X80.489 Y130.155 E.07372
G1 X79.965 Y128.41 E.0609
G1 X79.232 Y125.186 E.11056
G1 X78.785 Y121.91 E.11056
G1 X78.628 Y118.607 E.11056
G1 X79.223 Y97.66 E.70064
G1 X79.455 Y96.102 E.05267
G1 X79.759 Y94.834 E.0436
G1 X80.161 Y93.594 E.04358
G1 X80.66 Y92.389 E.04361
G1 X81.252 Y91.228 E.04358
G1 X82.534 Y89.277 E.07806
G1 X83.548 Y88.073 E.05266
G1 X85.223 Y86.504 E.07671
G10 ; retract
G1 X85.51 Y86.831 F12000
G11 ; unretract
G1 F1200
G1 X85.525 Y86.818 E.00064
G1 X86.766 Y85.905 E.05152
G1 X87.85 Y85.244 E.04245
G1 X97.878 Y80.471 E.37136
G1 X100.897 Y79.486 E.10618
G1 X103.281 Y79.26 E.08004
G1 X143.281 Y79.26 E1.33743
G1 X146.431 Y79.658 E.10618
G1 X149.383 Y80.828 E.10618
G1 X151.951 Y82.697 E.10618
G1 X153.973 Y85.145 E.10618
G1 X155.322 Y88.02 E.10618
G1 X155.936 Y91.915 E.13185
G1 X155.928 Y117.774 E.8646
G1 X154.726 Y138.679 E.70014
G1 X154.524 Y140.196 E.05116
G1 X153.882 Y142.631 E.0842
G1 X152.867 Y144.935 E.08418
G1 X151.505 Y147.054 E.08422
G1 X150.024 Y148.746 E.07519
G1 X149.095 Y149.598 E.04215
G1 X147.053 Y151.072 E.08419
G1 X144.805 Y152.209 E.08421
G1 X142.409 Y152.981 E.0842
G1 X140.461 Y153.322 E.0661
G1 X120.875 Y155.517 E.65899
G1 X117.293 Y155.736 E.11999
G1 X114.007 Y155.646 E.1099
G1 X110.719 Y155.275 E.11064
G1 X107.824 Y154.708 E.09862
G1 X104.638 Y153.814 E.11064
G1 X101.531 Y152.644 E.111
G1 X98.666 Y151.261 E.10636
G1 X95.932 Y149.636 E.10636
G1 X93.348 Y147.78 E.10636
G1 X90.723 Y145.509 E.11607
G1 X88.447 Y143.163 E.10929
G1 X86.387 Y140.626 E.10927
G1 X84.557 Y137.918 E.10928
G1 X82.962 Y135.041 E.11
G1 X81.643 Y132.074 E.10856
G1 X80.905 Y130.023 E.07286
G1 X80.386 Y128.291 E.06047
G1 X79.662 Y125.104 E.10928
G1 X79.22 Y121.866 E.10928
G1 X79.065 Y118.601 E.10928
G1 X79.658 Y97.708 E.69887
M73 P1 R44
G1 X79.834 Y96.451 E.04243
G1 X80.109 Y95.211 E.04244
G1 X80.48 Y93.998 E.04243
G1 X80.946 Y92.817 E.04245
G1 X81.504 Y91.677 E.04243
M73 P1 R44
G1 X82.149 Y90.584 E.04244
G1 X83.046 Y89.331 E.05153
G1 X84.572 Y87.657 E.07573
G1 X85.48 Y86.857 E.04047
G10 ; retract
G1 X85.769 Y87.185 F12000
G11 ; unretract
G1 F1200
G1 X85.797 Y87.16 E.00127
G1 X87.011 Y86.267 E.05037
G1 X88.065 Y85.624 E.0413
G1 X98.065 Y80.866 E.37026
G1 X101.033 Y79.905 E.10432
G1 X103.281 Y79.697 E.07546
G1 X143.281 Y79.697 E1.33743
G1 X146.375 Y80.095 E.10432
G1 X149.268 Y81.264 E.10432
G1 X151.77 Y83.128 E.10432
G1 X153.719 Y85.565 E.10432
G1 X154.987 Y88.415 E.10432
G1 X155.499 Y91.915 E.11827
G1 X155.491 Y117.758 E.86407
G1 X154.291 Y138.638 E.6993
G1 X153.894 Y141.056 E.08193
G1 X153.125 Y143.382 E.08191
G1 X152.002 Y145.56 E.08193
G1 X151.155 Y146.793 E.05001
G1 X149.525 Y148.622 E.08191
G1 X148.607 Y149.435 E.04101
G1 X146.828 Y150.696 E.07291
G1 X144.642 Y151.803 E.08192
G1 X142.311 Y152.555 E.08192
G1 X140.413 Y152.888 E.06444
G1 X120.826 Y155.083 E.65899
G1 X117.29 Y155.299 E.11845
G1 X114.042 Y155.21 E.10866
G1 X110.79 Y154.843 E.1094
G1 X107.92 Y154.282 E.09779
G1 X104.77 Y153.397 E.10939
G1 X101.7 Y152.241 E.10969
G1 X98.87 Y150.874 E.1051
G1 X96.168 Y149.268 E.1051
G1 X93.615 Y147.434 E.10509
G1 X91.026 Y145.194 E.11447
G1 X88.777 Y142.876 E.108
G1 X86.74 Y140.369 E.10799
G1 X84.931 Y137.693 E.10799
G1 X83.355 Y134.849 E.10872
G1 X82.051 Y131.918 E.10728
G1 X81.435 Y130.231 E.06004
G1 X80.806 Y128.171 E.07201
G1 X80.091 Y125.022 E.108
G1 X79.655 Y121.821 E.10799
G1 X79.502 Y118.595 E.108
G1 X80.092 Y97.755 E.69709
G1 X80.53 Y95.326 E.08251
G1 X81.345 Y92.997 E.08252
G1 X82.515 Y90.824 E.0825
G1 X83.391 Y89.599 E.05038
G1 X84.871 Y87.976 E.07343
G1 X85.739 Y87.211 E.03868
; printing object UltraFan 5015 - top.stl id:0 copy 0
G10 ; retract
EXCLUDE_OBJECT_START NAME=UltraFan_5015_-_top.stl_id_0_copy_0
G1 X115.373 Y138.765 F12000
G11 ; unretract
;TYPE:Inner wall
;WIDTH:0.479999
G1 F1440
G1 X115.847 Y138.78 E.01588
G1 X116.355 Y138.773 E.01698
G1 X117.767 Y138.686 E.0473
G1 X118.531 Y138.598 E.02572
G1 X119.875 Y138.379 E.04553
G1 X120.743 Y138.185 E.02972
G1 X122.002 Y137.846 E.04362
G1 X123.097 Y137.468 E.03872
G1 X124.24 Y137.018 E.04106
G1 X124.76 Y136.787 E.01903
G1 X125.451 Y136.45 E.02571
G1 X126.656 Y135.79 E.04594
G1 X127.915 Y134.981 E.05004
G1 X128.539 Y134.532 E.02572
G1 X129.676 Y133.623 E.04867
G1 X130.72 Y132.668 E.04731
G1 X131.175 Y132.209 E.02162
G1 X131.874 Y131.437 E.03479
G1 X132.692 Y130.449 E.04289
G1 X133.117 Y129.879 E.02377
G1 X134.006 Y128.542 E.0537
G1 X134.302 Y128.046 E.01931
G1 X134.985 Y126.76 E.04867
G1 X135.565 Y125.47 E.04731
G1 X135.83 Y124.791 E.02435
G1 X136.083 Y124.065 E.02571
G1 X136.483 Y122.708 E.0473
G1 X136.661 Y121.96 E.02572
G1 X136.901 Y120.69 E.04321
G1 X137.1 Y118.946 E.05868
G1 X137.162 Y117.726 E.04085
G1 X137.159 Y116.9 E.02761
G1 X137.09 Y115.546 E.04533
G1 X137.008 Y114.763 E.02632
G1 X136.901 Y114.002 E.02572
G1 X136.648 Y112.667 E.04541
G1 X136.451 Y111.866 E.02762
G1 X136.06 Y110.548 E.04595
G1 X135.58 Y109.261 E.04594
G1 X135.133 Y108.243 E.03718
G1 X134.814 Y107.601 E.02394
G1 X135.144 Y107.584 E.01104
G1 X135.833 Y107.442 E.02353
G1 X136.517 Y107.229 E.02396
G1 X137.127 Y106.945 E.02248
G1 X137.586 Y106.649 E.01828
G1 X138.057 Y106.262 E.02037
G1 X138.524 Y105.75 E.02317
G1 X138.872 Y105.236 E.02077
G1 X139.148 Y104.69 E.02045
G1 X139.294 Y104.275 E.01469
G1 X139.609 Y104.16 E.01121
G1 X140.113 Y103.861 E.0196
G1 X140.396 Y103.643 E.01193
G1 X140.755 Y103.276 E.01719
G1 X140.755 Y117.27 E.4679
G1 X140.732 Y117.9 E.0211
G1 X140.626 Y119.229 E.04457
G1 X140.445 Y120.532 E.04398
G1 X140.189 Y121.822 E.04397
G1 X139.858 Y123.095 E.04398
G1 X139.454 Y124.346 E.04397
G1 X138.972 Y125.589 E.04457
G1 X138.722 Y126.158 E.02081
G1 X138.132 Y127.356 E.04465
G1 X137.563 Y128.365 E.03872
G1 X137.154 Y129.154 E.02971
G1 X136.872 Y129.919 E.02726
G1 X136.757 Y130.355 E.01509
G1 X136.636 Y131.252 E.03025
G1 X136.65 Y132.156 E.03025
G1 X136.748 Y132.838 E.02304
G1 X136.898 Y133.382 E.01887
G1 X136.269 Y133.725 E.02396
G1 X135.775 Y134.12 E.02115
G1 X135.327 Y134.606 E.0221
G1 X134.877 Y135.266 E.02671
G1 X134.669 Y135.715 E.01656
G1 X134.625 Y135.739 E.00167
G1 X133.874 Y135.605 E.02552
G1 X132.748 Y135.574 E.03767
G1 X132.219 Y135.646 E.01785
G1 X131.717 Y135.745 E.0171
G1 X130.86 Y136.032 E.03023
G1 X130.123 Y136.4 E.02754
G1 X128.696 Y137.294 E.0563
G1 X127.519 Y137.943 E.04494
G1 X126.307 Y138.523 E.04491
G1 X125.065 Y139.033 E.04491
G1 X123.795 Y139.472 E.04491
G1 X122.503 Y139.839 E.04491
G1 X121.192 Y140.131 E.04491
G1 X119.866 Y140.348 E.04491
G1 X118.531 Y140.489 E.04489
G1 X117.168 Y140.554 E.04565
G1 X115.829 Y140.543 E.04478
G1 X115.192 Y140.511 E.02131
G1 X113.838 Y140.383 E.04549
G1 X112.509 Y140.182 E.04491
G1 X111.195 Y139.906 E.04491
G1 X109.898 Y139.555 E.04491
G1 X108.607 Y139.126 E.04549
G1 X108.018 Y138.901 E.0211
G1 X106.866 Y138.399 E.04202
G1 X105.756 Y137.836 E.04161
G1 X104.68 Y137.211 E.04161
G1 X103.642 Y136.524 E.04161
G1 X102.646 Y135.779 E.0416
G1 X101.692 Y134.975 E.04172
G1 X100.763 Y134.101 E.04263
G1 X99.871 Y133.164 E.04326
G1 X99.047 Y132.189 E.04268
;WIDTH:0.522063
G1 X99.004 Y132.097 E.00372
;WIDTH:0.564127
G1 X98.962 Y132.005 E.00405
;WIDTH:0.60619
G1 X98.919 Y131.913 E.00437
;WIDTH:0.648254
G1 X98.876 Y131.821 E.0047
;WIDTH:0.690317
G1 X98.833 Y131.729 E.00503
G1 X98.339 Y131.083 E.04023
;WIDTH:0.67391
G1 X97.624 Y130.037 E.06118
;WIDTH:0.638048
G1 X97.251 Y129.42 E.03283
;WIDTH:0.611775
G1 X96.949 Y128.906 E.02594
;WIDTH:0.604924
G1 X96.485 Y128.022 E.04295
;WIDTH:0.567934
G1 X96.088 Y127.197 E.03675
;WIDTH:0.548087
G1 X95.599 Y126.024 E.04909
;WIDTH:0.511635
G1 X95.367 Y125.363 E.02515
;WIDTH:0.485559
G1 X95.173 Y124.789 E.02049
;WIDTH:0.478315
G1 X94.905 Y123.862 E.03216
;WIDTH:0.442663
G1 X94.717 Y123.098 E.02405
;WIDTH:0.420494
G1 X94.539 Y122.273 E.02437
;WIDTH:0.405884
G1 X94.429 Y121.651 E.01755
;WIDTH:0.385201
G1 X94.306 Y120.719 E.02462
;WIDTH:0.40467
G1 X94.323 Y120.649 E.00198
;WIDTH:0.453715
G1 X94.341 Y120.58 E.00224
;WIDTH:0.50276
G1 X94.358 Y120.511 E.00251
;WIDTH:0.551805
G1 X94.375 Y120.441 E.00278
;WIDTH:0.60085
G1 X94.392 Y120.372 E.00305
;WIDTH:0.649894
G1 X94.409 Y120.303 E.00332
G1 X94.444 Y120.365 E.00331
;WIDTH:0.60085
G1 X94.478 Y120.427 E.00304
;WIDTH:0.551805
G1 X94.513 Y120.49 E.00277
;WIDTH:0.50276
G1 X94.547 Y120.552 E.00251
;WIDTH:0.453715
G1 X94.582 Y120.614 E.00224
;WIDTH:0.40467
G1 X94.616 Y120.677 E.00197
;WIDTH:0.362803
G1 X94.665 Y121.006 E.00814
;WIDTH:0.386955
G1 X94.788 Y121.709 E.0188
;WIDTH:0.405884
G1 X94.895 Y122.202 E.01398
;WIDTH:0.424341
G1 X95.114 Y123.13 E.02785
;WIDTH:0.446081
G1 X95.326 Y123.869 E.0237
;WIDTH:0.478315
G1 X95.588 Y124.66 E.02777
;WIDTH:0.485559
G1 X95.781 Y125.209 E.01968
;WIDTH:0.511635
G1 X96.065 Y125.924 E.02761
;WIDTH:0.548087
G1 X96.613 Y127.132 E.05124
;WIDTH:0.585777
G1 X97.129 Y128.099 E.0455
;WIDTH:0.604924
G1 X97.439 Y128.631 E.02648
;WIDTH:0.611775
G1 X97.733 Y129.118 E.02476
;WIDTH:0.638048
G1 X98.158 Y129.764 E.0352
;WIDTH:0.67391
G1 X98.93 Y130.822 E.06324
;WIDTH:0.690317
G1 X99.34 Y131.327 E.03221
G1 X99.416 Y131.38 E.00459
;WIDTH:0.648254
G1 X99.492 Y131.434 E.00429
;WIDTH:0.60619
G1 X99.568 Y131.487 E.004
;WIDTH:0.564127
G1 X99.643 Y131.541 E.0037
;WIDTH:0.522063
G1 X99.719 Y131.594 E.0034
;WIDTH:0.479999
G1 X100.492 Y132.429 E.03804
G1 X101.056 Y132.976 E.02626
G1 X101.627 Y133.491 E.02571
G1 X102.676 Y134.353 E.04541
G1 X103.342 Y134.842 E.02761
G1 X104.487 Y135.602 E.04594
G1 X105.789 Y136.34 E.05004
G1 X106.477 Y136.683 E.02572
G1 X107.734 Y137.239 E.04595
G1 X109.142 Y137.746 E.05003
G1 X109.76 Y137.936 E.02162
G1 X111.251 Y138.31 E.05139
G1 X112.006 Y138.457 E.02572
G1 X113.406 Y138.657 E.04729
G1 X114.172 Y138.726 E.02572
G1 X115.333 Y138.763 E.03882
G10 ; retract
G1 X107.216 Y134.966 F12000
G1 X106.622 Y134.666
G1 X106.04 Y134.347
G1 X105.468 Y134.008
G1 X104.908 Y133.65
G1 X104.361 Y133.274
G1 X103.826 Y132.878
G1 X103.306 Y132.465
G1 X102.799 Y132.035
G1 X102.308 Y131.587
G1 X101.832 Y131.124
G1 X101.372 Y130.644
G1 X100.929 Y130.149
G1 X100.503 Y129.639
G1 X100.094 Y129.115
G1 X99.704 Y128.577
G1 X99.332 Y128.027
G1 X99.015 Y127.522
G1 X98.645 Y126.89
G1 X98.33 Y126.303
G1 X98.036 Y125.708
G1 X97.762 Y125.102
G1 X97.509 Y124.488
G1 X97.277 Y123.865
G1 X97.067 Y123.235
G1 X96.877 Y122.598
G1 X96.71 Y121.954
G1 X96.58 Y121.373
G1 X96.441 Y120.654
G1 X96.34 Y119.996
G1 X96.261 Y119.336
G1 X96.205 Y118.674
G1 X96.171 Y118.011
G1 X96.16 Y117.346
G1 X96.171 Y116.682
G1 X96.205 Y116.018
G1 X96.261 Y115.356
G1 X96.34 Y114.696
G1 X97.617 Y105.881
G11 ; unretract
G1 F1440
G1 X97.686 Y105.108 E.02596
M73 P2 R44
G1 X97.671 Y104.551 E.01862
G1 X97.555 Y103.752 E.02698
G1 X97.442 Y103.268 E.01662
G1 X98.103 Y102.896 E.02537
G1 X98.542 Y102.54 E.01888
G1 X99.116 Y101.938 E.02782
G1 X99.417 Y101.474 E.01847
G1 X99.655 Y101.02 E.01714
G1 X100.248 Y101.151 E.0203
G1 X101.04 Y101.238 E.02667
G1 X101.603 Y101.222 E.01881
M73 P2 R44
G1 X100.438 Y102.321 E.05356
G1 X99.946 Y102.839 E.02387
G1 X99.239 Y103.656 E.03612
G1 X98.552 Y104.519 E.03689
G1 X97.639 Y105.848 E.0539
G10 ; retract
G1 X96.34 Y114.696 F12000
G1 X96.261 Y115.356
G1 X96.205 Y116.018
G1 X96.171 Y116.682
G1 X96.16 Y117.346
G1 X96.171 Y118.011
G1 X96.205 Y118.674
G1 X96.261 Y119.336
G1 X96.34 Y119.996
G1 X96.441 Y120.654
G1 X96.58 Y121.373
G1 X96.71 Y121.954
G1 X96.877 Y122.598
G1 X97.067 Y123.235
G1 X97.277 Y123.865
G1 X97.509 Y124.488
G1 X97.762 Y125.102
G1 X98.036 Y125.708
G1 X98.33 Y126.303
G1 X98.645 Y126.89
G1 X99.015 Y127.522
G1 X99.332 Y128.027
G1 X99.704 Y128.577
G1 X100.094 Y129.115
G1 X100.503 Y129.639
G1 X100.929 Y130.149
G1 X101.372 Y130.644
G1 X101.832 Y131.124
G1 X102.308 Y131.587
G1 X102.799 Y132.035
G1 X103.306 Y132.465
G1 X103.826 Y132.878
G1 X104.361 Y133.274
G1 X104.908 Y133.65
G1 X105.468 Y134.008
G1 X106.04 Y134.347
G1 X106.622 Y134.666
G1 X107.216 Y134.966
G1 X107.819 Y135.244
G1 X108.432 Y135.503
G1 X115.368 Y138.339
