; HEADER_BLOCK_START
; generated by OrcaSlicer 2.2.0 on 2024-12-20 at 15:40:53
; total layer number: 58
; filament_density: 1.27
; filament_diameter: 1.75
; max_z_height: 11.60
; HEADER_BLOCK_END

; external perimeters extrusion width = 0.42mm
; perimeters extrusion width = 0.44mm
; infill extrusion width = 0.48mm
; solid infill extrusion width = 0.48mm
; top infill extrusion width = 0.42mm
; support material extrusion width = 0.40mm
; first layer extrusion width = 0.48mm

; EXECUTABLE_BLOCK_START
EXCLUDE_OBJECT_DEFINE NAME=UltraFan_5015_-_Front_Rear_cable_-_base.stl_id_0_copy_0 CENTER=117.5,117.5 POLYGON=[[91.717,116.546],[91.7219,91.9149],[131.722,91.9149],[140.751,96.1748],[141.031,96.3181],[141.297,96.4864],[141.547,96.6783],[141.778,96.8921],[141.989,97.1261],[142.177,97.3783],[142.342,97.6466],[142.481,97.9289],[142.594,98.2226],[142.68,98.5255],[142.738,98.8349],[142.768,99.1484],[143.275,117.825],[143.28,118.08],[143.281,118.146],[143.282,118.243],[143.282,118.305],[143.283,118.376],[143.283,118.454],[143.283,118.539],[143.282,118.631],[143.282,118.654],[143.282,118.728],[143.28,118.82],[143.28,118.829],[143.279,118.934],[143.277,118.996],[143.265,119.405],[143.262,119.483],[143.259,119.56],[143.244,119.846],[143.243,119.876],[143.228,120.113],[143.224,120.166],[143.221,120.213],[143.218,120.254],[143.215,120.287],[143.214,120.313],[143.212,120.331],[143.211,120.342],[143.211,120.346],[143.182,120.695],[143.137,121.137],[143.09,121.54],[143.033,121.96],[142.969,122.382],[142.901,122.779],[142.818,123.22],[142.742,123.593],[142.639,124.051],[142.555,124.401],[142.431,124.876],[142.34,125.203],[142.195,125.693],[142.099,125.997],[141.93,126.502],[141.831,126.782],[141.638,127.301],[141.537,127.557],[141.318,128.089],[141.217,128.322],[140.97,128.866],[140.871,129.076],[140.597,129.63],[140.499,129.818],[140.197,130.381],[140.103,130.547],[139.771,131.117],[139.683,131.262],[139.319,131.838],[139.238,131.962],[138.844,132.543],[138.77,132.647],[138.343,133.231],[138.28,133.316],[137.82,133.902],[137.766,133.968],[137.273,134.554],[137.232,134.602],[136.704,135.186],[136.676,135.217],[136.114,135.799],[136.099,135.814],[135.503,136.39],[134.896,136.945],[134.272,137.478],[133.629,137.99],[132.969,138.48],[132.293,138.946],[131.601,139.39],[130.895,139.809],[130.175,140.205],[129.441,140.575],[128.696,140.92],[127.939,141.24],[127.123,141.548],[126.298,141.829],[125.464,142.082],[124.622,142.307],[124.079,142.436],[124.077,142.437],[124.071,142.438],[124.052,142.442],[124.039,142.445],[124.021,142.449],[123.977,142.459],[123.959,142.463],[123.912,142.474],[123.902,142.476],[123.833,142.491],[123.828,142.492],[123.773,142.504],[123.751,142.508],[123.727,142.514],[123.656,142.528],[123.609,142.538],[123.548,142.551],[123.476,142.566],[123.426,142.576],[123.329,142.595],[123.29,142.603],[123.17,142.626],[123.137,142.632],[122.999,142.657],[122.975,142.662],[122.917,142.672],[122.819,142.69],[122.803,142.693],[122.63,142.722],[122.623,142.724],[122.436,142.754],[122.245,142.784],[122.233,142.786],[122.057,142.812],[122.027,142.817],[121.854,142.841],[121.819,142.846],[121.659,142.867],[121.609,142.873],[121.463,142.892],[121.4,142.899],[121.289,142.912],[121.267,142.915],[121.192,142.923],[121.167,142.926],[121.156,142.927],[121.135,142.93],[121.116,142.932],[121.102,142.933],[121.065,142.937],[121.012,142.943],[121.002,142.944],[120.948,142.95],[120.93,142.951],[120.876,142.957],[120.852,142.959],[120.826,142.962],[120.819,142.962],[120.799,142.964],[120.758,142.968],[120.739,142.97],[120.697,142.974],[120.67,142.976],[120.633,142.98],[120.612,142.982],[120.602,142.983],[120.589,142.984],[120.573,142.985],[120.507,142.991],[120.474,142.994],[120.456,142.995],[120.451,142.996],[120.381,143.001],[120.378,143.002],[120.332,143.005],[120.321,143.006],[120.285,143.009],[120.26,143.011],[120.235,143.013],[120.21,143.014],[120.187,143.016],[120.122,143.021],[120.059,143.025],[120.025,143.027],[119.986,143.03],[119.948,143.032],[119.903,143.035],[119.874,143.037],[119.861,143.038],[119.826,143.04],[119.81,143.041],[119.805,143.041],[119.708,143.047],[119.675,143.048],[119.645,143.05],[119.614,143.051],[119.597,143.052],[119.526,143.056],[119.478,143.058],[119.454,143.059],[119.381,143.062],[119.351,143.064],[119.31,143.065],[119.283,143.066],[119.247,143.067],[119.141,143.071],[119.106,143.072],[119.036,143.074],[118.922,143.077],[118.902,143.078],[118.856,143.079],[118.811,143.08],[118.745,143.081],[118.699,143.082],[118.634,143.083],[118.588,143.083],[118.541,143.084],[118.52,143.084],[118.477,143.084],[118.412,143.085],[118.402,143.085],[118.279,143.085],[118.243,143.085],[118.184,143.085],[118.165,143.085],[118.146,143.085],[118.112,143.084],[118.098,143.084],[118.048,143.084],[118.028,143.084],[118.002,143.083],[117.981,143.083],[117.971,143.083],[117.954,143.083],[117.949,143.083],[117.922,143.082],[117.859,143.081],[117.846,143.081],[117.778,143.08],[117.741,143.079],[117.714,143.079],[117.709,143.079],[117.689,143.078],[117.646,143.077],[117.627,143.077],[117.568,143.075],[117.537,143.074],[117.508,143.073],[117.487,143.073],[117.43,143.071],[117.416,143.07],[117.398,143.07],[117.392,143.07],[117.368,143.069],[117.344,143.068],[117.335,143.068],[117.29,143.066],[117.256,143.065],[117.236,143.064],[117.216,143.063],[117.182,143.062],[117.166,143.061],[117.147,143.06],[117.115,143.059],[117.09,143.058],[117.073,143.057],[117.023,143.054],[116.991,143.053],[116.947,143.051],[116.871,143.047],[116.852,143.045],[116.801,143.043],[116.73,143.039],[116.653,143.034],[116.624,143.032],[116.583,143.029],[116.56,143.028],[116.523,143.025],[116.494,143.023],[116.464,143.021],[116.438,143.019],[116.426,143.019],[116.383,143.015],[116.356,143.013],[116.337,143.012],[116.265,143.007],[116.237,143.004],[116.224,143.003],[116.206,143.002],[116.177,143],[116.13,142.996],[116.093,142.993],[116.012,142.986],[115.971,142.982],[115.944,142.98],[115.932,142.979],[115.853,142.971],[115.763,142.963],[115.689,142.955],[115.665,142.953],[115.645,142.951],[115.552,142.941],[115.533,142.939],[115.461,142.932],[115.417,142.927],[115.377,142.922],[96.0214,140.752],[95.7115,140.71],[95.4067,140.641],[95.1094,140.545],[94.822,140.422],[94.547,140.273],[94.2865,140.101],[94.0427,139.905],[93.8177,139.688],[93.6132,139.452],[93.4309,139.198],[93.2724,138.928],[93.1389,138.646],[93.0315,138.352],[92.9511,138.05],[92.8984,137.742],[92.8738,137.43],[91.7592,118.243],[91.7537,118.146],[91.7532,118.137],[91.7494,118.065],[91.7219,117.315],[91.717,116.546]]
M73 P0 R106
;TYPE:Custom
SET_GCODE_VARIABLE MACRO=START_PRINT VARIABLE=filament_type VALUE='"PETG"'
START_PRINT BED=75 EXTRUDE=240 MELT=150 RETRACT=0.5 MARGIN=12 FILAMENT=PETG
G90
G21
M83 ; use relative distances for extrusion
; filament start gcode
SET_PRESSURE_ADVANCE ADVANCE=0.075; Override pressure advance value
M106 S0
;LAYER_CHANGE
;Z:0.2
;HEIGHT:0.2
;BEFORE_LAYER_CHANGE
;LAYER_COMPLETE:1
;0.2
G92 E0

G10 ; retract
;_SET_FAN_SPEED_CHANGING_LAYER
G1 X82.275 Y82.893 F12000
G1 Z.2
G11 ; unretract
;TYPE:Skirt
;WIDTH:0.48
G1 F1200
G1 X84.533 Y80.972 E.09912
G1 X87.431 Y79.545 E.108
G1 X91.722 Y78.822 E.14548
G1 X131.722 Y78.822 E1.33743
G1 X134.927 Y79.221 E.108
G1 X137.308 Y80.074 E.08457
G1 X146.337 Y84.334 E.33381
G1 X148.03 Y85.253 E.0644
G1 X149.526 Y86.298 E.06101
G1 X150.67 Y87.282 E.05045
G1 X151.522 Y88.147 E.04062
G1 X152.481 Y89.294 E.04998
G1 X153.336 Y90.531 E.05028
G1 X154.079 Y91.845 E.05047
G1 X154.698 Y93.221 E.05047
G1 X155.276 Y94.951 E.06098
G1 X155.607 Y96.424 E.05046
G1 X155.856 Y98.796 E.07974
G1 X156.374 Y118.271 E.65141
G1 X156.307 Y120.709 E.08154
G1 X156.108 Y122.933 E.07465
G1 X155.856 Y124.692 E.05942
G1 X155.437 Y126.814 E.07235
G1 X155.007 Y128.519 E.05878
G1 X154.223 Y131.007 E.08721
G1 X153.269 Y133.435 E.08721
G1 X152.356 Y135.386 E.07204
G1 X151.529 Y136.938 E.05879
G1 X150.171 Y139.164 E.08721
G1 X148.934 Y140.929 E.07204
M73 P0 R105
G1 X147.852 Y142.315 E.05879
G1 X146.439 Y143.941 E.07204
G1 X145.227 Y145.199 E.05842
M73 P0 R105
G1 X142.428 Y147.72 E.12595
G1 X139.359 Y149.969 E.12719
G1 X136.074 Y151.893 E.12731
G1 X132.566 Y153.487 E.12882
G1 X129.266 Y154.61 E.11658
G1 X125.449 Y155.518 E.13116
G1 X122.872 Y155.908 E.08715
G1 X120.255 Y156.127 E.08782
G1 X117.652 Y156.171 E.08703
G1 X115.872 Y156.102 E.05957
G1 X94.563 Y153.763 E.71675
G1 X92.814 Y153.478 E.05926
G1 X91.069 Y152.998 E.06052
G1 X89.957 Y152.581 E.03971
G1 X88.602 Y151.943 E.05008
G1 X87.049 Y151.011 E.06056
G1 X85.848 Y150.116 E.05009
G1 X84.957 Y149.332 E.03967
G1 X83.916 Y148.254 E.05011
G1 X82.977 Y147.086 E.05011
G1 X82.147 Y145.838 E.05011
G1 X81.301 Y144.238 E.06052
G1 X80.735 Y142.849 E.05012
G1 X80.299 Y141.416 E.05009
G1 X80.046 Y140.257 E.03967
G1 X79.846 Y138.772 E.05011
G1 X78.668 Y118.504 E.67882
G1 X78.629 Y91.913 E.8891
G1 X79.028 Y88.707 E.108
G1 X80.2 Y85.697 E.108
G1 X82.073 Y83.065 E.108
G1 X82.245 Y82.919 E.00755
G10 ; retract
G1 X82.509 Y83.239 F12000
G11 ; unretract
G1 F1200
G1 X84.954 Y81.221 E.10598
G1 X87.829 Y79.873 E.10618
G1 X91.722 Y79.259 E.13177
G1 X131.722 Y79.259 E1.33743
G1 X134.872 Y79.658 E.10618
G1 X137.122 Y80.469 E.07996
G1 X146.151 Y84.729 E.33381
G1 X147.796 Y85.622 E.0626
G1 X149.259 Y86.644 E.05967
G1 X150.373 Y87.603 E.04911
G1 X151.197 Y88.439 E.03926
G1 X152.13 Y89.556 E.04867
G1 X152.964 Y90.759 E.04895
G1 X153.687 Y92.039 E.04913
G1 X154.291 Y93.378 E.04913
G1 X154.855 Y95.071 E.05965
G1 X155.178 Y96.504 E.04913
G1 X155.419 Y98.807 E.07743
G1 X155.937 Y118.269 E.65094
G1 X155.871 Y120.678 E.08058
G1 X155.674 Y122.886 E.07413
G1 X155.426 Y124.614 E.05839
G1 X155.01 Y126.722 E.07184
G1 X154.587 Y128.398 E.05777
G1 X153.813 Y130.857 E.0862
G1 X152.87 Y133.256 E.0862
G1 X151.963 Y135.194 E.07153
G1 X151.151 Y136.719 E.05777
G1 X149.808 Y138.92 E.0862
G1 X147.517 Y142.034 E.12926
G1 X144.923 Y144.885 E.12891
G1 X142.155 Y147.378 E.12454
G1 X139.123 Y149.601 E.12569
G1 X135.877 Y151.503 E.12581
G1 X132.412 Y153.078 E.12727
G1 X129.139 Y154.192 E.11561
G1 X125.365 Y155.089 E.1297
G1 X122.816 Y155.475 E.08618
G1 X120.228 Y155.691 E.08684
G1 X117.654 Y155.734 E.08607
G1 X115.904 Y155.666 E.05858
G1 X94.612 Y153.329 E.71618
G1 X92.91 Y153.052 E.05764
G1 X91.204 Y152.583 E.05919
G1 X90.129 Y152.179 E.03838
G1 X88.81 Y151.558 E.04876
G1 X87.291 Y150.647 E.05923
G1 X86.121 Y149.775 E.04877
G1 X85.26 Y149.017 E.03835
G1 X84.246 Y147.968 E.04878
G1 X83.332 Y146.831 E.04878
G1 X82.524 Y145.616 E.04879
G1 X81.696 Y144.051 E.0592
G1 X81.146 Y142.699 E.0488
G1 X80.721 Y141.304 E.04877
G1 X80.477 Y140.184 E.03834
G1 X80.282 Y138.737 E.04878
G1 X79.105 Y118.494 E.67801
G1 X79.066 Y91.913 E.88876
G1 X79.465 Y88.762 E.10618
G1 X80.636 Y85.81 E.10618
G1 X82.485 Y83.27 E.10504
G10 ; retract
G1 X82.848 Y83.541 F12000
G11 ; unretract
G1 F1200
G1 X82.936 Y83.424 E.00491
G1 X85.373 Y81.475 E.10432
G1 X88.224 Y80.208 E.10432
G1 X91.722 Y79.696 E.1182
G1 X131.722 Y79.696 E1.33743
G1 X134.816 Y80.095 E.10432
G1 X136.935 Y80.865 E.07538
G1 X145.965 Y85.124 E.33381
G1 X147.563 Y85.992 E.0608
G1 X148.993 Y86.991 E.05834
G1 X150.076 Y87.923 E.04778
G1 X150.871 Y88.731 E.03791
G1 X151.78 Y89.817 E.04736
G1 X152.591 Y90.988 E.04762
G1 X153.295 Y92.232 E.0478
G1 X153.883 Y93.536 E.0478
G1 X154.435 Y95.19 E.05831
G1 X154.748 Y96.585 E.04779
G1 X154.982 Y98.819 E.07512
G1 X155.5 Y118.266 E.65047
G1 X155.435 Y120.647 E.07962
G1 X155.239 Y122.839 E.0736
G1 X154.582 Y126.63 E.12864
G1 X154.167 Y128.276 E.05676
G1 X153.403 Y130.706 E.08519
G1 X152.637 Y132.688 E.07103
G1 X151.571 Y135.002 E.08518
G1 X150.772 Y136.5 E.05676
G1 X149.446 Y138.675 E.08519
G1 X147.182 Y141.753 E.12775
G1 X144.619 Y144.571 E.12739
G1 X141.883 Y147.036 E.12312
G1 X138.887 Y149.233 E.1242
G1 X135.68 Y151.113 E.12431
G1 X132.257 Y152.67 E.12572
G1 X129.012 Y153.774 E.11463
G1 X125.28 Y154.66 E.12824
G1 X122.76 Y155.041 E.08521
G1 X120.202 Y155.255 E.08585
G1 X117.656 Y155.297 E.08511
G1 X115.935 Y155.23 E.05759
G1 X94.661 Y152.894 E.71561
G1 X93.007 Y152.626 E.05601
G1 X91.338 Y152.167 E.05787
G1 X90.301 Y151.777 E.03706
G1 X89.017 Y151.173 E.04743
G1 X87.532 Y150.282 E.05791
G1 X86.395 Y149.434 E.04745
G1 X85.564 Y148.702 E.03702
G1 X84.577 Y147.682 E.04746
G1 X83.687 Y146.576 E.04746
G1 X82.9 Y145.394 E.04747
G1 X82.091 Y143.864 E.05788
G1 X81.556 Y142.549 E.04747
G1 X81.143 Y141.192 E.04745
G1 X80.907 Y140.11 E.03702
G1 X80.718 Y138.703 E.04746
G1 X79.542 Y118.484 E.67719
G1 X79.503 Y91.913 E.88843
G1 X79.902 Y88.818 E.10432
G1 X81.072 Y85.926 E.10432
G1 X82.824 Y83.573 E.09808
; printing object UltraFan 5015 - Front Rear cable - base.stl id:0 copy 0
G10 ; retract
EXCLUDE_OBJECT_START NAME=UltraFan_5015_-_Front_Rear_cable_-_base.stl_id_0_copy_0
G1 X116.542 Y140.49 F12000
G11 ; unretract
;TYPE:Inner wall
;WIDTH:0.479999
G1 F1440
G1 X116.059 Y140.452 E.01619
G1 X115.287 Y140.366 E.02596
G1 X114.496 Y140.251 E.02676
G1 X113.717 Y140.111 E.02644
G1 X112.954 Y139.947 E.02611
G1 X112.19 Y139.756 E.02631
G1 X111.433 Y139.541 E.02633
G1 X110.684 Y139.3 E.02631
G1 X109.943 Y139.034 E.02632
G1 X109.211 Y138.743 E.02633
G1 X108.49 Y138.429 E.02632
G1 X107.779 Y138.09 E.02632
G1 X107.08 Y137.729 E.02631
G1 X106.395 Y137.345 E.02625
G1 X104.681 Y136.277 E.06753
G1 X103.669 Y135.852 E.03672
G1 X102.612 Y135.612 E.03623
G1 X102.097 Y135.577 E.01726
G1 X101.443 Y135.573 E.02186
G1 X100.808 Y135.646 E.02139
G1 X100.337 Y135.747 E.01611
G1 X100.144 Y135.291 E.01657
G1 X99.667 Y134.585 E.02848
G1 X99.256 Y134.148 E.02008
G1 X98.585 Y133.629 E.02834
G1 X98.103 Y133.39 E.01798
G1 X98.297 Y132.615 E.02671
G1 X98.354 Y132.015 E.02015
G1 X98.37 Y131.335 E.02274
G1 X98.306 Y130.693 E.02157
G1 X98.227 Y130.277 E.01414
G1 X97.948 Y129.367 E.03183
G1 X97.701 Y128.833 E.01969
G1 X97.128 Y127.829 E.03865
G1 X96.768 Y127.158 E.02546
G1 X96.442 Y126.501 E.02451
G1 X96.137 Y125.835 E.02449
G1 X95.595 Y124.476 E.04895
G1 X95.14 Y123.082 E.04901
G1 X94.947 Y122.373 E.02456
G1 X94.696 Y121.268 E.03789
G1 X94.594 Y120.732 E.01824
G1 X95.448 Y120.733 E.02854
G1 X95.511 Y120.942 E.0073
G1 X95.705 Y121.21 E.01104
G1 X96.118 Y121.599 E.01899
G1 X96.566 Y121.861 E.01733
G1 X97.007 Y122.009 E.01555
G1 X97.549 Y122.071 E.01825
G1 X100.798 Y122.071 E.10862
G1 X101.319 Y122.014 E.01754
G1 X101.885 Y121.811 E.02009
G1 X102.431 Y121.431 E.02224
G1 X102.897 Y120.842 E.02513
G1 X103.209 Y121.526 E.02513
G1 X103.522 Y121.91 E.01657
G1 X104.067 Y122.392 E.02435
G1 X104.588 Y122.657 E.01952
G1 X105.113 Y122.818 E.01836
G1 X105.579 Y122.864 E.01568
G1 X112.961 Y122.864 E.2468
G1 X113.482 Y122.804 E.01755
G1 X113.708 Y123.055 E.0113
G1 X114.023 Y123.312 E.01356
G1 X114.616 Y123.689 E.0235
G1 X114.95 Y123.823 E.01203
G1 X115.558 Y124.006 E.02124
G1 X116.068 Y124.061 E.01714
G1 X116.687 Y124.051 E.02071
G1 X117.205 Y123.947 E.01769
G1 X117.761 Y123.762 E.01958
G1 X118.215 Y123.518 E.01722
G1 X118.853 Y123.034 E.02678
G1 X119.281 Y122.527 E.02218
G1 X119.505 Y122.831 E.01261
G1 X119.852 Y123.164 E.01611
G1 X120.295 Y123.502 E.01863
G1 X120.753 Y123.738 E.01722
G1 X121.279 Y123.936 E.01877
G1 X121.817 Y124.039 E.01832
G1 X122.415 Y124.073 E.02004
G1 X122.926 Y124.006 E.01724
G1 X123.545 Y123.849 E.02133
G1 X124.025 Y123.632 E.01763
G1 X124.679 Y123.201 E.0262
G1 X125.069 Y122.799 E.01871
G1 X125.587 Y122.864 E.01748
G1 X132.499 Y122.871 E.23109
G1 X133.15 Y122.857 E.02178
G1 X133.68 Y122.742 E.01812
G1 X134.201 Y122.555 E.01851
G1 X134.66 Y122.261 E.01825
G1 X135.036 Y121.903 E.01736
G1 X135.389 Y121.451 E.01918
G1 X135.592 Y121.028 E.01568
G1 X135.677 Y120.729 E.0104
G1 X137.711 Y120.713 E.06801
G1 X138.246 Y120.615 E.0182
G1 X138.864 Y120.404 E.02183
G1 X139.358 Y120.108 E.01924
G1 X139.651 Y120.28 E.01139
G1 X140.158 Y120.502 E.01851
G1 X140.647 Y120.637 E.01694
G1 X140.476 Y121.976 E.04514
G1 X140.34 Y122.734 E.02573
G1 X140.179 Y123.479 E.02551
G1 X139.992 Y124.219 E.02551
G1 X139.78 Y124.952 E.02551
G1 X139.543 Y125.677 E.02551
G1 X139.28 Y126.393 E.02551
G1 X138.993 Y127.1 E.02551
G1 X138.682 Y127.797 E.02551
G1 X138.347 Y128.482 E.02551
