; HEADER_BLOCK_START
; generated by OrcaSlicer 2.2.0 on 2024-12-17 at 06:31:38
; total layer number: 100
; filament_density: 1.27
; filament_diameter: 1.75
; max_z_height: 20.00
; HEADER_BLOCK_END

; external perimeters extrusion width = 0.42mm
; perimeters extrusion width = 0.44mm
; infill extrusion width = 0.48mm
; solid infill extrusion width = 0.48mm
; top infill extrusion width = 0.42mm
; support material extrusion width = 0.40mm
; first layer extrusion width = 0.48mm

; EXECUTABLE_BLOCK_START
EXCLUDE_OBJECT_DEFINE NAME=cable_ptfe.stl_id_0_copy_0 CENTER=117.5,117.5 POLYGON=[[113.5,112],[113.516,111.645],[113.563,111.293],[113.641,110.947],[113.75,110.609],[113.888,110.282],[114.054,109.968],[114.248,109.671],[114.467,109.392],[114.711,109.133],[114.976,108.897],[115.261,108.685],[115.564,108.5],[119.436,108.5],[119.739,108.685],[120.024,108.897],[120.289,109.133],[120.533,109.392],[120.752,109.671],[120.946,109.968],[121.112,110.282],[121.25,110.609],[121.359,110.947],[121.437,111.293],[121.484,111.645],[121.5,112],[121.5,126.5],[113.5,126.5],[113.5,112]]
M73 P0 R17
;TYPE:Custom
SET_GCODE_VARIABLE MACRO=START_PRINT VARIABLE=filament_type VALUE='"PETG"'
START_PRINT BED=75 EXTRUDE=240 MELT=150 RETRACT=0.5 MARGIN=12 FILAMENT=PETG
G90
G21
M83 ; use relative distances for extrusion
; filament start gcode
SET_PRESSURE_ADVANCE ADVANCE=0.075; Override pressure advance value
M106 S0
;LAYER_CHANGE
;Z:0.2
;HEIGHT:0.2
;BEFORE_LAYER_CHANGE
;LAYER_COMPLETE:1
;0.2
G92 E0

G10 ; retract
;_SET_FAN_SPEED_CHANGING_LAYER
G1 X103.677 Y101.994 F12000
G1 Z.2
G11 ; unretract
;TYPE:Skirt
;WIDTH:0.48
G1 F1200
G1 X104.171 Y101.304 E.0284
G1 X105.173 Y100.164 E.05074
G1 X106.271 Y99.118 E.0507
G1 X107.457 Y98.172 E.05073
G1 X108.723 Y97.336 E.05072
G1 X111.664 Y96.001 E.108
G1 X115.564 Y95.407 E.13188
G1 X119.436 Y95.407 E.1295
G1 X122.642 Y95.806 E.108
G1 X126.277 Y97.336 E.13188
G1 X127.828 Y98.384 E.06258
G1 X128.994 Y99.353 E.0507
G1 X129.827 Y100.164 E.03887
G1 X131.048 Y101.583 E.06256
G1 X131.918 Y102.825 E.05073
G1 X132.675 Y104.14 E.0507
G1 X133.174 Y105.189 E.03885
G1 X133.716 Y106.606 E.05073
G1 X134.13 Y108.064 E.05069
G1 X134.414 Y109.555 E.05074
G1 X134.593 Y112 E.08196
G1 X134.593 Y126.5 E.48482
G1 X134.194 Y129.706 E.108
G1 X133.023 Y132.716 E.108
G1 X131.151 Y135.348 E.108
G1 X128.691 Y137.441 E.108
G1 X125.793 Y138.869 E.108
G1 X121.5 Y139.593 E.14556
G1 X113.5 Y139.593 E.26749
G1 X110.294 Y139.194 E.108
G1 X107.284 Y138.023 E.108
G1 X104.652 Y136.15 E.108
G1 X102.559 Y133.691 E.108
G1 X101.131 Y130.793 E.108
G1 X100.407 Y126.5 E.14556
G1 X100.407 Y112 E.48482
G1 X100.586 Y109.555 E.08198
G1 X100.87 Y108.065 E.0507
G1 X101.176 Y106.943 E.03887
G1 X101.688 Y105.517 E.05069
G1 X102.325 Y104.14 E.05073
G1 X103.082 Y102.825 E.05072
G1 X103.654 Y102.027 E.03282
G10 ; retract
G1 X104.009 Y102.281 F12000
G11 ; unretract
G1 F1200
G1 X104.515 Y101.574 E.02909
G1 X105.491 Y100.463 E.04944
G1 X106.561 Y99.444 E.0494
G1 X107.718 Y98.523 E.04943
G1 X108.951 Y97.709 E.04942
G1 X111.846 Y96.403 E.10618
G1 X115.564 Y95.844 E.1257
G1 X119.436 Y95.844 E.1295
G1 X122.587 Y96.243 E.10618
G1 X126.049 Y97.709 E.1257
G1 X127.568 Y98.735 E.06129
G1 X129.509 Y100.463 E.08691
G1 X130.704 Y101.853 E.06127
M73 P0 R16
G1 X131.552 Y103.064 E.04943
G1 X132.771 Y105.359 E.0869
G1 X133.3 Y106.74 E.04943
G1 X133.704 Y108.161 E.0494
G1 X133.981 Y109.613 E.04944
M73 P0 R16
G1 X134.156 Y112 E.08002
M73 P1 R16
G1 X134.156 Y126.5 E.48482
G1 X133.757 Y129.651 E.10618
G1 X132.587 Y132.603 E.10618
G1 X130.719 Y135.171 E.10618
G1 X128.27 Y137.193 E.10618
M73 P1 R16
G1 X125.395 Y138.541 E.10618
G1 X121.5 Y139.156 E.13185
G1 X113.5 Y139.156 E.26749
G1 X110.349 Y138.757 E.10618
G1 X107.397 Y137.587 E.10618
G1 X104.829 Y135.719 E.10618
G1 X102.807 Y133.27 E.10618
G1 X101.459 Y130.395 E.10618
G1 X100.844 Y126.5 E.13185
G1 X100.844 Y112 E.48482
G1 X101.019 Y109.613 E.08004
G1 X101.592 Y107.077 E.08691
G1 X102.091 Y105.687 E.0494
G1 X102.711 Y104.345 E.04944
G1 X103.448 Y103.063 E.04942
G1 X103.985 Y102.314 E.03084
G10 ; retract
G1 X104.34 Y102.568 F12000
G11 ; unretract
G1 F1200
G1 X104.859 Y101.844 E.02978
G1 X105.81 Y100.763 E.04814
G1 X106.852 Y99.771 E.04811
G1 X107.978 Y98.874 E.04813
G1 X109.18 Y98.082 E.04812
G1 X112.026 Y96.805 E.10432
G1 X115.564 Y96.281 E.11955
G1 X119.436 Y96.281 E.1295
G1 X122.531 Y96.68 E.10432
G1 X126.123 Y98.267 E.13131
G1 X127.307 Y99.086 E.04813
G1 X129.191 Y100.763 E.08432
G1 X130.36 Y102.123 E.05997
G1 X131.186 Y103.302 E.04814
G1 X132.368 Y105.529 E.08431
G1 X132.884 Y106.873 E.04813
G1 X133.278 Y108.257 E.0481
G1 X133.547 Y109.671 E.04814
G1 X133.719 Y112 E.07807
G1 X133.719 Y126.5 E.48482
G1 X133.32 Y129.595 E.10432
G1 X132.151 Y132.487 E.10432
G1 X130.287 Y134.99 E.10432
G1 X127.851 Y136.938 E.10432
G1 X125 Y138.207 E.10432
G1 X121.5 Y138.719 E.11827
G1 X113.5 Y138.719 E.26749
G1 X110.405 Y138.32 E.10432
G1 X107.513 Y137.151 E.10432
G1 X105.01 Y135.287 E.10432
G1 X103.062 Y132.851 E.10432
G1 X101.793 Y130 E.10432
G1 X101.281 Y126.5 E.11827
G1 X101.281 Y112 E.48482
M73 P2 R16
G1 X101.453 Y109.671 E.07809
G1 X102.008 Y107.211 E.08432
G1 X102.493 Y105.857 E.0481
G1 X103.097 Y104.55 E.04814
G1 X103.815 Y103.302 E.04813
G1 X104.317 Y102.6 E.02885
; printing object cable_ptfe.stl id:0 copy 0
G10 ; retract
EXCLUDE_OBJECT_START NAME=cable_ptfe.stl_id_0_copy_0
G1 X120.286 Y125.288 F12000
M73 P2 R16
G11 ; unretract
;TYPE:Inner wall
;WIDTH:0.479999
G1 F1440
G1 X118.746 Y125.29 E.0515
G1 X119.183 Y124.806 E.02181
G1 X119.381 Y124.526 E.01146
G1 X119.874 Y123.748 E.0308
G1 X120.286 Y122.822 E.03389
G1 X120.286 Y125.248 E.08111
G10 ; retract
G1 X119.827 Y124.736 F12000
G11 ; unretract
;WIDTH:0.591136
G1 F1440
G1 X119.759 Y124.736 E.00287
G1 X119.725 Y124.796 E.00287
G1 X119.759 Y124.855 E.00287
G1 X119.827 Y124.855 E.00287
G1 X119.862 Y124.796 E.00287
G10 ; retract
G1 X120.152 Y120.643 F12000
G1 X120.151 Y120.143
G1 X120.112 Y119.638
G1 X120.033 Y119.136
G1 X119.271 Y115.41
G11 ; unretract
;WIDTH:0.492497
G1 F1440
G1 X119.398 Y115.35 E.00483
G1 X119.843 Y115.045 E.01854
G1 X119.843 Y116.146 E.03788
G1 X119.296 Y115.441 E.03069
G10 ; retract
G1 X118.492 Y115.259 F12000
G11 ; unretract
;WIDTH:0.479999
G1 F1440
G1 X118.889 Y115.099 E.01433
G1 X119.441 Y114.802 E.02094
G1 X119.889 Y114.431 E.01946
G1 X120.286 Y113.943 E.02103
G1 X120.286 Y118.02 E.13632
G1 X120.04 Y117.383 E.02285
G1 X119.493 Y116.42 E.03703
G1 X118.928 Y115.689 E.03088
G1 X118.52 Y115.287 E.01915
G10 ; retract
G1 X118.133 Y115.665 F12000
G1 X118.46 Y116
G1 X118.786 Y116.388
G1 X119.076 Y116.795
G1 X119.339 Y117.23
G1 X119.57 Y117.69
G1 X119.76 Y118.157
G1 X119.914 Y118.635
G1 X120.033 Y119.136
G1 X120.112 Y119.638
G1 X120.151 Y120.143
G1 X120.152 Y120.643
G1 X120.112 Y121.156
G1 X120.034 Y121.658
G1 X119.918 Y122.152
G1 X119.766 Y122.627
G1 X119.573 Y123.102
G1 X118.234 Y125.844
G1 X120.723 Y125.844
G1 X120.723 Y125.724
G11 ; unretract
G1 F1440
G1 X117.577 Y125.729 E.10518
G1 X118.234 Y125.205 E.02811
G1 X118.858 Y124.513 E.03114
G1 X119.476 Y123.568 E.03775
G1 X119.895 Y122.62 E.03466
;WIDTH:0.5117
G1 X120.044 Y122.127 E.01847
;WIDTH:0.5434
G1 X120.192 Y121.634 E.01971
G1 X120.234 Y121.115 E.01993
;WIDTH:0.515091
G1 X120.276 Y120.596 E.0188
;WIDTH:0.513356
G1 X120.24 Y119.57 E.03697
G1 X120.015 Y118.554 E.03744
;WIDTH:0.479999
G1 X119.657 Y117.594 E.03426
G1 X119.148 Y116.687 E.03477
G1 X118.514 Y115.882 E.03425
G1 X117.838 Y115.242 E.03114
G1 X117.444 Y114.961 E.01618
G1 X117.769 Y114.961 E.01086
G1 X118.34 Y114.852 E.01946
G1 X118.703 Y114.704 E.01311
G1 X119.162 Y114.465 E.01729
G1 X119.723 Y113.975 E.02492
G1 X120.144 Y113.36 E.02492
G1 X120.258 Y113.008 E.01236
;WIDTH:0.45198
G1 X120.371 Y112.656 E.01157
;WIDTH:0.423961
G1 X120.429 Y112.029 E.01835
;WIDTH:0.38972
G1 X120.371 Y111.476 E.01476
;WIDTH:0.391601
G1 X120.235 Y110.99 E.01345
G1 X120.024 Y110.52 E.01375
;WIDTH:0.384624
G1 X119.578 Y109.944 E.01902
;WIDTH:0.378993
G1 X119.001 Y109.493 E.01883
;WIDTH:0.377503
G1 X118.416 Y109.226 E.01648
G1 X119.217 Y109.226 E.0205
;WIDTH:0.391777
G1 X119.571 Y109.478 E.0116
G1 X119.986 Y109.882 E.01546
;WIDTH:0.386602
G1 X120.322 Y110.354 E.01523
;WIDTH:0.391601
G1 X120.565 Y110.88 E.01545
G1 X120.716 Y111.439 E.01543
;WIDTH:0.38972
G1 X120.769 Y112.098 E.01755
;WIDTH:0.41845
G1 X120.754 Y112.493 E.01136
;WIDTH:0.449557
G1 X120.738 Y112.888 E.0123
;WIDTH:0.479999
G1 X120.723 Y113.47 E.01947
G1 X120.723 Y118.585 E.17103
;WIDTH:0.505149
G1 X120.718 Y120.724 E.07562
;WIDTH:0.531961
G1 X120.697 Y121.809 E.0406
G1 X120.71 Y122.271 E.01728
;WIDTH:0.50598
G1 X120.723 Y122.733 E.01636
;WIDTH:0.479999
G1 X120.723 Y125.684 E.09868
G10 ; retract
G1 X120.844 Y125.684 F12000
G1 X120.112 Y119.638
G1 X120.033 Y119.136
G1 X119.914 Y118.635
G1 X119.76 Y118.157
G1 X119.57 Y117.69
G1 X119.339 Y117.23
G1 X119.076 Y116.795
G1 X118.786 Y116.388
G1 X118.46 Y116
G1 X118.105 Y115.637
G1 X117.717 Y115.311
G1 X115.449 Y114.276
G1 X114.986 Y114.045
G1 X115.094 Y113.829
G11 ; unretract
;WIDTH:0.574192
G1 F1440
G1 X114.324 Y113.729 E.03155
G1 X114.301 Y113.4 E.01339
;WIDTH:0.526846
G1 X114.277 Y113.072 E.01219
;WIDTH:0.4795
G1 X114.256 Y112.547 E.01754
;WIDTH:0.436455
G1 X114.234 Y112.022 E.01582
;WIDTH:0.393409
G1 X114.289 Y111.408 E.01653
;WIDTH:0.387598
G1 X114.442 Y110.85 E.01527
;WIDTH:0.391101
G1 X114.681 Y110.356 E.01461
G1 X114.92 Y110.007 E.01126
;WIDTH:0.380332
G1 X115.362 Y109.535 E.01669
;WIDTH:0.386591
G1 X115.785 Y109.23 E.0137
G1 X116.6 Y109.23 E.02142
G1 X116.185 Y109.385 E.01163
G1 X115.649 Y109.731 E.01677
;WIDTH:0.39033
G1 X115.283 Y110.104 E.01388
;WIDTH:0.391101
G1 X114.991 Y110.514 E.01344
G1 X114.753 Y110.994 E.01426
;WIDTH:0.383699
G1 X114.592 Y111.709 E.0191
;WIDTH:0.405979
G1 X114.597 Y112.445 E.02044
;WIDTH:0.44274
G1 X114.652 Y112.731 E.00892
;WIDTH:0.4795
G1 X114.707 Y113.018 E.00974
;WIDTH:0.526846
G1 X114.765 Y113.194 E.00686
;WIDTH:0.574192
G1 X114.823 Y113.37 E.00753
G1 X115.074 Y113.794 E.02004
G10 ; retract
G1 X115.239 Y113.643 F12000
G1 X115.516 Y113.863
G1 X115.801 Y114.054
G1 X116.09 Y114.222
G1 X116.385 Y114.369
G1 X116.687 Y114.501
G1 X117.001 Y114.615
G1 X117.329 Y114.711
G1 X117.54 Y114.756
G1 X117.59 Y114.523
G11 ; unretract
;TYPE:Outer wall
;WIDTH:0.511666
G1 F1440
G1 X117.05 Y114.514 E.01936
;WIDTH:0.512426
G1 X116.439 Y114.324 E.023
G1 X115.899 Y113.98 E.023
;WIDTH:0.495214
G1 X115.462 Y113.514 E.02208
;WIDTH:0.479999
G1 X115.15 Y112.96 E.02128
G1 X114.985 Y112.345 E.02128
G1 X114.978 Y111.709 E.02128
G1 X115.13 Y111.091 E.02128
G1 X115.43 Y110.53 E.02128
G1 X115.861 Y110.062 E.02128
G1 X116.394 Y109.715 E.02128
;WIDTH:0.526581
G1 X116.689 Y109.591 E.01181
;WIDTH:0.573163
G1 X116.983 Y109.467 E.01295
;WIDTH:0.574154
G1 X117.629 Y109.418 E.02633
G1 X117.944 Y109.498 E.01319
;WIDTH:0.527077
G1 X118.258 Y109.577 E.01202
;WIDTH:0.479999
G1 X118.837 Y109.842 E.02128
G1 X119.332 Y110.242 E.02128
G1 X119.709 Y110.749 E.02112
G1 X119.952 Y111.342 E.02143
G1 X120.039 Y111.973 E.02129
G1 X119.966 Y112.605 E.02128
G1 X119.738 Y113.199 E.02128
G1 X119.369 Y113.718 E.02128
G1 X118.883 Y114.129 E.02128
G1 X118.311 Y114.406 E.02128
G1 X117.724 Y114.525 E.02
;WIDTH:0.511666
G1 X117.63 Y114.523 E.00339
G10 ; retract
G1 X117.354 Y115.152 F12000
G1 X117.717 Y115.311
G1 X118.105 Y115.637
G1 X118.46 Y116
G1 X118.786 Y116.388
G1 X119.076 Y116.795
G1 X119.339 Y117.23
G1 X119.57 Y117.69
G1 X119.76 Y118.157
G1 X119.914 Y118.635
G1 X120.033 Y119.136
G1 X120.112 Y119.638
G1 X120.844 Y125.844
G1 X120.844 Y125.12
G1 X121.16 Y126.16
G11 ; unretract
;WIDTH:0.48
G1 F1440
G1 X117.292 Y126.177 E.12933
M73 P3 R16
G1 X116.488 Y126.219 E.02692
G1 X113.821 Y126.21 E.08919
;WIDTH:0.468259
G1 X113.827 Y125.812 E.01293
;WIDTH:0.479999
G1 X114.392 Y125.781 E.0189
G1 X116.643 Y125.781 E.07529
G1 X117.246 Y125.433 E.02329
G1 X117.91 Y124.912 E.0282
G1 X118.649 Y124.048 E.03803
G1 X119.077 Y123.388 E.02629
G1 X119.474 Y122.504 E.03241
G1 X119.727 Y121.58 E.03201
G1 X119.836 Y120.614 E.03252
G1 X119.795 Y119.658 E.03201
G1 X119.604 Y118.704 E.03252
G1 X119.274 Y117.805 E.03201
G1 X118.802 Y116.955 E.03252
G1 X118.214 Y116.2 E.032
G1 X117.842 Y115.847 E.01714
G1 X117.329 Y115.413 E.02248
;WIDTH:0.513234
G1 X117.029 Y115.188 E.01347
;WIDTH:0.546469
G1 X116.729 Y114.963 E.01443
G1 X115.887 Y114.567 E.03587
;WIDTH:0.529923
G1 X115.524 Y114.481 E.01386
M73 P3 R16
;WIDTH:0.479999
G1 X114.967 Y114.313 E.01946
G1 X113.84 Y114.167 E.038
G1 X113.84 Y112.012 E.07206
G1 X113.899 Y111.354 E.02211
G1 X114.069 Y110.728 E.0217
G1 X114.348 Y110.142 E.0217
G1 X114.726 Y109.614 E.0217
G1 X115.191 Y109.161 E.0217
G1 X115.665 Y108.84 E.01915
G1 X116.309 Y108.84 E.02154
;WIDTH:0.517481
G1 X116.55 Y108.859 E.00876
;WIDTH:0.554963
G1 X116.79 Y108.877 E.00945
;WIDTH:0.592445
G1 X117.03 Y108.896 E.01014
G1 X117.746 Y108.889 E.03009
;WIDTH:0.57837
G1 X118.037 Y108.865 E.01196
;WIDTH:0.529185
G1 X118.328 Y108.84 E.01086
;WIDTH:0.479999
G1 X119.335 Y108.84 E.03368
G1 X119.845 Y109.196 E.02079
G1 X120.303 Y109.655 E.02168
G1 X120.731 Y110.307 E.02608
G1 X120.944 Y110.776 E.01723
G1 X121.106 Y111.404 E.02167
G1 X121.16 Y112.037 E.02126
;WIDTH:0.48
G1 X121.16 Y126.12 E.47088
; stop printing object cable_ptfe.stl id:0 copy 0
G10 ; retract
EXCLUDE_OBJECT_END NAME=cable_ptfe.stl_id_0_copy_0
;LAYER_CHANGE
;Z:0.4
;HEIGHT:0.2
;BEFORE_LAYER_CHANGE
;LAYER_COMPLETE:2
;0.4
G92 E0

;_SET_FAN_SPEED_CHANGING_LAYER
M140 S75 ; set bed temperature
; printing object cable_ptfe.stl id:0 copy 0
EXCLUDE_OBJECT_START NAME=cable_ptfe.stl_id_0_copy_0
G1 X118.82 Y115.328 F12000
G1 Z.4
G11 ; unretract
;TYPE:Inner wall
;WIDTH:0.439999
G1 F2193
G1 X119.29 Y115.104 E.01582
G1 X119.576 Y114.922 E.01031
G1 X120.109 Y114.453 E.02155
G1 X120.109 Y117.143 E.08174
G1 X119.926 Y116.78 E.01235
G1 X119.305 Y115.864 E.03361
G1 X118.847 Y115.358 E.02074
G10 ; retract
G1 X118.285 Y115.906 F12000
G1 X118.421 Y116.046
G1 X118.743 Y116.431
G1 X119.021 Y116.821
G1 X119.284 Y117.255
G1 X119.518 Y117.721
G1 X119.705 Y118.179
G1 X119.854 Y118.643
G1 X119.976 Y119.155
G1 X120.053 Y119.653
G1 X120.904 Y125.904
G1 X120.904 Y125.506
G1 X120.506 Y125.506
G11 ; unretract
G1 F2193
G1 X118.208 Y125.506 E.0698
G1 X118.774 Y124.953 E.02403
G1 X119.401 Y124.121 E.03164
G1 X119.908 Y123.176 E.03259
G1 X120.258 Y122.177 E.03215
;WIDTH:0.473712
G1 X120.364 Y121.731 E.0151
;WIDTH:0.507424
G1 X120.47 Y121.285 E.01628
;WIDTH:0.503903
G1 X120.488 Y121.743 E.01616
;WIDTH:0.471951
G1 X120.506 Y122.201 E.01504
;WIDTH:0.439999
G1 X120.506 Y125.466 E.09917
G10 ; retract
G1 X120.442 Y119.147 F12000
G11 ; unretract
;WIDTH:0.56836
G1 F2193
G1 X120.46 Y119.502 E.01433
;WIDTH:0.531203
G1 X120.479 Y119.858 E.01331
;WIDTH:0.494046
G1 X120.497 Y120.214 E.0123
;WIDTH:0.482156
G1 X120.485 Y120.739 E.01765
;WIDTH:0.507424
G1 X120.472 Y121.265 E.01867
G10 ; retract
G1 X120.045 Y121.198 F12000
G1 X120.052 Y121.157
G1 X120.092 Y120.633
G1 X120.091 Y120.153
G1 X120.053 Y119.653
G1 X119.976 Y119.155
G1 X119.854 Y118.643
G1 X119.705 Y118.179
G1 X119.518 Y117.721
G1 X119.284 Y117.255
G1 X119.021 Y116.821
G1 X118.743 Y116.431
G1 X118.421 Y116.046
G1 X118.07 Y115.686
G1 X117.77 Y115.423
G1 X118.023 Y115.134
G11 ; unretract
;WIDTH:0.439999
G1 F2193
G1 X118.605 Y114.991 E.0182
G1 X119.323 Y114.616 E.02461
G1 X119.906 Y114.092 E.02381
G1 X120.234 Y113.642 E.01692
G1 X120.506 Y113.037 E.02014
G1 X120.506 Y118.061 E.15258
;WIDTH:0.482786
G1 X120.484 Y118.423 E.0122
;WIDTH:0.525573
G1 X120.463 Y118.785 E.01339
;WIDTH:0.56836
G1 X120.442 Y119.147 E.01458
G1 X120.414 Y119.071 E.00324
;WIDTH:0.54223
G1 X120.386 Y118.996 E.00307
;WIDTH:0.5161
G1 X120.218 Y118.484 E.01949
;WIDTH:0.47805
G1 X120.05 Y117.972 E.01792
;WIDTH:0.439999
G1 X119.594 Y116.998 E.03267
G1 X119.01 Y116.131 E.03177
G1 X118.492 Y115.557 E.02346
G1 X118.053 Y115.161 E.01798
G10 ; retract
G1 X117.8 Y115.449 F12000
G1 X118.07 Y115.686
G1 X118.421 Y116.046
G1 X118.743 Y116.431
G1 X119.021 Y116.821
G1 X119.284 Y117.255
G1 X119.518 Y117.721
G1 X119.705 Y118.179
G1 X119.854 Y118.643
G1 X119.976 Y119.155
G1 X120.053 Y119.653
G1 X120.904 Y125.904
