; HEADER_BLOCK_START
; generated by OrcaSlicer 2.2.0 on 2024-12-17 at 07:54:30
; total layer number: 120
; filament_density: 1.27
; filament_diameter: 1.75
; max_z_height: 24.00
; HEADER_BLOCK_END

; external perimeters extrusion width = 0.42mm
; perimeters extrusion width = 0.44mm
; infill extrusion width = 0.48mm
; solid infill extrusion width = 0.48mm
; top infill extrusion width = 0.42mm
; support material extrusion width = 0.40mm
; first layer extrusion width = 0.48mm

; EXECUTABLE_BLOCK_START
EXCLUDE_OBJECT_DEFINE NAME=sled_-_GT2_20T_5B_-_6mm_belt_-_M4x20_SHCS_-_M5x16_SHCS.stl_id_0_copy_0 CENTER=117.5,117.5 POLYGON=[[107.525,112.2],[107.526,112.181],[107.528,112.165],[107.529,112.163],[107.533,112.144],[107.537,112.132],[107.539,112.125],[107.548,112.108],[107.552,112.1],[109.802,108.1],[109.822,108.071],[109.846,108.047],[109.875,108.027],[109.907,108.012],[109.94,108.003],[109.975,108],[124.075,108],[124.11,108.003],[124.143,108.012],[124.175,108.027],[126.434,109.532],[126.45,109.544],[126.454,109.547],[126.477,109.57],[126.478,109.571],[126.498,109.6],[126.498,109.6],[126.513,109.632],[126.513,109.633],[126.522,109.665],[127.47,113.556],[127.472,113.565],[127.472,113.565],[127.473,113.573],[127.474,113.579],[127.474,113.586],[127.475,113.591],[127.475,113.6],[127.475,121.4],[127.475,121.409],[127.474,121.414],[127.474,121.421],[127.473,121.427],[126.911,125.242],[126.898,125.329],[126.893,125.357],[126.87,125.469],[126.841,125.576],[126.817,125.649],[126.806,125.68],[126.767,125.78],[126.757,125.803],[126.723,125.876],[126.684,125.952],[126.675,125.969],[126.623,126.057],[126.599,126.094],[126.567,126.142],[126.508,126.223],[126.503,126.228],[126.445,126.3],[126.396,126.355],[126.379,126.373],[126.311,126.442],[126.28,126.471],[126.24,126.507],[126.167,126.568],[126.153,126.578],[126.092,126.624],[126.019,126.674],[125.935,126.725],[125.877,126.759],[125.855,126.77],[125.773,126.81],[125.728,126.832],[125.69,126.847],[125.574,126.892],[125.522,126.908],[125.416,126.939],[125.351,126.953],[125.254,126.973],[125.18,126.983],[125.09,126.993],[125.009,126.998],[124.925,127],[109.125,127],[109.019,126.997],[108.957,126.993],[108.911,126.988],[108.789,126.972],[108.692,126.952],[108.625,126.936],[108.581,126.924],[108.471,126.89],[108.463,126.887],[108.362,126.849],[108.307,126.825],[108.255,126.801],[108.156,126.75],[108.049,126.685],[108.012,126.662],[107.951,126.619],[107.876,126.562],[107.858,126.547],[107.769,126.47],[107.749,126.451],[107.685,126.388],[107.632,126.33],[107.604,126.298],[107.525,126.2],[107.525,112.2]]
M73 P0 R42
;TYPE:Custom
SET_GCODE_VARIABLE MACRO=START_PRINT VARIABLE=filament_type VALUE='"PETG"'
START_PRINT BED=75 EXTRUDE=240 MELT=150 RETRACT=0.5 MARGIN=12 FILAMENT=PETG
G90
G21
M83 ; use relative distances for extrusion
; filament start gcode
SET_PRESSURE_ADVANCE ADVANCE=0.075; Override pressure advance value
M106 S0
;LAYER_CHANGE
;Z:0.2
;HEIGHT:0.2
;BEFORE_LAYER_CHANGE
;LAYER_COMPLETE:1
;0.2
G92 E0

G10 ; retract
;_SET_FAN_SPEED_CHANGING_LAYER
G1 X99.772 Y99.684 F12000
G1 Z.2
G11 ; unretract
;TYPE:Skirt
;WIDTH:0.48
G1 F1200
G1 X103.36 Y96.673 E.1566
G1 X107.633 Y95.118 E.15204
G1 X109.975 Y94.907 E.07862
G1 X124.075 Y94.907 E.47146
G1 X126.424 Y95.119 E.07884
G1 X129.511 Y96.07 E.108
G1 X131.385 Y97.104 E.07157
G1 X133.667 Y98.619 E.09157
G1 X134.841 Y99.497 E.04902
G1 X137.924 Y103.215 E.16151
G1 X139.234 Y106.535 E.11935
G1 X140.192 Y110.464 E.13522
G1 X140.565 Y113.56 E.10425
G1 X140.568 Y121.395 E.26196
G1 X140.429 Y123.303 E.06397
G1 X139.712 Y128.016 E.15939
G1 X139.412 Y129.227 E.04169
G1 X139.014 Y130.409 E.04172
G1 X138.446 Y131.702 E.04722
G1 X137.827 Y132.828 E.04298
G1 X136.494 Y134.69 E.07656
G1 X135.538 Y135.729 E.04721
G1 X133.761 Y137.234 E.07784
G1 X132.579 Y138.006 E.04722
G1 X131.478 Y138.594 E.04172
G1 X129.31 Y139.44 E.07782
G1 X127.941 Y139.787 E.04721
G1 X126.71 Y139.985 E.04172
G1 X124.925 Y140.093 E.05978
G1 X108.404 Y140.074 E.55239
G1 X106.05 Y139.775 E.07934
G1 X104.817 Y139.463 E.04251
G1 X103.615 Y139.049 E.04252
G1 X102.451 Y138.535 E.04253
G1 X101.192 Y137.838 E.04814
G1 X99.277 Y136.435 E.07936
G1 X98.232 Y135.444 E.04816
G1 X97.391 Y134.49 E.04253
G1 X95.67 Y131.756 E.108
G1 X94.67 Y128.685 E.108
G1 X94.432 Y126.2 E.08346
G1 X94.432 Y112.2 E.4681
G1 X94.643 Y109.858 E.07863
G1 X96.122 Y105.719 E.14694
G1 X98.387 Y101.688 E.15461
G1 X99.75 Y99.717 E.08012
G10 ; retract
G1 X100.107 Y99.965 F12000
G11 ; unretract
G1 F1200
G1 X103.579 Y97.052 E.15152
G1 X107.709 Y95.549 E.14696
G1 X109.975 Y95.344 E.07607
G1 X124.075 Y95.344 E.47146
G1 X126.348 Y95.55 E.07628
G1 X129.381 Y96.491 E.10618
G1 X131.143 Y97.468 E.06739
G1 X133.425 Y98.983 E.09157
G1 X134.56 Y99.832 E.04738
G1 X137.542 Y103.427 E.15619
G1 X138.81 Y106.639 E.11545
G1 X139.768 Y110.568 E.13522
G1 X140.128 Y113.56 E.10077
G1 X140.131 Y121.395 E.26196
G1 X139.996 Y123.24 E.06184
G1 X139.284 Y127.926 E.1585
G1 X138.993 Y129.102 E.04049
G1 X138.606 Y130.25 E.04051
G1 X138.054 Y131.51 E.04601
G1 X137.452 Y132.604 E.04174
G1 X136.161 Y134.408 E.07418
G1 X135.229 Y135.42 E.046
G1 X133.507 Y136.878 E.07542
G1 X132.355 Y137.631 E.04602
G1 X131.286 Y138.201 E.04051
G1 X129.185 Y139.021 E.07541
G1 X127.852 Y139.359 E.046
G1 X126.656 Y139.552 E.04051
G1 X124.925 Y139.656 E.05797
G1 X108.423 Y139.637 E.55177
M73 P0 R41
G1 X106.142 Y139.347 E.07688
G1 X104.945 Y139.045 E.04128
G1 X103.62 Y138.581 E.04692
G1 X102.496 Y138.069 E.0413
G1 X101.42 Y137.465 E.04128
M73 P0 R41
G1 X99.564 Y136.106 E.0769
G1 X98.546 Y135.14 E.04693
G1 X97.729 Y134.213 E.0413
G1 X96.043 Y131.522 E.10618
G1 X95.079 Y128.496 E.10618
G1 X94.869 Y126.2 E.0771
G1 X94.869 Y112.2 E.4681
G1 X95.074 Y109.934 E.07609
G1 X96.503 Y105.933 E.14204
G1 X98.768 Y101.902 E.15461
G1 X100.085 Y99.998 E.0774
G10 ; retract
G1 X100.442 Y100.246 F12000
G11 ; unretract
G1 F1200
G1 X103.797 Y97.43 E.14645
G1 X107.785 Y95.979 E.14189
G1 X109.975 Y95.781 E.07352
G1 X124.075 Y95.781 E.47146
G1 X126.272 Y95.98 E.07373
G1 X129.249 Y96.912 E.10432
G1 X130.901 Y97.833 E.06324
G1 X133.183 Y99.347 E.09157
G1 X134.279 Y100.167 E.04575
G1 X137.16 Y103.639 E.15088
G1 X138.385 Y106.742 E.11155
G1 X139.343 Y110.671 E.13522
G1 X139.691 Y113.561 E.09729
G1 X139.694 Y121.395 E.26196
G1 X139.564 Y123.176 E.0597
G1 X138.856 Y127.837 E.15762
G1 X138.199 Y130.091 E.07851
G1 X137.661 Y131.318 E.0448
G1 X137.077 Y132.379 E.04049
G1 X135.827 Y134.125 E.0718
G1 X134.92 Y135.111 E.0448
G1 X133.253 Y136.522 E.07301
G1 X132.132 Y137.255 E.04481
G1 X131.094 Y137.809 E.0393
G1 X129.061 Y138.602 E.07299
G1 X127.762 Y138.931 E.04479
G1 X126.601 Y139.118 E.0393
G1 X124.925 Y139.219 E.05615
G1 X108.441 Y139.201 E.55116
G1 X106.233 Y138.92 E.07442
G1 X105.072 Y138.627 E.04005
G1 X103.782 Y138.175 E.04569
G1 X102.692 Y137.678 E.04006
G1 X101.647 Y137.092 E.04005
G1 X99.851 Y135.776 E.07444
G1 X98.86 Y134.836 E.0457
G1 X98.068 Y133.936 E.04007
G1 X96.417 Y131.289 E.10432
G1 X95.49 Y128.31 E.10432
G1 X95.306 Y126.2 E.0708
G1 X95.306 Y112.2 E.4681
G1 X95.504 Y110.01 E.07354
G1 X96.884 Y106.147 E.13713
G1 X99.149 Y102.116 E.15461
G1 X100.419 Y100.279 E.07468
; printing object sled - GT2 20T 5B - 6mm belt -  M4x20 SHCS - M5x16 SHCS.stl id:0 copy 0
G10 ; retract
EXCLUDE_OBJECT_START NAME=sled_-_GT2_20T_5B_-_6mm_belt_-_M4x20_SHCS_-_M5x16_SHCS.stl_id_0_copy_0
M73 P1 R41
G1 X112.225 Y123.6 F12000
G11 ; unretract
;TYPE:Inner wall
;WIDTH:0.479999
G1 F1440
G1 X112.225 Y121.329 E.07596
G1 X112.156 Y120.66 E.02246
G1 X112.04 Y120.398 E.0096
;WIDTH:0.434556
G1 X111.924 Y120.135 E.0086
;WIDTH:0.389112
G1 X111.807 Y119.873 E.0076
;WIDTH:0.383344
G1 X111.639 Y119.577 E.00886
M73 P1 R41
;WIDTH:0.423019
G1 X111.47 Y119.282 E.0099
;WIDTH:0.461449
G1 X111.39 Y119.17 E.00439
;WIDTH:0.499878
G1 X111.31 Y119.059 E.00479
;WIDTH:0.538308
G1 X111.23 Y118.948 E.00519
;WIDTH:0.576737
G1 X111.15 Y118.837 E.0056
;WIDTH:0.612213
G1 X110.991 Y118.699 E.00915
G1 X110.98 Y118.277 E.0184
;WIDTH:0.589895
G1 X110.968 Y117.292 E.0412
;WIDTH:0.593183
G1 X110.982 Y116.822 E.01981
;WIDTH:0.620462
G1 X110.996 Y116.352 E.02079
G1 X110.972 Y116.1 E.01117
;WIDTH:0.573641
G1 X110.949 Y115.848 E.01027
;WIDTH:0.52682
G1 X110.926 Y115.596 E.00936
;WIDTH:0.479999
G1 X110.926 Y114.849 E.02499
G1 X111.214 Y114.666 E.01141
;WIDTH:0.525986
G1 X111.332 Y114.583 E.00531
;WIDTH:0.571972
G1 X111.45 Y114.501 E.00582
;WIDTH:0.617958
G1 X111.568 Y114.419 E.00632
;WIDTH:0.663944
G1 X111.686 Y114.337 E.00683
G1 X111.76 Y114.242 E.00574
;WIDTH:0.66458
G1 X112.14 Y113.67 E.03268
G1 X112.19 Y113.47 E.00979
;WIDTH:0.618435
G1 X112.239 Y113.27 E.00906
;WIDTH:0.57229
G1 X112.288 Y113.07 E.00834
;WIDTH:0.526145
G1 X112.338 Y112.87 E.00761
;WIDTH:0.479999
G1 X112.422 Y112.258 E.02064
G1 X112.426 Y111.682 E.01929
G1 X112.626 Y111.401 E.01151
G1 X115.12 Y111.401 E.08339
;WIDTH:0.52741
G1 X115.363 Y111.425 E.00908
;WIDTH:0.574821
G1 X115.607 Y111.449 E.00996
;WIDTH:0.622231
G1 X115.851 Y111.473 E.01085
G1 X116.272 Y111.455 E.0187
;WIDTH:0.58795
G1 X117.213 Y111.444 E.0392
;WIDTH:0.603139
G1 X117.95 Y111.463 E.03162
G1 X118.134 Y111.442 E.00791
;WIDTH:0.562093
G1 X118.317 Y111.422 E.00733
;WIDTH:0.521046
G1 X118.5 Y111.401 E.00675
;WIDTH:0.479999
G1 X121.434 Y111.401 E.09809
G1 X121.651 Y111.739 E.01343
G1 X121.988 Y112.082 E.01607
G1 X122.59 Y112.502 E.02453
G1 X123.125 Y112.725 E.01939
G1 X123.125 Y113.521 E.02664
G1 X123.174 Y114.083 E.01885
G1 X123.356 Y114.729 E.02245
G1 X123.577 Y115.181 E.01681
G1 X123.88 Y115.614 E.01767
G1 X124.075 Y115.791 E.00882
G1 X124.075 Y118.229 E.08152
G1 X123.409 Y118.522 E.02434
G1 X122.929 Y118.876 E.01992
G1 X122.475 Y119.37 E.02245
;WIDTH:0.523927
G1 X122.385 Y119.473 E.00502
;WIDTH:0.567855
G1 X122.295 Y119.575 E.00548
;WIDTH:0.611783
G1 X122.205 Y119.678 E.00594
;WIDTH:0.65571
G1 X122.115 Y119.78 E.0064
G1 X122.144 Y119.644 E.00653
;WIDTH:0.611783
G1 X122.174 Y119.508 E.00606
;WIDTH:0.567855
G1 X122.203 Y119.372 E.00559
;WIDTH:0.523927
G1 X122.233 Y119.236 E.00512
;WIDTH:0.479999
G1 X122.411 Y118.589 E.02245
G1 X122.505 Y117.962 E.02118
G1 X122.517 Y117.317 E.02159
G1 X122.395 Y116.32 E.03358
G1 X122.232 Y115.763 E.01941
G1 X122.032 Y115.25 E.01839
G1 X121.725 Y114.653 E.02245
G1 X121.368 Y114.127 E.02127
G1 X121.032 Y113.755 E.01674
G1 X120.351 Y113.121 E.03111
G1 X119.875 Y112.802 E.01916
G1 X119.063 Y112.397 E.03035
G1 X118.419 Y112.19 E.02263
;WIDTH:0.521046
G1 X118.243 Y112.133 E.00675
;WIDTH:0.562093
G1 X118.068 Y112.075 E.00733
;WIDTH:0.603139
G1 X117.893 Y112.017 E.00791
G1 X116.853 Y111.965 E.04463
;WIDTH:0.59334
G1 X116.377 Y112.006 E.02011
;WIDTH:0.622231
G1 X115.901 Y112.048 E.02117
G1 X115.696 Y112.129 E.00976
;WIDTH:0.574821
G1 X115.492 Y112.211 E.00896
;WIDTH:0.52741
G1 X115.288 Y112.293 E.00816
;WIDTH:0.479999
G1 X114.775 Y112.493 E.01839
G1 X114.175 Y112.802 E.02258
G1 X113.818 Y113.036 E.01425
G1 X113.342 Y113.429 E.02064
;WIDTH:0.487604
G1 X112.951 Y113.815 E.01872
;WIDTH:0.531848
G1 X112.877 Y113.864 E.00328
;WIDTH:0.576092
G1 X112.804 Y113.912 E.00358
;WIDTH:0.620336
G1 X112.731 Y113.96 E.00388
;WIDTH:0.66458
G1 X112.657 Y114.008 E.00417
G1 X112.186 Y114.702 E.03988
;WIDTH:0.663944
G1 X112.143 Y114.839 E.00683
;WIDTH:0.617958
G1 X112.101 Y114.977 E.00632
;WIDTH:0.571972
G1 X112.059 Y115.114 E.00582
;WIDTH:0.525986
G1 X112.017 Y115.252 E.00531
;WIDTH:0.52682
G1 X111.868 Y115.634 E.01521
;WIDTH:0.573641
G1 X111.719 Y116.017 E.01668
;WIDTH:0.620462
G1 X111.569 Y116.4 E.01815
G1 X111.525 Y116.753 E.01571
;WIDTH:0.590821
G1 X111.49 Y117.683 E.03902
;WIDTH:0.612213
G1 X111.557 Y118.499 E.03567
G1 X111.601 Y118.615 E.00537
;WIDTH:0.570771
G1 X111.644 Y118.73 E.00498
;WIDTH:0.529329
G1 X111.688 Y118.845 E.00459
;WIDTH:0.487886
G1 X111.788 Y119.077 E.00858
;WIDTH:0.443902
G1 X111.887 Y119.308 E.00773
;WIDTH:0.399918
G1 X111.986 Y119.54 E.00688
;WIDTH:0.356259
G1 X112.233 Y120.048 E.01354
;WIDTH:0.397506
G1 X112.308 Y120.213 E.00491
;WIDTH:0.438753
G1 X112.382 Y120.378 E.00548
;WIDTH:0.479999
G1 X112.456 Y120.543 E.00605
G1 X112.649 Y120.831 E.01156
G1 X113.109 Y121.355 E.02331
G1 X113.616 Y121.803 E.02263
G1 X114.064 Y122.122 E.01839
G1 X114.987 Y122.603 E.03481
G1 X115.631 Y122.81 E.02263
;WIDTH:0.521362
G1 X115.807 Y122.868 E.00675
;WIDTH:0.562725
G1 X115.982 Y122.925 E.00734
;WIDTH:0.604087
G1 X116.157 Y122.983 E.00792
G1 X117.208 Y123.035 E.04519
;WIDTH:0.594401
G1 X117.679 Y122.994 E.01992
;WIDTH:0.623184
G1 X118.149 Y122.953 E.02096
G1 X118.354 Y122.871 E.00978
;WIDTH:0.575456
G1 X118.558 Y122.789 E.00897
;WIDTH:0.527728
G1 X118.763 Y122.707 E.00817
;WIDTH:0.479999
G1 X119.275 Y122.507 E.01839
G1 X119.988 Y122.121 E.02712
G1 X120.435 Y121.802 E.01838
G1 X121.192 Y121.082 E.03493
G1 X121.522 Y120.658 E.01798
;WIDTH:0.527981
G1 X121.622 Y120.546 E.00555
;WIDTH:0.575962
G1 X121.721 Y120.434 E.0061
;WIDTH:0.623943
G1 X121.821 Y120.323 E.00664
;WIDTH:0.671924
G1 X121.92 Y120.211 E.00719
G1 X121.907 Y120.356 E.00703
;WIDTH:0.623943
G1 X121.895 Y120.502 E.00649
;WIDTH:0.575962
G1 X121.882 Y120.647 E.00595
;WIDTH:0.527981
G1 X121.87 Y120.793 E.00542
;WIDTH:0.479999
G1 X121.825 Y121.329 E.01798
G1 X121.825 Y123.6 E.07596
G1 X118.931 Y123.6 E.09679
;WIDTH:0.527728
G1 X118.687 Y123.577 E.00909
;WIDTH:0.575456
G1 X118.443 Y123.553 E.00998
;WIDTH:0.623184
G1 X118.199 Y123.529 E.01087
G1 X117.802 Y123.545 E.01765
;WIDTH:0.590209
G1 X116.842 Y123.558 E.0402
;WIDTH:0.604087
G1 X116.1 Y123.538 E.03188
G1 X115.916 Y123.559 E.00792
;WIDTH:0.562725
G1 X115.733 Y123.58 E.00734
;WIDTH:0.521362
G1 X115.549 Y123.6 E.00675
;WIDTH:0.479999
G1 X112.265 Y123.6 E.10983
G10 ; retract
G1 X111.787 Y124.038 F12000
G11 ; unretract
G1 F1440
G1 X111.787 Y121.329 E.09058
G1 X111.728 Y120.749 E.01947
G1 X111.479 Y120.04 E.02513
G1 X111.153 Y119.539 E.01998
G1 X110.829 Y119.2 E.01568
G1 X110.488 Y118.97 E.01374
G1 X110.489 Y114.602 E.14608
G1 X110.938 Y114.326 E.01761
G1 X111.353 Y113.911 E.01961
G1 X111.67 Y113.426 E.01938
G1 X111.912 Y112.77 E.02339
G1 X111.987 Y112.129 E.02159
G1 X111.989 Y111.506 E.02082
G1 X112.169 Y111.326 E.00852
G1 X112.376 Y110.964 E.01394
G1 X121.668 Y110.964 E.31068
G1 X121.985 Y111.457 E.01958
G1 X122.277 Y111.754 E.01393
G1 X122.798 Y112.118 E.02126
G1 X123.344 Y112.345 E.01977
G1 X123.563 Y112.377 E.00737
G1 X123.573 Y113.765 E.04642
G1 X123.668 Y114.289 E.01783
G1 X123.931 Y114.921 E.02287
G1 X124.217 Y115.335 E.01682
G1 X124.513 Y115.604 E.01337
G1 X124.513 Y118.566 E.09906
G1 X124.36 Y118.587 E.00515
G1 X123.635 Y118.897 E.02636
G1 X123.219 Y119.203 E.01727
G1 X122.825 Y119.631 E.01946
G1 X122.459 Y120.291 E.02522
G1 X122.301 Y120.864 E.01989
G1 X122.263 Y121.329 E.01558
G1 X122.263 Y124.038 E.09058
G1 X111.827 Y124.038 E.3489
G10 ; retract
G1 X111.314 Y124.475 F12000
G11 ; unretract
G1 F1440
G1 X111.35 Y124.271 E.0069
G1 X111.35 Y121.333 E.09824
G1 X111.3 Y120.839 E.01662
G1 X111.089 Y120.238 E.02127
G1 X110.814 Y119.814 E.01691
G1 X110.49 Y119.485 E.01544
G1 X110.051 Y119.206 E.01739
G1 X110.052 Y114.341 E.16267
G1 X110.608 Y114.03 E.02129
G1 X110.958 Y113.702 E.01604
G1 X111.282 Y113.226 E.01926
G1 X111.487 Y112.67 E.01979
G1 X111.55 Y112.128 E.01827
G1 X111.552 Y111.331 E.02664
G1 X111.819 Y111.064 E.01263
G1 X112.119 Y110.527 E.02054
G1 X121.953 Y110.527 E.32882
G1 X121.98 Y110.648 E.00414
G1 X122.319 Y111.175 E.02093
G1 X122.566 Y111.426 E.01179
G1 X123.007 Y111.734 E.01799
G1 X123.469 Y111.926 E.01673
G1 X124 Y112.003 E.01793
G1 X124.008 Y113.727 E.05765
G1 X124.089 Y114.171 E.01509
G1 X124.311 Y114.705 E.01935
G1 X124.553 Y115.056 E.01423
G1 X124.95 Y115.416 E.01791
G1 X124.95 Y118.945 E.118
G1 X124.474 Y119.008 E.01603
G1 X124.025 Y119.18 E.01608
G1 X123.509 Y119.53 E.02085
G1 X123.176 Y119.892 E.01647
G1 X122.866 Y120.45 E.02134
G1 X122.732 Y120.936 E.01683
G1 X122.7 Y121.329 E.01318
G1 X122.7 Y124.271 E.0984
G1 X122.736 Y124.475 E.0069
G1 X111.354 Y124.475 E.38056
G10 ; retract
G1 X110.799 Y124.912 F12000
G11 ; unretract
G1 F1440
G1 X110.913 Y124.271 E.02174
G1 X110.913 Y121.333 E.09824
G1 X110.872 Y120.928 E.01363
G1 X110.699 Y120.437 E.0174
G1 X110.474 Y120.09 E.01384
