; HEADER_BLOCK_START
; generated by OrcaSlicer 2.2.0 on 2024-12-15 at 15:09:43
; total layer number: 93
; filament_density: 1.27
; filament_diameter: 1.75
; max_z_height: 14.92
; HEADER_BLOCK_END

; external perimeters extrusion width = 0.42mm
; perimeters extrusion width = 0.44mm
; infill extrusion width = 0.48mm
; solid infill extrusion width = 0.48mm
; top infill extrusion width = 0.42mm
; support material extrusion width = 0.40mm
; first layer extrusion width = 0.48mm

; EXECUTABLE_BLOCK_START
EXCLUDE_OBJECT_DEFINE NAME=bambu__Unsaved__adjustable_hotend_mount_rev6_-_square_nuts_-_wheels_3_.stl_id_0_copy_0 CENTER=117.5,117.5 POLYGON=[[103.575,109.21],[131.425,109.21],[131.425,125.79],[103.575,125.79],[103.575,109.21]]
M73 P0 R40
;TYPE:Custom
SET_GCODE_VARIABLE MACRO=START_PRINT VARIABLE=filament_type VALUE='"PETG"'
START_PRINT BED=75 EXTRUDE=240 MELT=150 RETRACT=0.5 MARGIN=12 FILAMENT=PETG
G90
G21
M83 ; use relative distances for extrusion
; filament start gcode
SET_PRESSURE_ADVANCE ADVANCE=0.075; Override pressure advance value
M106 S0
;LAYER_CHANGE
;Z:0.2
;HEIGHT:0.2
;BEFORE_LAYER_CHANGE
;LAYER_COMPLETE:1
;0.2
G92 E0

G10 ; retract
;_SET_FAN_SPEED_CHANGING_LAYER
G1 X96.384 Y98.269 F12000
G1 Z.2
G11 ; unretract
;TYPE:Skirt
;WIDTH:0.48
G1 F1200
G1 X99.282 Y96.841 E.108
G1 X103.575 Y96.117 E.14556
G1 X131.425 Y96.117 E.93119
G1 X134.631 Y96.516 E.108
G1 X137.641 Y97.687 E.108
G1 X140.273 Y99.56 E.108
G1 X142.366 Y102.02 E.108
G1 X143.794 Y104.917 E.108
G1 X144.518 Y109.21 E.14556
G1 X144.518 Y125.79 E.55436
G1 X144.119 Y128.995 E.108
G1 X142.948 Y132.006 E.108
G1 X141.076 Y134.638 E.108
G1 X138.616 Y136.731 E.108
G1 X135.718 Y138.159 E.108
G1 X131.425 Y138.883 E.14556
G1 X103.575 Y138.883 E.93119
G1 X100.369 Y138.484 E.108
G1 X97.359 Y137.313 E.108
G1 X94.727 Y135.44 E.108
G1 X92.634 Y132.98 E.108
G1 X91.206 Y130.083 E.108
G1 X90.482 Y125.79 E.14556
G1 X90.482 Y109.21 E.55436
G1 X90.881 Y106.005 E.108
G1 X92.052 Y102.994 E.108
G1 X93.925 Y100.362 E.108
G1 X96.354 Y98.295 E.10667
G10 ; retract
G1 X96.646 Y98.649 F12000
G11 ; unretract
G1 F1200
G1 X96.805 Y98.518 E.00688
G1 X99.68 Y97.169 E.10618
G1 X103.575 Y96.555 E.13185
G1 X131.425 Y96.555 E.93119
G1 X134.576 Y96.953 E.10618
G1 X137.528 Y98.123 E.10618
G1 X140.096 Y99.991 E.10618
G1 X142.118 Y102.44 E.10618
G1 X143.466 Y105.315 E.10618
G1 X144.081 Y109.21 E.13185
G1 X144.081 Y125.79 E.55436
G1 X143.682 Y128.94 E.10618
G1 X142.512 Y131.893 E.10618
G1 X140.644 Y134.46 E.10618
G1 X138.195 Y136.482 E.10618
G1 X135.32 Y137.831 E.10618
G1 X131.425 Y138.445 E.13185
G1 X103.575 Y138.445 E.93119
G1 X100.424 Y138.047 E.10618
G1 X97.472 Y136.877 E.10618
G1 X94.904 Y135.009 E.10618
G1 X92.882 Y132.56 E.10618
G1 X91.534 Y129.685 E.10618
G1 X90.919 Y125.79 E.13185
G1 X90.919 Y109.21 E.55436
G1 X91.318 Y106.06 E.10618
G1 X92.488 Y103.107 E.10618
G1 X94.356 Y100.54 E.10618
G1 X96.615 Y98.674 E.09796
G10 ; retract
G1 X96.901 Y99.031 F12000
G11 ; unretract
G1 F1200
G1 X97.224 Y98.772 E.01385
G1 X100.075 Y97.504 E.10432
G1 X103.575 Y96.992 E.11827
G1 X131.425 Y96.992 E.93119
G1 X134.52 Y97.39 E.10432
G1 X137.412 Y98.559 E.10432
G1 X139.915 Y100.423 E.10432
G1 X141.863 Y102.859 E.10432
G1 X143.132 Y105.71 E.10432
G1 X143.644 Y109.21 E.11827
G1 X143.644 Y125.79 E.55436
G1 X143.245 Y128.884 E.10432
G1 X142.076 Y131.777 E.10432
G1 X140.212 Y134.279 E.10432
G1 X137.776 Y136.228 E.10432
G1 X134.925 Y137.496 E.10432
G1 X131.425 Y138.008 E.11827
G1 X103.575 Y138.008 E.93119
M73 P1 R40
G1 X100.48 Y137.61 E.10432
G1 X97.588 Y136.441 E.10432
G1 X95.085 Y134.577 E.10432
G1 X93.137 Y132.141 E.10432
G1 X91.868 Y129.29 E.10432
G1 X91.356 Y125.79 E.11827
G1 X91.356 Y109.21 E.55436
M73 P1 R40
G1 X91.755 Y106.116 E.10432
G1 X92.924 Y103.223 E.10432
G1 X94.788 Y100.721 E.10432
G1 X96.869 Y99.056 E.08913
; printing object bambu_(Unsaved)_adjustable_hotend mount rev6 - square_nuts - wheels (3).stl id:0 copy 0
G10 ; retract
EXCLUDE_OBJECT_START NAME=bambu__Unsaved__adjustable_hotend_mount_rev6_-_square_nuts_-_wheels_3_.stl_id_0_copy_0
G1 X127.238 Y121.947 F12000
G11 ; unretract
;TYPE:Inner wall
;WIDTH:0.479999
G1 F1440
G1 X127.506 Y121.895 E.00914
G1 X128.011 Y121.717 E.0179
G1 X128.677 Y121.389 E.02481
G1 X129.167 Y121.031 E.02029
G1 X129.424 Y120.794 E.0117
G1 X129.774 Y120.387 E.01794
G1 X129.774 Y124.139 E.12544
G1 X105.226 Y124.139 E.82077
G1 X105.226 Y113.087 E.36952
G1 X105.402 Y113.223 E.00744
G1 X105.99 Y113.341 E.02006
G1 X109.311 Y113.341 E.11103
G1 X109.602 Y113.322 E.00977
;WIDTH:0.44178
G1 X109.894 Y113.303 E.00891
;WIDTH:0.403561
G1 X110.185 Y113.284 E.00806
;WIDTH:0.378065
G1 X110.932 Y113.29 E.01914
;WIDTH:0.412043
G1 X111.242 Y113.307 E.00877
;WIDTH:0.446021
G1 X111.552 Y113.324 E.00958
;WIDTH:0.479999
G1 X111.862 Y113.341 E.01038
G1 X112.52 Y113.322 E.02199
G1 X112.937 Y113.192 E.0146
G1 X113.356 Y112.897 E.01716
G1 X115.392 Y110.861 E.09625
G1 X121.458 Y110.861 E.20285
G1 X123.222 Y112.625 E.08338
G1 X123.678 Y113.053 E.02092
G1 X124.197 Y113.295 E.01915
G1 X124.572 Y113.341 E.01262
G1 X125.311 Y113.341 E.02471
G1 X125.602 Y113.322 E.00977
;WIDTH:0.4418
G1 X125.894 Y113.303 E.00891
;WIDTH:0.4036
G1 X126.185 Y113.284 E.00806
;WIDTH:0.37815
G1 X126.932 Y113.29 E.01914
;WIDTH:0.4121
G1 X127.132 Y113.307 E.00567
;WIDTH:0.44605
G1 X127.332 Y113.324 E.00619
;WIDTH:0.479999
G1 X127.532 Y113.341 E.00672
G1 X129.782 Y113.326 E.07524
G1 X129.774 Y115.196 E.06254
G1 X129.429 Y114.791 E.0178
G1 X128.712 Y114.209 E.03086
G1 X128.187 Y113.925 E.01996
G1 X127.5 Y113.683 E.02434
G1 X127.207 Y113.657 E.00986
;WIDTH:0.441348
G1 X126.913 Y113.63 E.00899
;WIDTH:0.402697
G1 X126.619 Y113.604 E.00812
;WIDTH:0.384315
G1 X125.917 Y113.623 E.01834
;WIDTH:0.432157
G1 X125.63 Y113.654 E.00858
;WIDTH:0.479999
G1 X125.344 Y113.684 E.00964
G1 X124.693 Y113.926 E.02321
G1 X124.173 Y114.191 E.0195
G1 X123.581 Y114.631 E.02469
G1 X123.181 Y115.071 E.01985
G1 X122.844 Y115.503 E.01833
G1 X122.546 Y116.063 E.02123
G1 X122.249 Y115.503 E.02118
G1 X121.967 Y115.067 E.01739
G1 X121.487 Y114.539 E.02386
G1 X120.745 Y113.975 E.03116
G1 X119.886 Y113.57 E.03178
G1 X118.982 Y113.359 E.03101
G1 X118.103 Y113.333 E.0294
G1 X117.391 Y113.446 E.0241
G1 X116.79 Y113.635 E.02107
G1 X116.496 Y113.762 E.01072
G1 X115.706 Y114.247 E.03099
G1 X115.249 Y114.65 E.02039
G1 X114.886 Y115.071 E.01858
G1 X114.598 Y115.498 E.01721
G1 X114.301 Y116.084 E.02198
G1 X114.193 Y115.834 E.00911
G1 X113.759 Y115.176 E.02635
G1 X113.423 Y114.786 E.0172
G1 X112.712 Y114.209 E.03062
G1 X112.168 Y113.917 E.02064
G1 X111.5 Y113.683 E.02367
G1 X111.207 Y113.657 E.00986
;WIDTH:0.441324
G1 X110.913 Y113.63 E.00899
;WIDTH:0.402649
G1 X110.619 Y113.604 E.00812
;WIDTH:0.38429
G1 X109.917 Y113.623 E.01834
;WIDTH:0.432145
G1 X109.63 Y113.654 E.00858
;WIDTH:0.479999
G1 X109.344 Y113.684 E.00964
G1 X109.025 Y113.782 E.01114
G1 X108.173 Y114.191 E.03159
G1 X107.683 Y114.549 E.02029
G1 X107.426 Y114.786 E.0117
G1 X106.844 Y115.503 E.03086
G1 X106.56 Y116.028 E.01996
G1 X106.318 Y116.714 E.02434
G1 X106.181 Y117.596 E.02983
G1 X106.211 Y118.307 E.02379
G1 X106.417 Y119.19 E.03031
G1 X106.826 Y120.041 E.03159
G1 X107.184 Y120.532 E.02029
G1 X107.421 Y120.789 E.0117
G1 X108.138 Y121.371 E.03086
G1 X108.663 Y121.655 E.01996
G1 X109.35 Y121.897 E.02434
G1 X109.94 Y122.007 E.02007
G1 X110.287 Y122.032 E.01166
G1 X111.198 Y121.967 E.03053
G1 X111.781 Y121.816 E.02015
G1 X112.439 Y121.527 E.02401
G1 X112.925 Y121.221 E.01921
G1 X113.373 Y120.83 E.01988
G1 X113.733 Y120.46 E.01726
G1 X114.051 Y120.003 E.01861
G1 X114.3 Y119.498 E.01882
G1 X114.654 Y120.182 E.02577
G1 X115.007 Y120.648 E.01952
G1 X115.425 Y121.101 E.02063
G1 X115.99 Y121.533 E.02376
G1 X116.815 Y121.955 E.031
G1 X117.713 Y122.198 E.03111
G1 X118.34 Y122.255 E.02105
G1 X118.663 Y122.249 E.01081
G1 X119.536 Y122.118 E.02951
G1 X120.208 Y121.884 E.02379
G1 X121.016 Y121.428 E.03101
G1 X121.682 Y120.849 E.02952
G1 X122.124 Y120.292 E.02377
G1 X122.533 Y119.552 E.02826
G1 X123.072 Y120.403 E.0337
G1 X123.43 Y120.783 E.01743
M73 P1 R39
G1 X123.851 Y121.169 E.01912
G1 X124.469 Y121.557 E.02438
G1 X125.344 Y121.895 E.03136
G1 X126.196 Y122.031 E.02885
G1 X126.942 Y122.004 E.02497
G1 X127.179 Y121.958 E.00807
G10 ; retract
G1 X130.211 Y124.576 F12000
G11 ; unretract
G1 F1440
G1 X104.789 Y124.576 E.85
M73 P1 R39
G1 X104.789 Y112.576 E.40122
;WIDTH:0.521901
G1 X104.81 Y112.388 E.00694
;WIDTH:0.563803
G1 X104.831 Y112.199 E.00755
;WIDTH:0.605704
G1 X104.852 Y112.011 E.00816
G1 X104.94 Y112.163 E.00756
;WIDTH:0.563803
G1 X105.028 Y112.315 E.007
;WIDTH:0.521901
G1 X105.116 Y112.467 E.00644
;WIDTH:0.479999
G1 X105.57 Y112.82 E.01923
G1 X105.99 Y112.904 E.01433
G1 X111.862 Y112.904 E.19633
G1 X112.451 Y112.89 E.01968
G1 X112.748 Y112.798 E.01043
G1 X113.048 Y112.587 E.01225
G1 X115.21 Y110.424 E.10225
G1 X121.64 Y110.424 E.21496
G1 X123.8 Y112.584 E.10214
G1 X124.193 Y112.836 E.01562
G1 X124.572 Y112.904 E.01286
G1 X129.365 Y112.903 E.16027
G1 X130.235 Y112.873 E.02909
G1 X130.211 Y113.599 E.02428
G1 X130.211 Y116.78 E.10638
;WIDTH:0.481636
G1 X130.21 Y117.355 E.01928
G1 X130.031 Y116.563 E.02724
;WIDTH:0.479999
G1 X129.671 Y115.796 E.02834
G1 X129.143 Y115.122 E.02861
G1 X128.493 Y114.588 E.02814
G1 X128.026 Y114.331 E.01781
G1 X127.42 Y114.113 E.02155
G1 X126.621 Y113.983 E.02705
G1 X125.99 Y114.005 E.02112
G1 X125.198 Y114.183 E.02714
G1 X124.431 Y114.544 E.02834
G1 X123.757 Y115.071 E.02861
G1 X123.3 Y115.605 E.0235
G1 X123.036 Y116.044 E.01711
G1 X122.806 Y116.594 E.01996
G1 X122.698 Y117.058 E.01593
;WIDTH:0.52245
G1 X122.657 Y117.203 E.00552
;WIDTH:0.5649
G1 X122.616 Y117.348 E.006
;WIDTH:0.60735
G1 X122.575 Y117.492 E.00649
;WIDTH:0.6498
G1 X122.535 Y117.637 E.00698
G1 X122.506 Y117.549 E.00429
;WIDTH:0.611271
G1 X122.477 Y117.461 E.00402
;WIDTH:0.572742
G1 X122.448 Y117.374 E.00375
;WIDTH:0.534213
G1 X122.352 Y116.976 E.01537
;WIDTH:0.507106
G1 X122.257 Y116.578 E.01452
;WIDTH:0.479999
G1 X122.053 Y116.035 E.0194
G1 X121.634 Y115.35 E.02686
G1 X121.21 Y114.877 E.02124
G1 X120.545 Y114.363 E.02808
G1 X119.771 Y113.991 E.02871
G1 X118.958 Y113.795 E.02797
G1 X118.156 Y113.767 E.02683
G1 X117.523 Y113.863 E.02142
G1 X116.711 Y114.143 E.02869
G1 X115.995 Y114.575 E.02796
G1 X115.403 Y115.121 E.02692
G1 X114.984 Y115.704 E.02404
G1 X114.651 Y116.376 E.02506
G1 X114.481 Y116.962 E.02039
G1 X114.481 Y117.121 E.00533
;WIDTH:0.441583
G1 X114.481 Y117.281 E.00486
;WIDTH:0.403166
G1 X114.48 Y117.44 E.0044
;WIDTH:0.411738
G1 X114.452 Y117.502 E.00191
;WIDTH:0.458727
G1 X114.424 Y117.564 E.00216
;WIDTH:0.505716
G1 X114.396 Y117.625 E.0024
;WIDTH:0.552705
G1 X114.368 Y117.687 E.00264
;WIDTH:0.599694
G1 X114.34 Y117.749 E.00289
;WIDTH:0.646682
G1 X114.312 Y117.81 E.00313
G1 X114.286 Y117.736 E.00363
;WIDTH:0.601005
G1 X114.26 Y117.662 E.00336
;WIDTH:0.555327
G1 X114.235 Y117.588 E.00308
;WIDTH:0.50965
G1 X114.209 Y117.514 E.00281
;WIDTH:0.463972
G1 X114.183 Y117.439 E.00253
;WIDTH:0.418295
G1 X114.157 Y117.365 E.00226
;WIDTH:0.408411
G1 X114.138 Y117.174 E.00538
;WIDTH:0.444205
G1 X114.12 Y116.982 E.00591
;WIDTH:0.479999
G1 X114.101 Y116.791 E.00643
G1 X113.844 Y116.128 E.02377
G1 X113.62 Y115.726 E.01539
G1 X113.138 Y115.118 E.02594
G1 X112.493 Y114.588 E.0279
G1 X112.007 Y114.324 E.01849
G1 X111.42 Y114.113 E.02088
G1 X110.621 Y113.983 E.02705
G1 X109.99 Y114.005 E.02112
G1 X109.198 Y114.183 E.02714
G1 X108.431 Y114.544 E.02834
G1 X107.757 Y115.071 E.02861
G1 X107.223 Y115.721 E.02814
G1 X106.966 Y116.189 E.01781
G1 X106.748 Y116.795 E.02155
G1 X106.618 Y117.593 E.02704
G1 X106.641 Y118.225 E.02112
G1 X106.819 Y119.017 E.02714
G1 X107.179 Y119.784 E.02834
G1 X107.707 Y120.457 E.02861
G1 X108.357 Y120.992 E.02814
G1 X108.824 Y121.249 E.01781
G1 X109.43 Y121.467 E.02155
G1 X110.269 Y121.596 E.02836
G1 X111.1 Y121.541 E.02787
G1 X111.621 Y121.409 E.01794
G1 X112.206 Y121.157 E.02132
G1 X112.693 Y120.851 E.01921
G1 X113.066 Y120.519 E.01671
G1 X113.444 Y120.117 E.01845
G1 X113.791 Y119.573 E.02158
G1 X114.031 Y119.017 E.02026
G1 X114.129 Y118.642 E.01293
;WIDTH:0.523967
G1 X114.176 Y118.497 E.00563
;WIDTH:0.567935
G1 X114.223 Y118.351 E.00615
;WIDTH:0.611903
G1 X114.27 Y118.205 E.00666
;WIDTH:0.65587
G1 X114.316 Y118.059 E.00718
G1 X114.349 Y118.148 E.00444
;WIDTH:0.614907
G1 X114.383 Y118.237 E.00414
;WIDTH:0.573943
G1 X114.458 Y118.539 E.01266
;WIDTH:0.526971
G1 X114.533 Y118.842 E.01154
;WIDTH:0.479999
G1 X114.748 Y119.438 E.02119
G1 X115.038 Y119.974 E.0204
G1 X115.34 Y120.364 E.01648
G1 X115.702 Y120.763 E.01802
G1 X116.203 Y121.151 E.02118
G1 X116.944 Y121.538 E.02797
G1 X117.752 Y121.763 E.02804
G1 X118.61 Y121.816 E.02874
G1 X119.407 Y121.7 E.02691
G1 X120.007 Y121.496 E.0212
G1 X120.738 Y121.09 E.02797
G1 X121.349 Y120.566 E.02691
G1 X121.746 Y120.072 E.02118
G1 X122.146 Y119.337 E.02797
G1 X122.337 Y118.758 E.02039
G1 X122.35 Y118.534 E.0075
;WIDTH:0.441683
G1 X122.363 Y118.31 E.00684
;WIDTH:0.403367
G1 X122.376 Y118.087 E.00618
;WIDTH:0.412005
G1 X122.403 Y118.023 E.00196
;WIDTH:0.458959
G1 X122.43 Y117.959 E.00221
;WIDTH:0.505913
G1 X122.457 Y117.895 E.00246
;WIDTH:0.552868
G1 X122.485 Y117.832 E.0027
;WIDTH:0.599822
G1 X122.512 Y117.768 E.00295
;WIDTH:0.646776
G1 X122.539 Y117.704 E.0032
G1 X122.565 Y117.77 E.00326
;WIDTH:0.599822
G1 X122.592 Y117.835 E.00301
;WIDTH:0.552868
G1 X122.618 Y117.901 E.00275
;WIDTH:0.505913
G1 X122.644 Y117.966 E.0025
;WIDTH:0.458959
G1 X122.671 Y118.032 E.00225
;WIDTH:0.412005
G1 X122.697 Y118.097 E.00199
;WIDTH:0.397134
G1 X122.697 Y118.278 E.00491
;WIDTH:0.429217
G1 X122.698 Y118.46 E.00536
;WIDTH:0.454608
G1 X122.752 Y118.722 E.00845
;WIDTH:0.479999
G1 X122.806 Y118.985 E.00897
G1 X123.058 Y119.571 E.02132
G1 X123.511 Y120.244 E.02712
G1 X124.098 Y120.809 E.02724
G1 X124.642 Y121.156 E.02158
G1 X125.426 Y121.466 E.02818
G1 X126.196 Y121.594 E.0261
G1 X126.86 Y121.574 E.02221
G1 X127.424 Y121.466 E.01921
G1 X127.838 Y121.316 E.01472
G1 X128.419 Y121.036 E.02157
G1 X129.093 Y120.508 E.02861
G1 X129.627 Y119.858 E.02815
G1 X129.884 Y119.391 E.01781
G1 X130.102 Y118.785 E.02155
G1 X130.212 Y118.194 E.02007
G1 X130.211 Y124.516 E.21135
G10 ; retract
G1 X130.648 Y125.013 F12000
G11 ; unretract
G1 F1440
G1 X104.352 Y125.013 E.87922
G1 X104.352 Y109.987 E.50239
G1 X105.335 Y109.987 E.03285
G1 X105.335 Y111.902 E.06402
G1 X105.466 Y112.205 E.01103
G1 X105.738 Y112.417 E.01154
G1 X105.99 Y112.467 E.0086
G1 X112.278 Y112.467 E.21024
G1 X112.501 Y112.428 E.00756
G1 X112.74 Y112.277 E.00947
G1 X115.029 Y109.987 E.10825
G1 X121.821 Y109.987 E.22707
G1 X124.108 Y112.275 E.10817
G1 X124.345 Y112.426 E.00939
G1 X124.572 Y112.467 E.00772
G1 X129.35 Y112.466 E.15977
G1 X130.293 Y112.433 E.03153
G1 X130.708 Y112.378 E.01402
G1 X130.674 Y112.814 E.01464
G1 X130.648 Y113.599 E.02623
G1 X130.648 Y124.953 E.37964
G10 ; retract
G1 X131.085 Y125.45 F12000
G11 ; unretract
;TYPE:Outer wall
G1 F1440
G1 X103.915 Y125.45 E.90845
G1 X103.915 Y109.55 E.53162
M73 P2 R39
G1 X105.772 Y109.55 E.06208
G1 X105.772 Y111.811 E.0756
G1 X105.815 Y111.942 E.00462
G1 X105.99 Y112.03 E.00654
G1 X112.278 Y112.03 E.21024
G1 X112.432 Y111.966 E.00557
G1 X114.848 Y109.55 E.11425
G1 X122.002 Y109.55 E.23917
G1 X124.417 Y111.966 E.11423
G1 X124.572 Y112.03 E.00559
G1 X129.515 Y112.023 E.16529
G1 X130.3 Y111.994 E.02627
G1 X130.856 Y111.898 E.01885
;WIDTH:0.468741
G1 X130.878 Y111.835 E.00218
;WIDTH:0.434088
G1 X130.899 Y111.772 E.002
M73 P2 R39
;WIDTH:0.399434
G1 X130.921 Y111.708 E.00183
;WIDTH:0.36478
G1 X130.921 Y109.728 E.04875
G1 X130.954 Y109.461 E.00664
;WIDTH:0.364263
G1 X131.21 Y109.461 E.00629
G1 X131.243 Y109.728 E.00662
;WIDTH:0.36478
G1 X131.243 Y111.756 E.04994
;WIDTH:0.403187
G1 X131.215 Y111.936 E.00499
;WIDTH:0.441593
G1 X131.188 Y112.115 E.00552
;WIDTH:0.479999
G1 X131.111 Y112.829 E.02403
G1 X131.085 Y113.599 E.02574
G1 X131.085 Y125.39 E.39425
G10 ; retract
G1 X127.073 Y121.088 F12000
G11 ; unretract
;TYPE:Inner wall
G1 F1440
G1 X126.778 Y121.145 E.01007
G1 X126.196 Y121.157 E.01946
G1 X125.508 Y121.037 E.02334
G1 X124.815 Y120.755 E.02501
G1 X124.345 Y120.448 E.01878
