; HEADER_BLOCK_START
; generated by OrcaSlicer 2.2.0 on 2024-12-19 at 12:26:38
; total layer number: 13
; filament_density: 1.24
; filament_diameter: 1.75
; max_z_height: 2.60
; HEADER_BLOCK_END

; external perimeters extrusion width = 0.42mm
; perimeters extrusion width = 0.44mm
; infill extrusion width = 0.48mm
; solid infill extrusion width = 0.48mm
; top infill extrusion width = 0.42mm
; support material extrusion width = 0.40mm
; first layer extrusion width = 0.48mm

; EXECUTABLE_BLOCK_START
EXCLUDE_OBJECT_DEFINE NAME=rear_cable_cover___apollo_on_wheels_ender3_3pro_3v2_backplate_extended.stl_id_0_copy_0 CENTER=117.5,117.5 POLYGON=[[98.3706,94.5659],[122.104,71.8003],[122.168,71.7398],[122.176,71.7327],[122.255,71.6728],[122.311,71.6373],[122.339,71.621],[122.428,71.578],[122.469,71.5618],[122.52,71.5441],[122.616,71.5197],[122.637,71.5156],[122.811,71.5],[128.09,71.5],[128.263,71.5156],[128.285,71.5197],[128.38,71.5441],[128.432,71.5618],[128.472,71.578],[128.561,71.621],[128.59,71.6373],[128.645,71.6728],[128.724,71.7327],[128.732,71.7398],[128.797,71.8003],[128.856,71.8662],[128.863,71.8748],[128.921,71.9556],[128.956,72.0126],[128.972,72.0419],[129.014,72.1328],[129.029,72.1745],[129.047,72.2276],[135.091,95.8292],[135.411,97.1398],[135.412,97.1441],[135.696,98.4642],[135.696,98.468],[135.943,99.7965],[135.943,99.7997],[136.152,101.136],[136.153,101.138],[136.324,102.48],[136.324,102.482],[136.457,103.829],[136.458,103.831],[136.553,105.182],[136.553,105.183],[136.61,106.537],[136.61,106.537],[136.629,107.893],[136.629,147.31],[130.503,155.683],[128.176,158.865],[123.245,161.288],[123.01,161.403],[122.705,161.549],[122.416,161.683],[122.138,161.807],[121.868,161.921],[121.342,162.131],[120.812,162.327],[120.537,162.422],[120.251,162.516],[119.949,162.611],[119.628,162.706],[119.301,162.797],[118.982,162.88],[118.672,162.956],[118.369,163.025],[117.783,163.145],[117.22,163.243],[116.675,163.323],[116.14,163.387],[115.612,163.436],[115.083,163.472],[114.55,163.493],[114.006,163.5],[112.922,163.5],[106.724,138.823],[106.633,138.352],[98.3706,94.5659]]
M73 P0 R24
;TYPE:Custom
SET_GCODE_VARIABLE MACRO=START_PRINT VARIABLE=filament_type VALUE='"PLA"'
START_PRINT BED=55 EXTRUDE=208 MELT=170 RETRACT=0.8 MARGIN=12 FILAMENT=PLA
G90
G21
M83 ; use relative distances for extrusion
; filament start gcode
SET_PRESSURE_ADVANCE ADVANCE=0.04; Override pressure advance value
M106 S0
;LAYER_CHANGE
;Z:0.2
;HEIGHT:0.2
;BEFORE_LAYER_CHANGE
;LAYER_COMPLETE:1
;0.2
G92 E0

G10 ; retract
;_SET_FAN_SPEED_CHANGING_LAYER
G1 X88.947 Y85.566 F12000
G1 Z.2
G11 ; unretract
;TYPE:Skirt
;WIDTH:0.48
G1 F1200
G1 X89.327 Y85.098 E.0206
G1 X112.867 Y62.613 E1.1121
G1 X115.461 Y60.687 E.11035
G1 X118.446 Y59.455 E.11035
G1 X121.911 Y58.988 E.11942
G1 X128.99 Y58.988 E.24184
G1 X132.195 Y59.387 E.11035
G1 X135.206 Y60.558 E.11035
G1 X137.838 Y62.431 E.11035
G1 X139.931 Y64.891 E.11035
G1 X141.191 Y67.332 E.09385
G1 X141.73 Y68.978 E.05918
G1 X147.773 Y92.577 E.8322
G1 X148.569 Y96.077 E.12264
G1 X149.088 Y99.113 E.10521
G1 X149.353 Y101.19 E.07155
G1 X149.613 Y104.26 E.10525
G1 X149.721 Y107.708 E.11787
G1 X149.722 Y147.31 E1.3529
G1 X149.324 Y150.515 E.11035
G1 X148.152 Y153.526 E.11035
G1 X147.196 Y155.041 E.0612
G1 X139.069 Y166.149 E.47022
G1 X136.855 Y168.501 E.11035
G1 X134.277 Y170.169 E.1049
G1 X128.329 Y173.088 E.22634
G1 X126.7 Y173.812 E.06089
G1 X124.132 Y174.751 E.09341
G1 X121.559 Y175.462 E.09119
G1 X118.475 Y176.03 E.10715
G1 X115.496 Y176.301 E.1022
G1 X112.935 Y176.335 E.08747
G1 X109.729 Y175.94 E.11035
G1 X106.718 Y174.771 E.11035
G1 X104.084 Y172.902 E.11035
G1 X101.988 Y170.444 E.11035
G1 X100.232 Y166.464 E.14861
G1 X94.033 Y142.044 E.8607
G1 X93.768 Y140.78 E.04413
G1 X85.505 Y96.994 E1.52225
M73 P1 R24
G1 X85.302 Y93.77 E.11035
G1 X85.895 Y90.594 E.11035
G1 X87.247 Y87.661 E.11035
M73 P1 R24
G1 X88.922 Y85.597 E.0908
G10 ; retract
G1 X89.254 Y85.87 F12000
G11 ; unretract
G1 F1200
G1 X89.629 Y85.414 E.02018
G1 X113.169 Y62.929 E1.1121
G1 X115.723 Y61.041 E.10849
G1 X118.666 Y59.849 E.10849
G1 X121.911 Y59.425 E.11179
G1 X128.99 Y59.425 E.24184
G1 X132.14 Y59.824 E.10849
G1 X135.092 Y60.994 E.10849
G1 X137.66 Y62.862 E.10849
G1 X139.682 Y65.311 E.10849
G1 X140.783 Y67.49 E.08342
G1 X141.306 Y69.087 E.05739
G1 X147.349 Y92.685 E.8322
G1 X148.386 Y97.489 E.1679
G1 X148.706 Y99.534 E.07071
G1 X149.051 Y102.582 E.10482
G1 X149.197 Y104.647 E.0707
G1 X149.284 Y107.714 E.10484
G1 X149.285 Y147.31 E1.35269
G1 X148.887 Y150.46 E.10849
G1 X147.716 Y153.413 E.10849
G1 X146.843 Y154.782 E.0555
G1 X138.716 Y165.891 E.47022
G1 X136.534 Y168.199 E.10849
G1 X134.084 Y169.777 E.09958
G1 X128.138 Y172.695 E.22626
G1 X126.538 Y173.406 E.05984
G1 X124.001 Y174.334 E.09227
G1 X121.462 Y175.035 E.08999
G1 X118.412 Y175.598 E.10596
G1 X115.479 Y175.864 E.1006
G1 X112.935 Y175.898 E.08693
G1 X109.784 Y175.503 E.10849
G1 X106.831 Y174.335 E.10849
G1 X104.261 Y172.47 E.10849
G1 X102.236 Y170.023 E.10849
G1 X100.656 Y166.356 E.13642
G1 X94.457 Y141.936 E.8607
G1 X94.197 Y140.699 E.04321
G1 X85.935 Y96.913 E1.52225
M73 P2 R24
G1 X85.742 Y93.743 E.10849
G1 X86.344 Y90.625 E.10849
G1 X87.704 Y87.755 E.10849
G1 X89.229 Y85.901 E.082
G10 ; retract
G1 X89.559 Y86.177 F12000
M73 P2 R24
G11 ; unretract
G1 F1200
G1 X89.931 Y85.73 E.01986
G1 X113.471 Y63.246 E1.1121
G1 X115.984 Y61.396 E.10659
G1 X118.883 Y60.243 E.10659
G1 X121.911 Y59.863 E.10423
G1 X128.99 Y59.863 E.24184
G1 X132.084 Y60.261 E.10659
G1 X134.977 Y61.43 E.10659
G1 X137.479 Y63.294 E.10659
G1 X139.428 Y65.73 E.10659
G1 X140.376 Y67.649 E.07311
G1 X140.883 Y69.195 E.05559
G1 X146.926 Y92.793 E.8322
M73 P2 R23
G1 X147.957 Y97.569 E.16689
G1 X148.273 Y99.589 E.06986
G1 X148.616 Y102.626 E.1044
G1 X148.761 Y104.665 E.06986
G1 X148.847 Y107.721 E.10442
G1 X148.848 Y147.31 E1.35248
G1 X148.45 Y150.404 E.10659
M73 P2 R23
G1 X146.491 Y154.524 E.15585
G1 X138.363 Y165.633 E.47022
G1 X136.215 Y167.895 E.10659
G1 X133.891 Y169.385 E.09429
G1 X127.948 Y172.302 E.22618
G1 X126.375 Y173 E.05878
G1 X123.87 Y173.917 E.09114
G1 X121.365 Y174.609 E.08879
G1 X118.349 Y175.165 E.10476
G1 X115.463 Y175.427 E.09901
G1 X112.934 Y175.461 E.08638
G1 X109.84 Y175.065 E.10659
G1 X106.946 Y173.899 E.10659
G1 X104.441 Y172.038 E.10659
G1 X102.49 Y169.603 E.10659
G1 X101.079 Y166.248 E.12434
G1 X94.724 Y141.124 E.88534
G1 X86.364 Y96.832 E1.53988
M73 P3 R23
G1 X86.182 Y93.717 E.10659
G1 X86.794 Y90.657 E.10659
G1 X88.161 Y87.853 E.10659
G1 X89.533 Y86.207 E.07319
; printing object rear cable cover _ apollo on wheels ender3_3pro_3v2 backplate_extended.stl id:0 copy 0
G10 ; retract
EXCLUDE_OBJECT_START NAME=rear_cable_cover___apollo_on_wheels_ender3_3pro_3v2_backplate_extended.stl_id_0_copy_0
G1 X124.146 Y77.963 F12000
G11 ; unretract
;TYPE:Inner wall
;WIDTH:0.479999
G1 F1440
G1 X124.106 Y77.841 E.00436
M73 P3 R23
G1 X123.829 Y77.401 E.0178
G1 X123.998 Y77.162 E.01
G1 X124.183 Y76.752 E.01535
G1 X124.262 Y76.217 E.01846
G1 X124.253 Y73.836 E.08137
G1 X124.119 Y73.295 E.01902
G1 X126.766 Y73.295 E.09041
G1 X126.647 Y73.836 E.0189
G1 X126.639 Y76.217 E.08137
G1 X126.69 Y76.628 E.01414
G1 X126.794 Y76.948 E.01148
G1 X127.072 Y77.389 E.0178
G1 X127.027 Y77.435 E.0022
G1 X126.773 Y77.886 E.01771
G1 X126.678 Y78.275 E.01366
G1 X126.638 Y79.021 E.02552
G1 X126.638 Y80.834 E.06195
G1 X126.71 Y81.343 E.01756
G1 X126.947 Y81.862 E.01949
G1 X127.149 Y82.1 E.01064
G1 X127.542 Y82.432 E.0176
G1 X127.833 Y82.57 E.01097
G1 X128.032 Y82.703 E.0082
G1 X128.858 Y84.027 E.0533
G1 X129.514 Y85.161 E.04475
G1 X130.138 Y86.317 E.04488
G1 X130.73 Y87.491 E.04491
G1 X131.265 Y88.633 E.04312
G1 X131.813 Y89.889 E.04681
G1 X132.303 Y91.111 E.04496
G1 X132.759 Y92.347 E.04502
G1 X133.179 Y93.596 E.04503
G1 X133.565 Y94.858 E.04506
G1 X133.914 Y96.13 E.04507
G1 X134.216 Y97.366 E.04347
;WIDTH:0.524099
G1 X134.283 Y97.781 E.0158
;WIDTH:0.568198
G1 X134.35 Y98.195 E.01725
G1 X134.471 Y98.714 E.02186
;WIDTH:0.553731
G1 X134.71 Y100.008 E.05255
;WIDTH:0.574291
G1 X134.879 Y101.154 E.04812
G1 X134.943 Y101.455 E.01278
;WIDTH:0.527145
G1 X135.007 Y101.756 E.01165
;WIDTH:0.479999
G1 X135.117 Y102.617 E.02963
G1 X135.275 Y104.329 E.05874
;WIDTH:0.516269
G1 X135.29 Y104.793 E.01716
;WIDTH:0.552539
G1 X135.362 Y106.544 E.06982
;WIDTH:0.553359
G1 X135.371 Y107.391 E.03382
G1 X135.393 Y107.715 E.01294
;WIDTH:0.516679
G1 X135.415 Y108.039 E.01201
;WIDTH:0.479999
G1 X135.415 Y110.592 E.08724
;WIDTH:0.515828
G1 X135.397 Y110.891 E.01104
;WIDTH:0.551657
G1 X135.379 Y111.189 E.01188
G1 X135.382 Y113.698 E.09977
;WIDTH:0.547304
G1 X135.399 Y114.001 E.01195
;WIDTH:0.513652
G1 X135.415 Y114.303 E.01116
;WIDTH:0.479999
G1 X135.415 Y116.125 E.06223
;WIDTH:0.517563
G1 X135.396 Y116.373 E.00923
;WIDTH:0.555127
G1 X135.378 Y116.621 E.00996
;WIDTH:0.59269
G1 X135.359 Y116.869 E.01069
G1 X135.379 Y117.345 E.02049
;WIDTH:0.551644
G1 X135.379 Y119.615 E.09025
G1 X135.397 Y119.963 E.01385
;WIDTH:0.515822
G1 X135.415 Y120.311 E.01287
;WIDTH:0.479999
G1 X135.415 Y122.249 E.06622
;WIDTH:0.507248
G1 X135.402 Y122.585 E.0122
;WIDTH:0.534497
G1 X135.388 Y122.921 E.01291
;WIDTH:0.562136
G1 X135.374 Y123.565 E.02616
;WIDTH:0.584867
G1 X135.363 Y125.074 E.0639
;WIDTH:0.620064
G1 X135.345 Y126.048 E.04398
G1 X135.369 Y126.222 E.00792
;WIDTH:0.573376
G1 X135.392 Y126.396 E.00728
;WIDTH:0.526688
G1 X135.415 Y126.57 E.00664
;WIDTH:0.479999
G1 X135.415 Y134.124 E.25804
G1 X135.382 Y134.809 E.02345
G1 X135.254 Y135.062 E.00966
G1 X134.19 Y136.378 E.05782
G1 X133.921 Y136.829 E.01793
;WIDTH:0.470897
G1 X133.876 Y136.969 E.00493
;WIDTH:0.44033
G1 X133.832 Y137.11 E.00458
;WIDTH:0.409763
G1 X133.667 Y137.836 E.02134
;WIDTH:0.414298
G1 X133.629 Y138.375 E.0157
;WIDTH:0.447149
G1 X133.613 Y138.657 E.00891
;WIDTH:0.479999
G1 X133.597 Y138.938 E.00964
G1 X133.606 Y140.383 E.04936
G1 X133.672 Y140.885 E.01728
G1 X133.746 Y141.16 E.00973
G1 X134.012 Y141.772 E.02282
G1 X134.385 Y142.269 E.02123
G1 X134.618 Y142.498 E.01117
G1 X135.135 Y142.872 E.02178
G1 X135.36 Y143.151 E.01225
G1 X135.415 Y143.444 E.01019
G1 X135.415 Y146.913 E.11852
G1 X127.699 Y157.46 E.44644
G1 X121.844 Y160.327 E.22271
G1 X120.789 Y160.767 E.03907
G1 X119.557 Y161.192 E.04452
G1 X118.934 Y161.371 E.02214
G1 X118.022 Y161.594 E.03207
G1 X117.017 Y161.785 E.03496
G1 X116.44 Y161.869 E.01991
G1 X115.505 Y161.968 E.03211
G1 X114.948 Y162.004 E.01909
G1 X114.136 Y162.026 E.02773
G1 X114.136 Y147.496 E.4964
G1 X114.105 Y147.007 E.01673
G1 X113.822 Y145.913 E.03861
G1 X113.383 Y144.882 E.03828
G1 X112.794 Y143.928 E.03831
G1 X112.057 Y143.065 E.03874
G1 X111.217 Y142.342 E.03788
G1 X110.058 Y141.618 E.04667
G1 X109.334 Y141.036 E.03175
G1 X108.887 Y140.558 E.02238
G1 X108.453 Y139.924 E.02623
;WIDTH:0.527216
G1 X108.391 Y139.744 E.00721
;WIDTH:0.574433
G1 X108.33 Y139.564 E.00791
;WIDTH:0.621649
G1 X108.268 Y139.384 E.00862
;WIDTH:0.626782
G1 X108.084 Y138.859 E.02538
G1 X107.946 Y138.333 E.02479
;WIDTH:0.662282
G1 X107.858 Y137.641 E.03378
;WIDTH:0.623131
G1 X107.833 Y137.511 E.00603
;WIDTH:0.58398
G1 X107.808 Y137.38 E.00562
;WIDTH:0.544828
G1 X107.791 Y137.177 E.008
;WIDTH:0.512414
G1 X107.775 Y136.973 E.00749
;WIDTH:0.479999
G1 X107.774 Y104.784 E1.09968
G1 X107.752 Y104.091 E.02366
G1 X107.69 Y103.4 E.02372
G1 X107.587 Y102.713 E.02372
G1 X107.46 Y102.096 E.02153
G1 X107.322 Y101.577 E.01836
G1 X107.835 Y101.963 E.02192
G1 X108.318 Y102.182 E.01813
G1 X108.864 Y102.35 E.01953
G1 X109.386 Y102.375 E.01783
G1 X109.854 Y102.344 E.01604
G1 X110.396 Y102.198 E.01917
G1 X110.693 Y102.069 E.01105
G1 X111.14 Y101.79 E.01801
G1 X111.414 Y101.563 E.01215
G1 X111.787 Y101.136 E.01937
G1 X111.96 Y100.867 E.01092
G1 X112.199 Y100.338 E.01984
G1 X112.285 Y100.042 E.01055
G1 X112.364 Y99.487 E.01915
G1 X112.364 Y99.178 E.01056
G1 X112.252 Y98.469 E.02451
G1 X112.059 Y98.015 E.01687
G1 X111.787 Y97.53 E.01899
G1 X111.414 Y97.103 E.01937
G1 X111.171 Y96.895 E.01092
G1 X110.693 Y96.597 E.01925
G1 X110.396 Y96.467 E.01106
;WIDTH:0.508606
G1 X110.129 Y96.381 E.01023
;WIDTH:0.537212
G1 X109.861 Y96.294 E.01086
G1 X109.606 Y96.268 E.0099
;WIDTH:0.517438
G1 X109.071 Y96.277 E.01984
G1 X108.23 Y96.505 E.03233
;WIDTH:0.479999
G1 X107.732 Y96.767 E.01923
G1 X107.473 Y96.957 E.01095
G1 X107.071 Y97.355 E.01934
G1 X106.88 Y97.607 E.0108
G1 X106.607 Y98.106 E.01945
G1 X106.498 Y98.399 E.01067
G1 X106.359 Y99.197 E.02767
G1 X106.158 Y98.83 E.01429
G1 X105.73 Y98.156 E.02728
G1 X105.392 Y97.681 E.01992
G1 X104.977 Y97.165 E.02263
G1 X104.497 Y96.633 E.02447
G1 X104.005 Y96.151 E.02353
G1 X103.58 Y95.78 E.01928
G1 X108.476 Y95.78 E.16726
;WIDTH:0.509621
G1 X109.322 Y95.795 E.03087
;WIDTH:0.537212
G1 X109.925 Y95.809 E.0233
G1 X110.206 Y95.794 E.01086
;WIDTH:0.508606
G1 X110.487 Y95.78 E.01023
;WIDTH:0.479999
G1 X115.445 Y95.773 E.16939
;WIDTH:0.497826
G1 X116.007 Y95.739 E.02002
;WIDTH:0.539326
G1 X116.124 Y95.751 E.00455
;WIDTH:0.580826
G1 X116.24 Y95.763 E.00493
;WIDTH:0.622325
G1 X116.357 Y95.774 E.00531
G1 X116.562 Y95.741 E.00943
;WIDTH:0.647838
G1 X117.258 Y95.595 E.03359
G1 X117.392 Y95.534 E.00698
;WIDTH:0.605879
G1 X117.526 Y95.473 E.0065
;WIDTH:0.563919
G1 X117.661 Y95.411 E.00602
;WIDTH:0.521959
G1 X117.795 Y95.35 E.00553
;WIDTH:0.479999
G1 X118.741 Y94.955 E.03503
G1 X119.651 Y94.414 E.03617
G1 X120.598 Y93.638 E.04181
G1 X121.003 Y93.219 E.01991
G1 X121.375 Y92.77 E.01993
G1 X121.714 Y92.294 E.01995
G1 X122.017 Y91.795 E.01997
G1 X122.282 Y91.273 E.01999
G1 X122.509 Y90.733 E.02
G1 X122.695 Y90.178 E.02002
G1 X122.841 Y89.61 E.02003
G1 X122.944 Y89.033 E.02004
G1 X123.006 Y88.449 E.02004
G1 X123.025 Y87.905 E.01861
G1 X123.025 Y82.572 E.18219
M73 P4 R23
G1 X123.287 Y82.46 E.00972
G1 X123.699 Y82.153 E.01756
G1 X124.047 Y81.704 E.01942
G1 X124.202 Y81.28 E.01543
G1 X124.253 Y80.954 E.01129
G1 X124.262 Y78.572 E.08137
G1 X124.21 Y78.161 E.01414
G1 X124.158 Y78.001 E.00576
G10 ; retract
G1 X123.657 Y78.254 F12000
M73 P4 R23
G1 X127.396 Y97.834
G1 X125.081 Y97.834
G1 X124.907 Y97.85
G1 X124.71 Y97.904
G1 X124.522 Y97.994
G1 X124.352 Y98.119
G1 X124.218 Y98.256
G1 X124.104 Y98.423
G1 X124.021 Y98.607
G1 X123.97 Y98.802
G1 X123.955 Y98.975
G1 X123.955 Y107.232
G1 X123.97 Y107.404
G1 X124.021 Y107.599
G1 X124.104 Y107.783
G1 X124.218 Y107.95
G1 X124.36 Y108.095
G1 X124.525 Y108.214
G1 X124.71 Y108.302
G1 X129.404 Y110.136
G1 X133.159 Y110.136
G1 X133.333 Y110.152
G1 X133.53 Y110.206
G1 X133.715 Y110.294
G1 X133.871 Y110.406
G1 X134.019 Y110.554
G1 X134.136 Y110.725
G1 X134.219 Y110.909
G1 X134.27 Y111.104
G1 X134.285 Y111.276
G1 X134.285 Y119.533
G1 X134.261 Y123.613
G1 X134.24 Y124.305
G1 X134.21 Y125.028
G1 X134.173 Y125.748
G1 X133.85 Y129.846
G1 X133.707 Y131.25
G1 X133.628 Y131.965
G1 X133.597 Y132.124
G1 X133.533 Y132.299
G1 X133.441 Y132.463
G1 X133.325 Y132.61
G1 X133.194 Y132.73
G1 X133.103 Y132.791
G1 X133.03 Y135.494
G1 X133.507 Y135.267
G11 ; unretract
G1 F1440
G1 X133.602 Y135.476 E.00782
G1 X133.657 Y135.998 E.01795
G1 X133.556 Y136.699 E.02417
;WIDTH:0.470897
G1 X133.465 Y137.126 E.01461
;WIDTH:0.425707
G1 X133.374 Y137.553 E.01306
;WIDTH:0.392029
G1 X133.297 Y138.057 E.01392
;WIDTH:0.43423
G1 X133.244 Y138.354 E.00923
;WIDTH:0.47643
G1 X133.191 Y138.651 E.01023
;WIDTH:0.479999
G1 X132.915 Y139.091 E.01773
G1 X132.778 Y139.232 E.00671
G1 X132.421 Y139.476 E.01476
G1 X131.944 Y139.655 E.01741
G1 X131.019 Y139.678 E.03161
G1 X110.266 Y139.685 E.70899
G1 X109.864 Y139.63 E.01388
G1 X109.505 Y139.496 E.01308
;WIDTH:0.521115
G1 X109.013 Y139.153 E.0224
;WIDTH:0.567941
G1 X108.931 Y139.088 E.00431
;WIDTH:0.614767
G1 X108.848 Y139.023 E.0047
;WIDTH:0.661592
G1 X108.766 Y138.958 E.00508
G1 X108.565 Y138.466 E.02567
;WIDTH:0.635738
G1 X108.493 Y137.978 E.02286
G1 X108.496 Y137.891 E.00407
;WIDTH:0.596804
G1 X108.498 Y137.803 E.0038
;WIDTH:0.557869
G1 X108.501 Y137.715 E.00353
;WIDTH:0.518934
G1 X108.504 Y137.627 E.00327
;WIDTH:0.479999
G1 X109.954 Y134.993 E.10274
G1 X110.21 Y134.683 E.01373
G1 X110.694 Y134.336 E.02035
G1 X111.273 Y134.188 E.02039
G1 X112.809 Y134.181 E.0525
;WIDTH:0.515009
G1 X113.005 Y134.164 E.00726
